P3
200 150
255
0 0 0
0 0 0
0 0 0
0 0 0
0 0 0
0 0 0
0 0 0
0 0 0
0 0 0
0 0 0
0 0 0
0 0 0
0 0 0
0 0 0
0 0 0
0 0 0
0 0 0
0 0 0
0 0 0
0 0 0
0 0 0
0 0 0
0 0 0
0 0 0
0 0 0
0 0 0
0 0 0
0 0 0
0 0 0
0 0 0
0 0 0
0 0 0
0 0 0
0 0 0
0 0 0
0 0 0
0 0 0
0 0 0
0 0 0
0 0 0
0 0 0
0 0 0
0 0 0
0 0 0
0 0 0
0 0 0
0 0 0
0 0 0
0 0 0
0 0 0
0 0 0
0 0 0
128 128 128
128 128 128
128 128 128
128 128 128
128 128 128
128 128 128
128 128 128
128 128 128
128 128 128
128 128 128
128 128 128
128 128 128
128 128 128
128 128 128
128 128 128
128 128 128
128 128 128
128 128 128
128 128 128
128 128 128
128 128 128
128 128 128
128 128 128
128 128 128
128 128 128
128 128 128
128 128 128
128 128 128
128 128 128
128 128 128
128 128 128
128 128 128
128 128 128
128 128 128
128 128 128
128 128 128
128 128 128
128 128 128
128 128 128
128 128 128
128 128 128
128 128 128
128 128 128
128 128 128
128 128 128
128 128 128
128 128 128
128 128 128
128 128 128
128 128 128
0 0 0
0 0 0
0 0 0
0 0 0
0 0 0
0 0 0
0 0 0
0 0 0
0 0 0
0 0 0
0 0 0
0 0 0
0 0 0
0 0 0
0 0 0
0 0 0
0 0 0
0 0 0
0 0 0
0 0 0
0 0 0
0 0 0
0 0 0
0 0 0
0 0 0
0 0 0
0 0 0
0 0 0
0 0 0
0 0 0
0 0 0
0 0 0
0 0 0
0 0 0
0 0 0
0 0 0
0 0 0
0 0 0
0 0 0
0 0 0
0 0 0
0 0 0
0 0 0
0 0 0
0 0 0
0 0 0
0 0 0
0 0 0
0 0 0
0 0 0
0 0 0
0 0 0
0 0 0
0 0 0
0 0 0
0 0 0
0 0 0
0 0 0
0 0 0
0 0 0
0 0 0
0 0 0
0 0 0
0 0 0
0 0 0
0 0 0
0 0 0
0 0 0
0 0 0
0 0 0
0 0 0
0 0 0
0 0 0
0 0 0
0 0 0
0 0 0
0 0 0
0 0 0
0 0 0
0 0 0
0 0 0
0 0 0
0 0 0
0 0 0
0 0 0
0 0 0
0 0 0
0 0 0
0 0 0
0 0 0
0 0 0
0 0 0
0 0 0
0 0 0
0 0 0
0 0 0
0 0 0
0 0 0
0 0 0
0 0 0
0 0 0
0 0 0
0 0 0
0 0 0
0 0 0
0 0 0
0 0 0
0 0 0
0 0 0
0 0 0
0 0 0
0 0 0
0 0 0
0 0 0
0 0 0
0 0 0
0 0 0
0 0 0
0 0 0
0 0 0
0 0 0
0 0 0
0 0 0
0 0 0
0 0 0
0 0 0
0 0 0
0 0 0
0 0 0
0 0 0
0 0 0
0 0 0
0 0 0
0 0 0
0 0 0
0 0 0
0 0 0
0 0 0
0 0 0
0 0 0
0 0 0
0 0 0
0 0 0
0 0 0
0 0 0
0 0 0
0 0 0
0 0 0
128 128 128
128 128 128
128 128 128
128 128 128
128 128 128
128 128 128
128 128 128
128 128 128
128 128 128
128 128 128
128 128 128
128 128 128
128 128 128
128 128 128
128 128 128
128 128 128
128 128 128
128 128 128
128 128 128
128 128 128
128 128 128
128 128 128
128 128 128
128 128 128
128 128 128
128 128 128
128 128 128
128 128 128
128 128 128
128 128 128
128 128 128
128 128 128
128 128 128
128 128 128
128 128 128
128 128 128
128 128 128
128 128 128
128 128 128
128 128 128
128 128 128
128 128 128
128 128 128
128 128 128
128 128 128
128 128 128
128 128 128
128 128 128
128 128 128
128 128 128
128 128 128
128 128 128
128 128 128
128 128 128
0 0 0
0 0 0
0 0 0
0 0 0
0 0 0
0 0 0
0 0 0
0 0 0
0 0 0
0 0 0
0 0 0
0 0 0
0 0 0
0 0 0
0 0 0
0 0 0
0 0 0
0 0 0
0 0 0
0 0 0
0 0 0
0 0 0
0 0 0
0 0 0
0 0 0
0 0 0
0 0 0
0 0 0
0 0 0
0 0 0
0 0 0
0 0 0
0 0 0
0 0 0
0 0 0
0 0 0
0 0 0
0 0 0
0 0 0
0 0 0
0 0 0
0 0 0
0 0 0
0 0 0
0 0 0
0 0 0
0 0 0
0 0 0
0 0 0
0 0 0
0 0 0
0 0 0
0 0 0
0 0 0
0 0 0
0 0 0
0 0 0
0 0 0
0 0 0
0 0 0
0 0 0
0 0 0
0 0 0
0 0 0
0 0 0
0 0 0
0 0 0
0 0 0
0 0 0
0 0 0
0 0 0
0 0 0
0 0 0
0 0 0
0 0 0
0 0 0
0 0 0
0 0 0
0 0 0
0 0 0
0 0 0
0 0 0
0 0 0
0 0 0
0 0 0
0 0 0
0 0 0
0 0 0
0 0 0
0 0 0
0 0 0
0 0 0
0 0 0
0 0 0
0 0 0
0 0 0
0 0 0
0 0 0
0 0 0
0 0 0
0 0 0
0 0 0
0 0 0
0 0 0
0 0 0
0 0 0
0 0 0
0 0 0
0 0 0
0 0 0
0 0 0
0 0 0
0 0 0
0 0 0
0 0 0
0 0 0
0 0 0
0 0 0
0 0 0
0 0 0
0 0 0
0 0 0
0 0 0
0 0 0
0 0 0
0 0 0
0 0 0
0 0 0
0 0 0
0 0 0
0 0 0
0 0 0
0 0 0
0 0 0
0 0 0
0 0 0
0 0 0
0 0 0
0 0 0
0 0 0
0 0 0
0 0 0
0 0 0
0 0 0
128 128 128
128 128 128
128 128 128
128 128 128
128 128 128
128 128 128
128 128 128
128 128 128
128 128 128
128 128 128
128 128 128
128 128 128
128 128 128
128 128 128
128 128 128
128 128 128
128 128 128
128 128 128
128 128 128
128 128 128
128 128 128
128 128 128
128 128 128
128 128 128
128 128 128
128 128 128
128 128 128
128 128 128
128 128 128
128 128 128
128 128 128
128 128 128
128 128 128
128 128 128
128 128 128
128 128 128
128 128 128
128 128 128
128 128 128
128 128 128
128 128 128
128 128 128
128 128 128
128 128 128
128 128 128
128 128 128
128 128 128
128 128 128
128 128 128
128 128 128
128 128 128
128 128 128
128 128 128
128 128 128
128 128 128
128 128 128
128 128 128
128 128 128
128 128 128
0 0 0
0 0 0
0 0 0
0 0 0
0 0 0
0 0 0
0 0 0
0 0 0
0 0 0
0 0 0
0 0 0
0 0 0
0 0 0
0 0 0
0 0 0
0 0 0
0 0 0
0 0 0
0 0 0
0 0 0
0 0 0
0 0 0
0 0 0
0 0 0
0 0 0
0 0 0
0 0 0
0 0 0
0 0 0
0 0 0
0 0 0
0 0 0
0 0 0
0 0 0
0 0 0
0 0 0
0 0 0
0 0 0
0 0 0
0 0 0
0 0 0
0 0 0
0 0 0
0 0 0
0 0 0
0 0 0
0 0 0
0 0 0
0 0 0
0 0 0
0 0 0
0 0 0
0 0 0
0 0 0
0 0 0
0 0 0
0 0 0
0 0 0
0 0 0
0 0 0
0 0 0
0 0 0
0 0 0
0 0 0
0 0 0
0 0 0
0 0 0
0 0 0
0 0 0
0 0 0
0 0 0
0 0 0
0 0 0
0 0 0
0 0 0
0 0 0
0 0 0
0 0 0
0 0 0
0 0 0
0 0 0
0 0 0
0 0 0
0 0 0
0 0 0
0 0 0
0 0 0
0 0 0
0 0 0
0 0 0
0 0 0
0 0 0
0 0 0
0 0 0
0 0 0
0 0 0
0 0 0
0 0 0
0 0 0
0 0 0
0 0 0
0 0 0
0 0 0
0 0 0
0 0 0
0 0 0
0 0 0
0 0 0
0 0 0
0 0 0
0 0 0
0 0 0
0 0 0
0 0 0
0 0 0
0 0 0
0 0 0
0 0 0
0 0 0
0 0 0
0 0 0
0 0 0
0 0 0
0 0 0
0 0 0
0 0 0
0 0 0
0 0 0
0 0 0
0 0 0
0 0 0
0 0 0
0 0 0
0 0 0
0 0 0
0 0 0
0 0 0
0 0 0
0 0 0
128 128 128
128 128 128
128 128 128
128 128 128
128 128 128
128 128 128
128 128 128
128 128 128
128 128 128
128 128 128
128 128 128
128 128 128
128 128 128
128 128 128
128 128 128
128 128 128
128 128 128
128 128 128
128 128 128
128 128 128
128 128 128
128 128 128
128 128 128
128 128 128
128 128 128
128 128 128
128 128 128
128 128 128
128 128 128
128 128 128
128 128 128
128 128 128
128 128 128
128 128 128
128 128 128
128 128 128
128 128 128
128 128 128
128 128 128
128 128 128
128 128 128
128 128 128
128 128 128
128 128 128
128 128 128
128 128 128
128 128 128
128 128 128
128 128 128
128 128 128
128 128 128
128 128 128
128 128 128
128 128 128
128 128 128
128 128 128
128 128 128
128 128 128
128 128 128
128 128 128
128 128 128
128 128 128
128 128 128
0 0 0
0 0 0
0 0 0
0 0 0
0 0 0
0 0 0
0 0 0
0 0 0
0 0 0
0 0 0
0 0 0
0 0 0
0 0 0
0 0 0
0 0 0
0 0 0
0 0 0
0 0 0
0 0 0
0 0 0
0 0 0
0 0 0
0 0 0
0 0 0
0 0 0
0 0 0
0 0 0
0 0 0
0 0 0
0 0 0
0 0 0
0 0 0
0 0 0
0 0 0
0 0 0
0 0 0
0 0 0
0 0 0
0 0 0
0 0 0
0 0 0
0 0 0
0 0 0
0 0 0
0 0 0
0 0 0
0 0 0
0 0 0
0 0 0
0 0 0
0 0 0
0 0 0
0 0 0
0 0 0
0 0 0
0 0 0
0 0 0
0 0 0
0 0 0
0 0 0
0 0 0
0 0 0
0 0 0
0 0 0
0 0 0
0 0 0
0 0 0
0 0 0
0 0 0
0 0 0
0 0 0
0 0 0
0 0 0
0 0 0
0 0 0
0 0 0
0 0 0
0 0 0
0 0 0
0 0 0
0 0 0
0 0 0
0 0 0
0 0 0
0 0 0
0 0 0
0 0 0
0 0 0
0 0 0
0 0 0
0 0 0
0 0 0
0 0 0
0 0 0
0 0 0
0 0 0
0 0 0
0 0 0
0 0 0
0 0 0
0 0 0
0 0 0
0 0 0
0 0 0
0 0 0
0 0 0
0 0 0
0 0 0
0 0 0
0 0 0
0 0 0
0 0 0
0 0 0
0 0 0
0 0 0
0 0 0
0 0 0
0 0 0
0 0 0
0 0 0
0 0 0
0 0 0
0 0 0
0 0 0
0 0 0
0 0 0
0 0 0
0 0 0
0 0 0
0 0 0
0 0 0
0 0 0
0 0 0
0 0 0
0 0 0
128 128 128
128 128 128
128 128 128
128 128 128
128 128 128
128 128 128
128 128 128
128 128 128
128 128 128
128 128 128
128 128 128
128 128 128
128 128 128
128 128 128
128 128 128
128 128 128
128 128 128
128 128 128
128 128 128
128 128 128
128 128 128
128 128 128
128 128 128
128 128 128
128 128 128
128 128 128
128 128 128
128 128 128
128 128 128
128 128 128
128 128 128
128 128 128
128 128 128
128 128 128
128 128 128
128 128 128
128 128 128
128 128 128
128 128 128
128 128 128
128 128 128
128 128 128
128 128 128
128 128 128
128 128 128
128 128 128
128 128 128
128 128 128
128 128 128
128 128 128
128 128 128
128 128 128
128 128 128
128 128 128
128 128 128
128 128 128
128 128 128
128 128 128
128 128 128
128 128 128
128 128 128
128 128 128
128 128 128
128 128 128
128 128 128
128 128 128
0 0 0
0 0 0
0 0 0
0 0 0
0 0 0
0 0 0
0 0 0
0 0 0
0 0 0
0 0 0
0 0 0
0 0 0
0 0 0
0 0 0
0 0 0
0 0 0
0 0 0
0 0 0
0 0 0
0 0 0
0 0 0
0 0 0
0 0 0
0 0 0
0 0 0
0 0 0
0 0 0
0 0 0
0 0 0
0 0 0
0 0 0
0 0 0
0 0 0
0 0 0
0 0 0
0 0 0
0 0 0
0 0 0
0 0 0
0 0 0
0 0 0
0 0 0
0 0 0
0 0 0
0 0 0
0 0 0
0 0 0
0 0 0
0 0 0
0 0 0
0 0 0
0 0 0
0 0 0
0 0 0
0 0 0
0 0 0
0 0 0
0 0 0
0 0 0
0 0 0
0 0 0
0 0 0
0 0 0
0 0 0
0 0 0
0 0 0
0 0 0
0 0 0
0 0 0
0 0 0
0 0 0
0 0 0
0 0 0
0 0 0
0 0 0
0 0 0
0 0 0
0 0 0
0 0 0
0 0 0
0 0 0
0 0 0
0 0 0
0 0 0
0 0 0
0 0 0
0 0 0
0 0 0
0 0 0
0 0 0
0 0 0
0 0 0
0 0 0
0 0 0
0 0 0
0 0 0
0 0 0
0 0 0
0 0 0
0 0 0
0 0 0
0 0 0
0 0 0
0 0 0
0 0 0
0 0 0
0 0 0
0 0 0
0 0 0
0 0 0
0 0 0
0 0 0
0 0 0
0 0 0
0 0 0
0 0 0
0 0 0
0 0 0
0 0 0
0 0 0
0 0 0
0 0 0
0 0 0
0 0 0
0 0 0
0 0 0
0 0 0
0 0 0
0 0 0
0 0 0
0 0 0
0 0 0
128 128 128
128 128 128
128 128 128
128 128 128
128 128 128
128 128 128
128 128 128
128 128 128
128 128 128
128 128 128
128 128 128
128 128 128
128 128 128
128 128 128
128 128 128
128 128 128
128 128 128
128 128 128
128 128 128
128 128 128
128 128 128
128 128 128
128 128 128
128 128 128
128 128 128
128 128 128
128 128 128
128 128 128
128 128 128
128 128 128
128 128 128
128 128 128
128 128 128
128 128 128
128 128 128
128 128 128
128 128 128
128 128 128
128 128 128
128 128 128
128 128 128
128 128 128
128 128 128
128 128 128
128 128 128
128 128 128
128 128 128
128 128 128
128 128 128
128 128 128
128 128 128
128 128 128
128 128 128
128 128 128
128 128 128
128 128 128
128 128 128
128 128 128
128 128 128
128 128 128
128 128 128
128 128 128
128 128 128
128 128 128
128 128 128
128 128 128
128 128 128
128 128 128
128 128 128
128 128 128
0 0 0
0 0 0
0 0 0
0 0 0
0 0 0
0 0 0
0 0 0
0 0 0
0 0 0
0 0 0
0 0 0
0 0 0
0 0 0
0 0 0
0 0 0
0 0 0
0 0 0
0 0 0
0 0 0
0 0 0
0 0 0
0 0 0
0 0 0
0 0 0
0 0 0
0 0 0
0 0 0
0 0 0
0 0 0
0 0 0
0 0 0
0 0 0
0 0 0
0 0 0
0 0 0
0 0 0
0 0 0
0 0 0
0 0 0
0 0 0
0 0 0
0 0 0
0 0 0
0 0 0
0 0 0
0 0 0
0 0 0
0 0 0
0 0 0
0 0 0
0 0 0
0 0 0
0 0 0
0 0 0
0 0 0
0 0 0
0 0 0
0 0 0
0 0 0
0 0 0
0 0 0
0 0 0
0 0 0
0 0 0
0 0 0
0 0 0
0 0 0
0 0 0
0 0 0
0 0 0
0 0 0
0 0 0
0 0 0
0 0 0
0 0 0
0 0 0
0 0 0
0 0 0
0 0 0
0 0 0
0 0 0
0 0 0
0 0 0
0 0 0
0 0 0
0 0 0
0 0 0
0 0 0
0 0 0
0 0 0
0 0 0
0 0 0
0 0 0
0 0 0
0 0 0
0 0 0
0 0 0
0 0 0
0 0 0
0 0 0
0 0 0
0 0 0
0 0 0
0 0 0
0 0 0
0 0 0
0 0 0
0 0 0
0 0 0
0 0 0
0 0 0
0 0 0
0 0 0
0 0 0
0 0 0
0 0 0
0 0 0
0 0 0
0 0 0
0 0 0
0 0 0
0 0 0
0 0 0
0 0 0
0 0 0
0 0 0
0 0 0
0 0 0
0 0 0
128 128 128
128 128 128
128 128 128
128 128 128
128 128 128
128 128 128
128 128 128
128 128 128
128 128 128
128 128 128
128 128 128
128 128 128
128 128 128
128 128 128
128 128 128
128 128 128
128 128 128
128 128 128
128 128 128
128 128 128
128 128 128
128 128 128
128 128 128
128 128 128
128 128 128
128 128 128
128 128 128
128 128 128
128 128 128
128 128 128
128 128 128
128 128 128
128 128 128
128 128 128
128 128 128
128 128 128
128 128 128
128 128 128
128 128 128
128 128 128
128 128 128
128 128 128
128 128 128
128 128 128
128 128 128
128 128 128
128 128 128
128 128 128
128 128 128
128 128 128
128 128 128
128 128 128
128 128 128
128 128 128
128 128 128
128 128 128
128 128 128
128 128 128
128 128 128
128 128 128
128 128 128
128 128 128
128 128 128
128 128 128
128 128 128
128 128 128
128 128 128
128 128 128
128 128 128
128 128 128
128 128 128
128 128 128
128 128 128
0 0 0
0 0 0
0 0 0
0 0 0
0 0 0
0 0 0
0 0 0
0 0 0
0 0 0
0 0 0
0 0 0
0 0 0
0 0 0
0 0 0
0 0 0
0 0 0
0 0 0
0 0 0
0 0 0
0 0 0
0 0 0
0 0 0
0 0 0
0 0 0
0 0 0
0 0 0
0 0 0
0 0 0
0 0 0
0 0 0
0 0 0
0 0 0
0 0 0
0 0 0
0 0 0
0 0 0
0 0 0
0 0 0
0 0 0
0 0 0
0 0 0
0 0 0
0 0 0
0 0 0
0 0 0
0 0 0
0 0 0
0 0 0
0 0 0
0 0 0
0 0 0
0 0 0
0 0 0
0 0 0
0 0 0
0 0 0
0 0 0
0 0 0
0 0 0
0 0 0
0 0 0
0 0 0
0 0 0
0 0 0
0 0 0
0 0 0
0 0 0
0 0 0
0 0 0
0 0 0
0 0 0
0 0 0
0 0 0
0 0 0
0 0 0
0 0 0
0 0 0
0 0 0
0 0 0
0 0 0
0 0 0
0 0 0
0 0 0
0 0 0
0 0 0
0 0 0
0 0 0
0 0 0
0 0 0
0 0 0
0 0 0
0 0 0
0 0 0
0 0 0
0 0 0
0 0 0
0 0 0
0 0 0
0 0 0
0 0 0
0 0 0
0 0 0
0 0 0
0 0 0
0 0 0
0 0 0
0 0 0
0 0 0
0 0 0
0 0 0
0 0 0
0 0 0
0 0 0
0 0 0
0 0 0
0 0 0
0 0 0
0 0 0
0 0 0
0 0 0
0 0 0
0 0 0
0 0 0
0 0 0
0 0 0
0 0 0
128 128 128
128 128 128
128 128 128
128 128 128
128 128 128
128 128 128
128 128 128
128 128 128
128 128 128
128 128 128
128 128 128
128 128 128
128 128 128
128 128 128
128 128 128
128 128 128
128 128 128
128 128 128
128 128 128
128 128 128
128 128 128
128 128 128
128 128 128
128 128 128
128 128 128
128 128 128
128 128 128
128 128 128
128 128 128
128 128 128
128 128 128
128 128 128
128 128 128
128 128 128
128 128 128
128 128 128
128 128 128
128 128 128
128 128 128
128 128 128
128 128 128
128 128 128
128 128 128
128 128 128
128 128 128
128 128 128
128 128 128
128 128 128
128 128 128
128 128 128
128 128 128
128 128 128
128 128 128
128 128 128
128 128 128
128 128 128
128 128 128
128 128 128
128 128 128
128 128 128
128 128 128
128 128 128
128 128 128
128 128 128
128 128 128
128 128 128
128 128 128
128 128 128
128 128 128
128 128 128
128 128 128
128 128 128
128 128 128
128 128 128
128 128 128
0 0 0
0 0 0
0 0 0
0 0 0
0 0 0
0 0 0
0 0 0
0 0 0
0 0 0
0 0 0
0 0 0
0 0 0
0 0 0
0 0 0
0 0 0
0 0 0
0 0 0
0 0 0
0 0 0
0 0 0
0 0 0
0 0 0
0 0 0
0 0 0
0 0 0
0 0 0
0 0 0
0 0 0
0 0 0
0 0 0
0 0 0
0 0 0
0 0 0
0 0 0
0 0 0
0 0 0
0 0 0
0 0 0
0 0 0
0 0 0
0 0 0
0 0 0
0 0 0
0 0 0
0 0 0
0 0 0
0 0 0
0 0 0
0 0 0
0 0 0
0 0 0
0 0 0
0 0 0
0 0 0
0 0 0
0 0 0
0 0 0
0 0 0
0 0 0
0 0 0
0 0 0
0 0 0
0 0 0
128 128 128
0 0 0
0 0 0
0 0 0
0 0 0
0 0 0
0 0 0
0 0 0
128 128 128
0 0 0
0 0 0
0 0 0
0 0 0
0 0 0
0 0 0
0 0 0
0 0 0
0 0 0
0 0 0
0 0 0
0 0 0
128 128 128
0 0 0
0 0 0
0 0 0
0 0 0
0 0 0
0 0 0
0 0 0
0 0 0
0 0 0
0 0 0
0 0 0
0 0 0
0 0 0
0 0 0
0 0 0
0 0 0
0 0 0
0 0 0
0 0 0
0 0 0
0 0 0
0 0 0
0 0 0
0 0 0
0 0 0
0 0 0
0 0 0
0 0 0
0 0 0
0 0 0
0 0 0
0 0 0
0 0 0
0 0 0
0 0 0
0 0 0
0 0 0
0 0 0
128 128 128
128 128 128
128 128 128
128 128 128
128 128 128
128 128 128
128 128 128
128 128 128
128 128 128
128 128 128
128 128 128
128 128 128
128 128 128
128 128 128
128 128 128
128 128 128
128 128 128
128 128 128
128 128 128
128 128 128
128 128 128
128 128 128
128 128 128
128 128 128
128 128 128
128 128 128
128 128 128
128 128 128
128 128 128
128 128 128
128 128 128
128 128 128
128 128 128
128 128 128
128 128 128
128 128 128
128 128 128
128 128 128
128 128 128
128 128 128
128 128 128
128 128 128
128 128 128
128 128 128
128 128 128
128 128 128
128 128 128
128 128 128
128 128 128
128 128 128
128 128 128
128 128 128
128 128 128
128 128 128
128 128 128
128 128 128
128 128 128
128 128 128
128 128 128
128 128 128
128 128 128
128 128 128
128 128 128
128 128 128
128 128 128
128 128 128
128 128 128
128 128 128
128 128 128
128 128 128
128 128 128
128 128 128
128 128 128
128 128 128
128 128 128
128 128 128
128 128 128
128 128 128
128 128 128
0 0 0
0 0 0
0 0 0
0 0 0
0 0 0
0 0 0
0 0 0
0 0 0
0 0 0
0 0 0
0 0 0
0 0 0
0 0 0
0 0 0
0 0 0
0 0 0
0 0 0
0 0 0
0 0 0
0 0 0
0 0 0
0 0 0
0 0 0
0 0 0
0 0 0
0 0 0
0 0 0
0 0 0
0 0 0
0 0 0
0 0 0
0 0 0
0 0 0
0 0 0
0 0 0
0 0 0
0 0 0
0 0 0
0 0 0
0 0 0
0 0 0
0 0 0
0 0 0
0 0 0
0 0 0
0 0 0
0 0 0
0 0 0
0 0 0
0 0 0
0 0 0
0 0 0
0 0 0
0 0 0
0 0 0
0 0 0
0 0 0
0 0 0
0 0 0
0 0 0
0 0 0
128 128 128
128 128 128
0 0 0
0 0 0
0 0 0
0 0 0
0 0 0
128 128 128
128 128 128
128 128 128
128 128 128
128 128 128
128 128 128
0 0 0
0 0 0
0 0 0
0 0 0
0 0 0
0 0 0
128 128 128
128 128 128
128 128 128
0 0 0
0 0 0
0 0 0
0 0 0
0 0 0
0 0 0
0 0 0
0 0 0
0 0 0
0 0 0
0 0 0
0 0 0
0 0 0
0 0 0
0 0 0
0 0 0
0 0 0
0 0 0
0 0 0
0 0 0
0 0 0
0 0 0
0 0 0
0 0 0
0 0 0
0 0 0
0 0 0
0 0 0
0 0 0
0 0 0
0 0 0
0 0 0
0 0 0
0 0 0
0 0 0
0 0 0
0 0 0
128 128 128
128 128 128
128 128 128
128 128 128
128 128 128
128 128 128
128 128 128
128 128 128
128 128 128
128 128 128
128 128 128
128 128 128
128 128 128
128 128 128
128 128 128
128 128 128
128 128 128
128 128 128
128 128 128
128 128 128
128 128 128
128 128 128
128 128 128
128 128 128
128 128 128
128 128 128
128 128 128
128 128 128
128 128 128
128 128 128
128 128 128
128 128 128
128 128 128
128 128 128
128 128 128
128 128 128
128 128 128
128 128 128
128 128 128
128 128 128
128 128 128
128 128 128
128 128 128
128 128 128
128 128 128
128 128 128
128 128 128
128 128 128
128 128 128
128 128 128
128 128 128
128 128 128
128 128 128
128 128 128
128 128 128
128 128 128
128 128 128
128 128 128
128 128 128
128 128 128
128 128 128
128 128 128
128 128 128
128 128 128
128 128 128
128 128 128
128 128 128
128 128 128
128 128 128
128 128 128
128 128 128
128 128 128
128 128 128
128 128 128
128 128 128
128 128 128
128 128 128
128 128 128
128 128 128
128 128 128
128 128 128
0 0 0
0 0 0
0 0 0
0 0 0
0 0 0
0 0 0
0 0 0
0 0 0
0 0 0
0 0 0
0 0 0
0 0 0
0 0 0
0 0 0
0 0 0
0 0 0
0 0 0
0 0 0
0 0 0
0 0 0
0 0 0
0 0 0
0 0 0
0 0 0
0 0 0
0 0 0
0 0 0
0 0 0
0 0 0
0 0 0
0 0 0
0 0 0
0 0 0
0 0 0
0 0 0
0 0 0
0 0 0
0 0 0
0 0 0
0 0 0
0 0 0
0 0 0
0 0 0
0 0 0
0 0 0
0 0 0
0 0 0
0 0 0
0 0 0
0 0 0
0 0 0
0 0 0
0 0 0
0 0 0
0 0 0
0 0 0
0 0 0
0 0 0
0 0 0
0 0 0
128 128 128
0 0 0
0 0 0
0 0 0
0 0 0
0 0 0
0 0 0
128 128 128
128 128 128
128 128 128
128 128 128
128 128 128
128 128 128
0 0 0
0 0 0
0 0 0
0 0 0
0 0 0
0 0 0
128 128 128
128 128 128
128 128 128
0 0 0
0 0 0
0 0 0
0 0 0
0 0 0
0 0 0
0 0 0
0 0 0
0 0 0
0 0 0
0 0 0
0 0 0
0 0 0
0 0 0
0 0 0
0 0 0
0 0 0
0 0 0
0 0 0
0 0 0
0 0 0
0 0 0
0 0 0
0 0 0
0 0 0
0 0 0
0 0 0
0 0 0
0 0 0
0 0 0
0 0 0
0 0 0
0 0 0
0 0 0
0 0 0
0 0 0
128 128 128
128 128 128
128 128 128
128 128 128
128 128 128
128 128 128
128 128 128
128 128 128
128 128 128
128 128 128
128 128 128
128 128 128
128 128 128
128 128 128
128 128 128
128 128 128
128 128 128
128 128 128
128 128 128
128 128 128
128 128 128
128 128 128
128 128 128
128 128 128
128 128 128
128 128 128
128 128 128
128 128 128
128 128 128
128 128 128
128 128 128
128 128 128
128 128 128
128 128 128
128 128 128
128 128 128
128 128 128
128 128 128
128 128 128
128 128 128
128 128 128
128 128 128
128 128 128
128 128 128
128 128 128
128 128 128
128 128 128
128 128 128
128 128 128
128 128 128
128 128 128
128 128 128
128 128 128
128 128 128
128 128 128
128 128 128
128 128 128
128 128 128
128 128 128
128 128 128
128 128 128
128 128 128
128 128 128
128 128 128
128 128 128
128 128 128
128 128 128
128 128 128
128 128 128
128 128 128
128 128 128
128 128 128
128 128 128
128 128 128
128 128 128
128 128 128
128 128 128
128 128 128
128 128 128
128 128 128
128 128 128
128 128 128
128 128 128
0 0 0
0 0 0
0 0 0
0 0 0
0 0 0
0 0 0
0 0 0
0 0 0
0 0 0
0 0 0
0 0 0
0 0 0
0 0 0
0 0 0
0 0 0
0 0 0
0 0 0
0 0 0
0 0 0
0 0 0
0 0 0
0 0 0
0 0 0
0 0 0
0 0 0
0 0 0
0 0 0
0 0 0
0 0 0
0 0 0
0 0 0
0 0 0
0 0 0
0 0 0
0 0 0
0 0 0
0 0 0
0 0 0
0 0 0
0 0 0
0 0 0
0 0 0
0 0 0
0 0 0
0 0 0
0 0 0
0 0 0
0 0 0
0 0 0
0 0 0
0 0 0
0 0 0
0 0 0
0 0 0
0 0 0
0 0 0
0 0 0
0 0 0
0 0 0
0 0 0
0 0 0
0 0 0
0 0 0
0 0 0
0 0 0
0 0 0
0 0 0
128 128 128
0 0 0
0 0 0
0 0 0
0 0 0
0 0 0
0 0 0
0 0 0
0 0 0
0 0 0
0 0 0
128 128 128
128 128 128
128 128 128
0 0 0
0 0 0
0 0 0
0 0 0
0 0 0
0 0 0
0 0 0
0 0 0
0 0 0
0 0 0
0 0 0
0 0 0
0 0 0
0 0 0
0 0 0
0 0 0
0 0 0
0 0 0
0 0 0
0 0 0
0 0 0
0 0 0
0 0 0
0 0 0
0 0 0
0 0 0
0 0 0
0 0 0
0 0 0
0 0 0
0 0 0
0 0 0
0 0 0
0 0 0
128 128 128
128 128 128
128 128 128
128 128 128
128 128 128
128 128 128
128 128 128
128 128 128
128 128 128
128 128 128
128 128 128
128 128 128
128 128 128
128 128 128
128 128 128
128 128 128
128 128 128
128 128 128
128 128 128
128 128 128
128 128 128
128 128 128
128 128 128
128 128 128
128 128 128
128 128 128
128 128 128
128 128 128
128 128 128
128 128 128
128 128 128
128 128 128
128 128 128
128 128 128
128 128 128
128 128 128
128 128 128
128 128 128
128 128 128
128 128 128
128 128 128
128 128 128
128 128 128
128 128 128
128 128 128
128 128 128
128 128 128
128 128 128
128 128 128
128 128 128
128 128 128
128 128 128
128 128 128
128 128 128
128 128 128
128 128 128
128 128 128
128 128 128
128 128 128
128 128 128
128 128 128
128 128 128
128 128 128
128 128 128
128 128 128
128 128 128
128 128 128
128 128 128
128 128 128
128 128 128
128 128 128
128 128 128
128 128 128
128 128 128
128 128 128
128 128 128
128 128 128
128 128 128
128 128 128
128 128 128
128 128 128
128 128 128
128 128 128
128 128 128
128 128 128
128 128 128
0 0 0
0 0 0
0 0 0
0 0 0
0 0 0
0 0 0
0 0 0
0 0 0
0 0 0
0 0 0
0 0 0
0 0 0
0 0 0
0 0 0
0 0 0
0 0 0
0 0 0
0 0 0
0 0 0
0 0 0
0 0 0
0 0 0
0 0 0
0 0 0
0 0 0
0 0 0
0 0 0
0 0 0
0 0 0
0 0 0
0 0 0
0 0 0
0 0 0
0 0 0
0 0 0
0 0 0
0 0 0
0 0 0
0 0 0
0 0 0
0 0 0
0 0 0
0 0 0
0 0 0
0 0 0
0 0 0
0 0 0
0 0 0
0 0 0
0 0 0
0 0 0
0 0 0
0 0 0
0 0 0
128 128 128
128 128 128
128 128 128
128 128 128
0 0 0
0 0 0
0 0 0
0 0 0
0 0 0
0 0 0
0 0 0
0 0 0
0 0 0
0 0 0
0 0 0
0 0 0
128 128 128
128 128 128
0 0 0
0 0 0
0 0 0
0 0 0
0 0 0
128 128 128
128 128 128
128 128 128
0 0 0
0 0 0
0 0 0
0 0 0
0 0 0
0 0 0
0 0 0
0 0 0
0 0 0
0 0 0
0 0 0
0 0 0
0 0 0
0 0 0
0 0 0
0 0 0
0 0 0
0 0 0
0 0 0
0 0 0
0 0 0
0 0 0
0 0 0
0 0 0
0 0 0
0 0 0
0 0 0
0 0 0
0 0 0
0 0 0
0 0 0
0 0 0
0 0 0
128 128 128
128 128 128
128 128 128
128 128 128
128 128 128
128 128 128
128 128 128
128 128 128
128 128 128
128 128 128
128 128 128
128 128 128
128 128 128
128 128 128
128 128 128
128 128 128
128 128 128
128 128 128
128 128 128
128 128 128
128 128 128
128 128 128
128 128 128
128 128 128
128 128 128
128 128 128
128 128 128
128 128 128
128 128 128
128 128 128
128 128 128
128 128 128
128 128 128
128 128 128
128 128 128
128 128 128
128 128 128
128 128 128
128 128 128
128 128 128
128 128 128
128 128 128
128 128 128
128 128 128
128 128 128
128 128 128
128 128 128
128 128 128
128 128 128
128 128 128
128 128 128
128 128 128
128 128 128
128 128 128
128 128 128
128 128 128
128 128 128
128 128 128
128 128 128
128 128 128
128 128 128
128 128 128
128 128 128
128 128 128
128 128 128
128 128 128
128 128 128
128 128 128
128 128 128
128 128 128
128 128 128
128 128 128
128 128 128
128 128 128
128 128 128
128 128 128
128 128 128
128 128 128
128 128 128
128 128 128
128 128 128
128 128 128
128 128 128
128 128 128
128 128 128
128 128 128
128 128 128
128 128 128
0 0 0
0 0 0
0 0 0
0 0 0
0 0 0
0 0 0
0 0 0
0 0 0
0 0 0
0 0 0
0 0 0
0 0 0
0 0 0
0 0 0
0 0 0
0 0 0
0 0 0
0 0 0
0 0 0
0 0 0
0 0 0
0 0 0
0 0 0
0 0 0
0 0 0
0 0 0
0 0 0
0 0 0
0 0 0
0 0 0
0 0 0
0 0 0
0 0 0
0 0 0
0 0 0
0 0 0
0 0 0
0 0 0
0 0 0
0 0 0
0 0 0
0 0 0
0 0 0
0 0 0
0 0 0
0 0 0
0 0 0
0 0 0
0 0 0
0 0 0
0 0 0
0 0 0
0 0 0
128 128 128
128 128 128
128 128 128
128 128 128
128 128 128
0 0 0
0 0 0
0 0 0
0 0 0
0 0 0
0 0 0
0 0 0
0 0 0
0 0 0
0 0 0
0 0 0
128 128 128
128 128 128
0 0 0
0 0 0
0 0 0
0 0 0
0 0 0
128 128 128
0 0 0
0 0 0
0 0 0
0 0 0
0 0 0
0 0 0
0 0 0
0 0 0
0 0 0
0 0 0
0 0 0
0 0 0
0 0 0
0 0 0
0 0 0
0 0 0
0 0 0
0 0 0
0 0 0
0 0 0
0 0 0
0 0 0
0 0 0
0 0 0
0 0 0
0 0 0
0 0 0
0 0 0
0 0 0
0 0 0
0 0 0
0 0 0
0 0 0
0 0 0
128 128 128
128 128 128
128 128 128
128 128 128
128 128 128
128 128 128
128 128 128
128 128 128
128 128 128
128 128 128
128 128 128
128 128 128
128 128 128
128 128 128
128 128 128
128 128 128
128 128 128
128 128 128
128 128 128
128 128 128
128 128 128
128 128 128
128 128 128
128 128 128
128 128 128
128 128 128
128 128 128
128 128 128
128 128 128
128 128 128
128 128 128
128 128 128
128 128 128
128 128 128
128 128 128
128 128 128
128 128 128
128 128 128
128 128 128
128 128 128
128 128 128
128 128 128
128 128 128
128 128 128
128 128 128
128 128 128
128 128 128
128 128 128
128 128 128
128 128 128
128 128 128
128 128 128
128 128 128
128 128 128
128 128 128
128 128 128
128 128 128
128 128 128
128 128 128
128 128 128
128 128 128
128 128 128
128 128 128
128 128 128
128 128 128
128 128 128
128 128 128
128 128 128
128 128 128
128 128 128
128 128 128
128 128 128
128 128 128
128 128 128
128 128 128
128 128 128
128 128 128
128 128 128
128 128 128
128 128 128
128 128 128
128 128 128
128 128 128
128 128 128
128 128 128
128 128 128
128 128 128
128 128 128
128 128 128
128 128 128
128 128 128
0 0 0
0 0 0
0 0 0
0 0 0
0 0 0
0 0 0
0 0 0
0 0 0
0 0 0
0 0 0
0 0 0
0 0 0
0 0 0
0 0 0
0 0 0
0 0 0
0 0 0
0 0 0
0 0 0
0 0 0
0 0 0
0 0 0
0 0 0
0 0 0
0 0 0
0 0 0
0 0 0
0 0 0
0 0 0
0 0 0
0 0 0
0 0 0
0 0 0
0 0 0
0 0 0
0 0 0
0 0 0
0 0 0
0 0 0
0 0 0
0 0 0
0 0 0
0 0 0
0 0 0
0 0 0
0 0 0
0 0 0
0 0 0
0 0 0
0 0 0
0 0 0
128 128 128
128 128 128
128 128 128
0 0 0
0 0 0
0 0 0
0 0 0
0 0 0
0 0 0
0 0 0
0 0 0
128 128 128
128 128 128
128 128 128
128 128 128
128 128 128
128 128 128
0 0 0
0 0 0
0 0 0
0 0 0
0 0 0
0 0 0
128 128 128
0 0 0
0 0 0
0 0 0
0 0 0
0 0 0
0 0 0
0 0 0
0 0 0
0 0 0
0 0 0
0 0 0
0 0 0
0 0 0
0 0 0
0 0 0
0 0 0
0 0 0
0 0 0
0 0 0
0 0 0
0 0 0
0 0 0
0 0 0
0 0 0
0 0 0
0 0 0
0 0 0
0 0 0
0 0 0
0 0 0
0 0 0
0 0 0
0 0 0
128 128 128
128 128 128
128 128 128
128 128 128
128 128 128
128 128 128
128 128 128
128 128 128
128 128 128
128 128 128
128 128 128
128 128 128
128 128 128
128 128 128
128 128 128
128 128 128
128 128 128
128 128 128
128 128 128
128 128 128
128 128 128
128 128 128
128 128 128
128 128 128
128 128 128
128 128 128
128 128 128
128 128 128
128 128 128
128 128 128
128 128 128
128 128 128
128 128 128
128 128 128
128 128 128
128 128 128
128 128 128
128 128 128
128 128 128
128 128 128
128 128 128
128 128 128
128 128 128
128 128 128
128 128 128
128 128 128
128 128 128
128 128 128
128 128 128
128 128 128
128 128 128
128 128 128
128 128 128
128 128 128
128 128 128
128 128 128
128 128 128
128 128 128
128 128 128
128 128 128
128 128 128
128 128 128
128 128 128
128 128 128
128 128 128
128 128 128
128 128 128
128 128 128
128 128 128
128 128 128
128 128 128
128 128 128
128 128 128
128 128 128
128 128 128
128 128 128
128 128 128
128 128 128
128 128 128
128 128 128
128 128 128
128 128 128
128 128 128
128 128 128
128 128 128
128 128 128
128 128 128
128 128 128
128 128 128
128 128 128
128 128 128
128 128 128
128 128 128
0 0 0
0 0 0
0 0 0
0 0 0
0 0 0
0 0 0
0 0 0
0 0 0
0 0 0
0 0 0
0 0 0
0 0 0
0 0 0
0 0 0
0 0 0
0 0 0
0 0 0
0 0 0
0 0 0
0 0 0
0 0 0
0 0 0
0 0 0
0 0 0
0 0 0
0 0 0
0 0 0
0 0 0
0 0 0
0 0 0
0 0 0
0 0 0
0 0 0
0 0 0
0 0 0
0 0 0
0 0 0
0 0 0
0 0 0
0 0 0
0 0 0
0 0 0
0 0 0
0 0 0
0 0 0
0 0 0
0 0 0
0 0 0
0 0 0
0 0 0
0 0 0
0 0 0
0 0 0
0 0 0
0 0 0
0 0 0
0 0 0
0 0 0
0 0 0
0 0 0
0 0 0
0 0 0
128 128 128
0 0 0
0 0 0
0 0 0
0 0 0
0 0 0
0 0 0
0 0 0
0 0 0
0 0 0
0 0 0
0 0 0
0 0 0
0 0 0
0 0 0
0 0 0
0 0 0
0 0 0
0 0 0
0 0 0
0 0 0
0 0 0
0 0 0
0 0 0
0 0 0
0 0 0
0 0 0
0 0 0
0 0 0
0 0 0
0 0 0
0 0 0
0 0 0
0 0 0
0 0 0
0 0 0
0 0 0
0 0 0
0 0 0
0 0 0
0 0 0
0 0 0
0 0 0
0 0 0
128 128 128
128 128 128
128 128 128
128 128 128
128 128 128
128 128 128
128 128 128
128 128 128
128 128 128
128 128 128
128 128 128
128 128 128
128 128 128
128 128 128
128 128 128
128 128 128
128 128 128
128 128 128
128 128 128
128 128 128
128 128 128
128 128 128
128 128 128
128 128 128
128 128 128
128 128 128
128 128 128
128 128 128
128 128 128
128 128 128
128 128 128
128 128 128
128 128 128
128 128 128
128 128 128
128 128 128
128 128 128
128 128 128
128 128 128
128 128 128
128 128 128
128 128 128
128 128 128
128 128 128
128 128 128
128 128 128
128 128 128
128 128 128
128 128 128
128 128 128
128 128 128
128 128 128
128 128 128
128 128 128
128 128 128
128 128 128
128 128 128
128 128 128
128 128 128
128 128 128
128 128 128
128 128 128
128 128 128
128 128 128
128 128 128
128 128 128
128 128 128
128 128 128
128 128 128
128 128 128
128 128 128
128 128 128
128 128 128
128 128 128
128 128 128
128 128 128
128 128 128
128 128 128
128 128 128
128 128 128
128 128 128
128 128 128
128 128 128
128 128 128
128 128 128
128 128 128
128 128 128
128 128 128
128 128 128
128 128 128
128 128 128
128 128 128
128 128 128
128 128 128
128 128 128
0 0 0
0 0 0
0 0 0
0 0 0
0 0 0
0 0 0
0 0 0
0 0 0
0 0 0
0 0 0
0 0 0
0 0 0
0 0 0
0 0 0
0 0 0
0 0 0
0 0 0
0 0 0
0 0 0
0 0 0
0 0 0
0 0 0
0 0 0
0 0 0
0 0 0
0 0 0
0 0 0
0 0 0
0 0 0
0 0 0
0 0 0
0 0 0
0 0 0
0 0 0
0 0 0
0 0 0
0 0 0
0 0 0
0 0 0
0 0 0
0 0 0
0 0 0
0 0 0
0 0 0
0 0 0
0 0 0
0 0 0
0 0 0
0 0 0
0 0 0
0 0 0
0 0 0
0 0 0
0 0 0
0 0 0
0 0 0
0 0 0
0 0 0
0 0 0
0 0 0
0 0 0
0 0 0
0 0 0
0 0 0
0 0 0
0 0 0
0 0 0
0 0 0
0 0 0
0 0 0
0 0 0
0 0 0
0 0 0
0 0 0
0 0 0
0 0 0
0 0 0
0 0 0
0 0 0
0 0 0
0 0 0
0 0 0
0 0 0
0 0 0
0 0 0
0 0 0
0 0 0
0 0 0
0 0 0
0 0 0
0 0 0
0 0 0
0 0 0
0 0 0
0 0 0
0 0 0
0 0 0
0 0 0
0 0 0
0 0 0
0 0 0
0 0 0
0 0 0
0 0 0
128 128 128
128 128 128
128 128 128
128 128 128
128 128 128
128 128 128
128 128 128
128 128 128
128 128 128
128 128 128
128 128 128
128 128 128
128 128 128
128 128 128
128 128 128
128 128 128
128 128 128
128 128 128
128 128 128
128 128 128
128 128 128
128 128 128
128 128 128
128 128 128
128 128 128
128 128 128
128 128 128
128 128 128
128 128 128
128 128 128
128 128 128
128 128 128
128 128 128
128 128 128
128 128 128
128 128 128
128 128 128
128 128 128
128 128 128
128 128 128
128 128 128
128 128 128
128 128 128
128 128 128
128 128 128
128 128 128
128 128 128
128 128 128
128 128 128
128 128 128
128 128 128
128 128 128
128 128 128
128 128 128
128 128 128
128 128 128
128 128 128
128 128 128
128 128 128
128 128 128
128 128 128
128 128 128
128 128 128
128 128 128
128 128 128
128 128 128
128 128 128
128 128 128
128 128 128
128 128 128
128 128 128
128 128 128
128 128 128
128 128 128
128 128 128
128 128 128
128 128 128
128 128 128
128 128 128
128 128 128
128 128 128
128 128 128
128 128 128
128 128 128
128 128 128
128 128 128
128 128 128
128 128 128
128 128 128
128 128 128
128 128 128
128 128 128
128 128 128
128 128 128
128 128 128
128 128 128
128 128 128
0 0 0
0 0 0
0 0 0
0 0 0
0 0 0
0 0 0
0 0 0
0 0 0
0 0 0
0 0 0
0 0 0
0 0 0
0 0 0
0 0 0
0 0 0
0 0 0
0 0 0
0 0 0
0 0 0
0 0 0
0 0 0
0 0 0
0 0 0
0 0 0
0 0 0
0 0 0
0 0 0
0 0 0
0 0 0
0 0 0
0 0 0
0 0 0
0 0 0
0 0 0
0 0 0
0 0 0
0 0 0
0 0 0
0 0 0
0 0 0
0 0 0
0 0 0
0 0 0
0 0 0
0 0 0
0 0 0
0 0 0
0 0 0
0 0 0
0 0 0
0 0 0
0 0 0
0 0 0
0 0 0
0 0 0
0 0 0
0 0 0
0 0 0
0 0 0
0 0 0
0 0 0
0 0 0
0 0 0
0 0 0
0 0 0
0 0 0
0 0 0
0 0 0
0 0 0
0 0 0
0 0 0
0 0 0
0 0 0
0 0 0
0 0 0
0 0 0
0 0 0
0 0 0
0 0 0
0 0 0
0 0 0
0 0 0
0 0 0
0 0 0
0 0 0
0 0 0
0 0 0
0 0 0
0 0 0
0 0 0
0 0 0
0 0 0
0 0 0
0 0 0
0 0 0
0 0 0
0 0 0
0 0 0
0 0 0
0 0 0
0 0 0
0 0 0
128 128 128
128 128 128
128 128 128
128 128 128
128 128 128
128 128 128
128 128 128
128 128 128
128 128 128
128 128 128
128 128 128
128 128 128
128 128 128
128 128 128
128 128 128
128 128 128
128 128 128
128 128 128
128 128 128
128 128 128
128 128 128
128 128 128
128 128 128
128 128 128
128 128 128
128 128 128
128 128 128
128 128 128
128 128 128
128 128 128
128 128 128
128 128 128
128 128 128
128 128 128
128 128 128
128 128 128
128 128 128
128 128 128
128 128 128
128 128 128
128 128 128
128 128 128
128 128 128
128 128 128
128 128 128
128 128 128
128 128 128
128 128 128
128 128 128
128 128 128
128 128 128
128 128 128
128 128 128
128 128 128
128 128 128
128 128 128
128 128 128
128 128 128
128 128 128
128 128 128
128 128 128
128 128 128
128 128 128
128 128 128
128 128 128
128 128 128
128 128 128
128 128 128
128 128 128
128 128 128
128 128 128
128 128 128
128 128 128
128 128 128
128 128 128
128 128 128
128 128 128
128 128 128
128 128 128
128 128 128
128 128 128
128 128 128
128 128 128
128 128 128
128 128 128
128 128 128
128 128 128
128 128 128
128 128 128
128 128 128
128 128 128
128 128 128
128 128 128
128 128 128
128 128 128
128 128 128
128 128 128
128 128 128
0 0 0
0 0 0
0 0 0
0 0 0
0 0 0
0 0 0
0 0 0
0 0 0
0 0 0
0 0 0
0 0 0
0 0 0
0 0 0
0 0 0
0 0 0
0 0 0
0 0 0
0 0 0
0 0 0
0 0 0
0 0 0
0 0 0
0 0 0
0 0 0
0 0 0
0 0 0
0 0 0
0 0 0
0 0 0
0 0 0
0 0 0
0 0 0
0 0 0
128 128 128
0 0 0
0 0 0
0 0 0
0 0 0
0 0 0
0 0 0
0 0 0
0 0 0
0 0 0
0 0 0
0 0 0
0 0 0
0 0 0
0 0 0
0 0 0
0 0 0
0 0 0
0 0 0
0 0 0
0 0 0
0 0 0
0 0 0
0 0 0
0 0 0
0 0 0
0 0 0
0 0 0
0 0 0
0 0 0
0 0 0
0 0 0
0 0 0
0 0 0
0 0 0
0 0 0
0 0 0
0 0 0
0 0 0
0 0 0
0 0 0
0 0 0
0 0 0
0 0 0
0 0 0
0 0 0
0 0 0
0 0 0
0 0 0
0 0 0
0 0 0
0 0 0
0 0 0
0 0 0
0 0 0
0 0 0
0 0 0
0 0 0
0 0 0
0 0 0
0 0 0
0 0 0
0 0 0
0 0 0
0 0 0
0 0 0
0 0 0
0 0 0
128 128 128
128 128 128
128 128 128
128 128 128
128 128 128
128 128 128
128 128 128
128 128 128
128 128 128
128 128 128
128 128 128
128 128 128
128 128 128
128 128 128
128 128 128
128 128 128
128 128 128
128 128 128
128 128 128
128 128 128
128 128 128
128 128 128
128 128 128
128 128 128
128 128 128
128 128 128
128 128 128
128 128 128
128 128 128
128 128 128
128 128 128
128 128 128
128 128 128
128 128 128
128 128 128
128 128 128
128 128 128
128 128 128
128 128 128
128 128 128
128 128 128
128 128 128
128 128 128
128 128 128
128 128 128
128 128 128
128 128 128
128 128 128
128 128 128
128 128 128
128 128 128
128 128 128
128 128 128
128 128 128
128 128 128
128 128 128
128 128 128
128 128 128
128 128 128
128 128 128
128 128 128
128 128 128
128 128 128
128 128 128
128 128 128
128 128 128
128 128 128
128 128 128
128 128 128
128 128 128
128 128 128
128 128 128
128 128 128
128 128 128
128 128 128
128 128 128
128 128 128
128 128 128
128 128 128
128 128 128
128 128 128
128 128 128
128 128 128
128 128 128
128 128 128
128 128 128
128 128 128
128 128 128
128 128 128
128 128 128
128 128 128
128 128 128
128 128 128
128 128 128
128 128 128
128 128 128
128 128 128
128 128 128
128 128 128
128 128 128
128 128 128
0 0 0
0 0 0
0 0 0
0 0 0
0 0 0
0 0 0
0 0 0
0 0 0
0 0 0
0 0 0
0 0 0
0 0 0
0 0 0
0 0 0
0 0 0
0 0 0
0 0 0
0 0 0
0 0 0
0 0 0
0 0 0
0 0 0
0 0 0
0 0 0
0 0 0
0 0 0
0 0 0
0 0 0
0 0 0
0 0 0
128 128 128
128 128 128
0 0 0
0 0 0
0 0 0
0 0 0
0 0 0
0 0 0
0 0 0
0 0 0
0 0 0
0 0 0
0 0 0
0 0 0
0 0 0
0 0 0
0 0 0
0 0 0
0 0 0
0 0 0
0 0 0
0 0 0
0 0 0
0 0 0
0 0 0
0 0 0
0 0 0
0 0 0
0 0 0
0 0 0
0 0 0
0 0 0
0 0 0
0 0 0
0 0 0
0 0 0
0 0 0
0 0 0
0 0 0
0 0 0
0 0 0
0 0 0
0 0 0
0 0 0
0 0 0
0 0 0
0 0 0
0 0 0
0 0 0
0 0 0
0 0 0
0 0 0
0 0 0
0 0 0
0 0 0
0 0 0
0 0 0
0 0 0
0 0 0
0 0 0
0 0 0
0 0 0
0 0 0
0 0 0
0 0 0
0 0 0
0 0 0
0 0 0
128 128 128
128 128 128
128 128 128
128 128 128
128 128 128
128 128 128
128 128 128
128 128 128
128 128 128
128 128 128
128 128 128
128 128 128
128 128 128
128 128 128
128 128 128
128 128 128
128 128 128
128 128 128
128 128 128
128 128 128
128 128 128
128 128 128
128 128 128
128 128 128
128 128 128
128 128 128
128 128 128
128 128 128
128 128 128
128 128 128
128 128 128
128 128 128
128 128 128
128 128 128
128 128 128
128 128 128
128 128 128
128 128 128
128 128 128
128 128 128
128 128 128
128 128 128
128 128 128
128 128 128
128 128 128
128 128 128
128 128 128
128 128 128
128 128 128
128 128 128
128 128 128
128 128 128
128 128 128
128 128 128
128 128 128
128 128 128
128 128 128
128 128 128
128 128 128
128 128 128
128 128 128
128 128 128
128 128 128
128 128 128
128 128 128
128 128 128
128 128 128
128 128 128
128 128 128
128 128 128
128 128 128
128 128 128
128 128 128
128 128 128
128 128 128
128 128 128
128 128 128
128 128 128
128 128 128
128 128 128
128 128 128
128 128 128
128 128 128
128 128 128
128 128 128
128 128 128
128 128 128
128 128 128
128 128 128
128 128 128
128 128 128
128 128 128
128 128 128
128 128 128
128 128 128
128 128 128
128 128 128
128 128 128
128 128 128
128 128 128
128 128 128
128 128 128
0 0 0
0 0 0
0 0 0
0 0 0
0 0 0
0 0 0
0 0 0
0 0 0
0 0 0
0 0 0
0 0 0
0 0 0
0 0 0
0 0 0
0 0 0
0 0 0
0 0 0
0 0 0
0 0 0
0 0 0
0 0 0
0 0 0
0 0 0
0 0 0
0 0 0
0 0 0
128 128 128
0 0 0
0 0 0
0 0 0
0 0 0
0 0 0
0 0 0
0 0 0
0 0 0
0 0 0
0 0 0
0 0 0
0 0 0
0 0 0
0 0 0
0 0 0
0 0 0
0 0 0
0 0 0
0 0 0
0 0 0
0 0 0
0 0 0
0 0 0
0 0 0
0 0 0
0 0 0
0 0 0
0 0 0
0 0 0
0 0 0
0 0 0
0 0 0
0 0 0
0 0 0
0 0 0
0 0 0
0 0 0
0 0 0
0 0 0
0 0 0
0 0 0
0 0 0
0 0 0
0 0 0
0 0 0
0 0 0
0 0 0
0 0 0
0 0 0
0 0 0
0 0 0
0 0 0
0 0 0
0 0 0
0 0 0
0 0 0
0 0 0
0 0 0
0 0 0
0 0 0
0 0 0
0 0 0
0 0 0
0 0 0
0 0 0
0 0 0
0 0 0
0 0 0
0 0 0
0 0 0
0 0 0
128 128 128
128 128 128
128 128 128
128 128 128
128 128 128
128 128 128
128 128 128
128 128 128
128 128 128
128 128 128
128 128 128
128 128 128
128 128 128
128 128 128
128 128 128
128 128 128
128 128 128
128 128 128
128 128 128
128 128 128
128 128 128
128 128 128
128 128 128
128 128 128
128 128 128
128 128 128
128 128 128
128 128 128
128 128 128
128 128 128
128 128 128
128 128 128
128 128 128
128 128 128
128 128 128
128 128 128
128 128 128
128 128 128
128 128 128
128 128 128
128 128 128
128 128 128
128 128 128
128 128 128
128 128 128
128 128 128
128 128 128
128 128 128
128 128 128
128 128 128
128 128 128
128 128 128
128 128 128
128 128 128
128 128 128
128 128 128
128 128 128
128 128 128
128 128 128
128 128 128
128 128 128
128 128 128
128 128 128
128 128 128
128 128 128
128 128 128
128 128 128
128 128 128
128 128 128
128 128 128
128 128 128
128 128 128
128 128 128
128 128 128
128 128 128
128 128 128
128 128 128
128 128 128
128 128 128
128 128 128
128 128 128
128 128 128
128 128 128
128 128 128
128 128 128
128 128 128
128 128 128
128 128 128
128 128 128
128 128 128
128 128 128
128 128 128
128 128 128
128 128 128
128 128 128
128 128 128
128 128 128
128 128 128
128 128 128
128 128 128
128 128 128
128 128 128
128 128 128
0 0 0
0 0 0
0 0 0
0 0 0
0 0 0
0 0 0
0 0 0
0 0 0
0 0 0
0 0 0
0 0 0
0 0 0
0 0 0
0 0 0
0 0 0
0 0 0
0 0 0
0 0 0
0 0 0
0 0 0
0 0 0
0 0 0
0 0 0
0 0 0
0 0 0
128 128 128
128 128 128
0 0 0
0 0 0
0 0 0
0 0 0
0 0 0
0 0 0
0 0 0
0 0 0
0 0 0
0 0 0
0 0 0
0 0 0
0 0 0
0 0 0
0 0 0
0 0 0
0 0 0
0 0 0
0 0 0
0 0 0
0 0 0
0 0 0
0 0 0
0 0 0
0 0 0
0 0 0
0 0 0
0 0 0
0 0 0
0 0 0
0 0 0
0 0 0
0 0 0
0 0 0
0 0 0
0 0 0
0 0 0
0 0 0
0 0 0
0 0 0
0 0 0
0 0 0
0 0 0
0 0 0
0 0 0
0 0 0
0 0 0
0 0 0
0 0 0
0 0 0
0 0 0
0 0 0
0 0 0
0 0 0
0 0 0
0 0 0
0 0 0
0 0 0
0 0 0
0 0 0
0 0 0
0 0 0
0 0 0
0 0 0
0 0 0
0 0 0
0 0 0
0 0 0
0 0 0
128 128 128
128 128 128
128 128 128
128 128 128
128 128 128
128 128 128
128 128 128
128 128 128
128 128 128
128 128 128
128 128 128
128 128 128
128 128 128
128 128 128
128 128 128
128 128 128
128 128 128
128 128 128
128 128 128
128 128 128
128 128 128
128 128 128
128 128 128
128 128 128
128 128 128
128 128 128
128 128 128
128 128 128
128 128 128
128 128 128
128 128 128
128 128 128
128 128 128
128 128 128
128 128 128
128 128 128
128 128 128
128 128 128
128 128 128
128 128 128
128 128 128
128 128 128
128 128 128
128 128 128
128 128 128
128 128 128
128 128 128
128 128 128
128 128 128
128 128 128
128 128 128
128 128 128
128 128 128
128 128 128
128 128 128
128 128 128
128 128 128
128 128 128
128 128 128
128 128 128
128 128 128
128 128 128
128 128 128
128 128 128
128 128 128
128 128 128
128 128 128
128 128 128
128 128 128
128 128 128
128 128 128
128 128 128
128 128 128
128 128 128
128 128 128
128 128 128
128 128 128
128 128 128
128 128 128
128 128 128
128 128 128
128 128 128
128 128 128
128 128 128
128 128 128
128 128 128
128 128 128
128 128 128
128 128 128
128 128 128
128 128 128
128 128 128
128 128 128
128 128 128
128 128 128
128 128 128
128 128 128
128 128 128
128 128 128
128 128 128
128 128 128
128 128 128
128 128 128
128 128 128
128 128 128
0 0 0
0 0 0
0 0 0
0 0 0
0 0 0
0 0 0
0 0 0
0 0 0
0 0 0
0 0 0
0 0 0
0 0 0
0 0 0
0 0 0
0 0 0
0 0 0
0 0 0
0 0 0
0 0 0
0 0 0
128 128 128
0 0 0
0 0 0
0 0 0
0 0 0
0 0 0
0 0 0
0 0 0
0 0 0
0 0 0
0 0 0
0 0 0
0 0 0
0 0 0
0 0 0
0 0 0
0 0 0
0 0 0
0 0 0
0 0 0
0 0 0
0 0 0
0 0 0
0 0 0
0 0 0
0 0 0
0 0 0
0 0 0
0 0 0
0 0 0
0 0 0
0 0 0
0 0 0
0 0 0
0 0 0
0 0 0
128 128 128
128 128 128
128 128 128
128 128 128
128 128 128
0 0 0
0 0 0
0 0 0
0 0 0
0 0 0
0 0 0
0 0 0
128 128 128
128 128 128
0 0 0
0 0 0
0 0 0
0 0 0
0 0 0
0 0 0
0 0 0
0 0 0
0 0 0
0 0 0
0 0 0
0 0 0
0 0 0
0 0 0
0 0 0
0 0 0
0 0 0
0 0 0
0 0 0
0 0 0
0 0 0
0 0 0
0 0 0
0 0 0
128 128 128
128 128 128
128 128 128
128 128 128
128 128 128
128 128 128
128 128 128
128 128 128
128 128 128
128 128 128
128 128 128
128 128 128
128 128 128
128 128 128
128 128 128
128 128 128
128 128 128
128 128 128
128 128 128
128 128 128
128 128 128
128 128 128
128 128 128
128 128 128
128 128 128
128 128 128
128 128 128
128 128 128
128 128 128
128 128 128
128 128 128
128 128 128
128 128 128
128 128 128
128 128 128
128 128 128
128 128 128
128 128 128
128 128 128
128 128 128
128 128 128
128 128 128
128 128 128
128 128 128
128 128 128
128 128 128
128 128 128
128 128 128
128 128 128
128 128 128
128 128 128
128 128 128
128 128 128
128 128 128
128 128 128
128 128 128
128 128 128
128 128 128
128 128 128
128 128 128
128 128 128
128 128 128
128 128 128
128 128 128
128 128 128
128 128 128
128 128 128
128 128 128
128 128 128
128 128 128
128 128 128
128 128 128
128 128 128
128 128 128
128 128 128
128 128 128
128 128 128
128 128 128
128 128 128
128 128 128
128 128 128
128 128 128
128 128 128
128 128 128
128 128 128
128 128 128
128 128 128
128 128 128
128 128 128
128 128 128
128 128 128
128 128 128
128 128 128
128 128 128
128 128 128
128 128 128
128 128 128
128 128 128
128 128 128
128 128 128
128 128 128
128 128 128
128 128 128
128 128 128
128 128 128
128 128 128
128 128 128
0 0 0
0 0 0
0 0 0
0 0 0
0 0 0
0 0 0
0 0 0
0 0 0
0 0 0
0 0 0
0 0 0
0 0 0
0 0 0
0 0 0
0 0 0
0 0 0
0 0 0
0 0 0
128 128 128
128 128 128
0 0 0
0 0 0
0 0 0
0 0 0
0 0 0
0 0 0
0 0 0
0 0 0
0 0 0
0 0 0
0 0 0
0 0 0
0 0 0
0 0 0
0 0 0
0 0 0
0 0 0
0 0 0
0 0 0
0 0 0
0 0 0
0 0 0
0 0 0
0 0 0
0 0 0
0 0 0
0 0 0
0 0 0
0 0 0
0 0 0
0 0 0
0 0 0
0 0 0
0 0 0
128 128 128
128 128 128
128 128 128
128 128 128
128 128 128
128 128 128
0 0 0
0 0 0
0 0 0
0 0 0
0 0 0
0 0 0
128 128 128
128 128 128
128 128 128
0 0 0
0 0 0
0 0 0
0 0 0
0 0 0
0 0 0
0 0 0
0 0 0
0 0 0
0 0 0
0 0 0
0 0 0
0 0 0
0 0 0
0 0 0
0 0 0
0 0 0
0 0 0
0 0 0
0 0 0
0 0 0
0 0 0
0 0 0
128 128 128
128 128 128
128 128 128
128 128 128
128 128 128
128 128 128
128 128 128
128 128 128
128 128 128
128 128 128
128 128 128
128 128 128
128 128 128
128 128 128
128 128 128
128 128 128
128 128 128
128 128 128
128 128 128
128 128 128
128 128 128
128 128 128
128 128 128
128 128 128
128 128 128
128 128 128
128 128 128
128 128 128
128 128 128
128 128 128
128 128 128
128 128 128
128 128 128
128 128 128
128 128 128
128 128 128
128 128 128
128 128 128
128 128 128
128 128 128
128 128 128
128 128 128
128 128 128
128 128 128
128 128 128
128 128 128
128 128 128
128 128 128
128 128 128
128 128 128
128 128 128
128 128 128
128 128 128
128 128 128
128 128 128
128 128 128
128 128 128
128 128 128
128 128 128
128 128 128
128 128 128
128 128 128
128 128 128
128 128 128
128 128 128
128 128 128
128 128 128
128 128 128
128 128 128
128 128 128
128 128 128
128 128 128
128 128 128
128 128 128
128 128 128
128 128 128
128 128 128
128 128 128
128 128 128
128 128 128
128 128 128
128 128 128
128 128 128
128 128 128
128 128 128
128 128 128
128 128 128
128 128 128
128 128 128
128 128 128
128 128 128
128 128 128
128 128 128
128 128 128
128 128 128
128 128 128
128 128 128
128 128 128
128 128 128
128 128 128
128 128 128
128 128 128
128 128 128
128 128 128
128 128 128
128 128 128
128 128 128
128 128 128
0 0 0
0 0 0
0 0 0
0 0 0
0 0 0
0 0 0
0 0 0
0 0 0
0 0 0
0 0 0
0 0 0
0 0 0
0 0 0
0 0 0
0 0 0
0 0 0
0 0 0
0 0 0
0 0 0
0 0 0
0 0 0
0 0 0
0 0 0
0 0 0
0 0 0
0 0 0
0 0 0
0 0 0
0 0 0
0 0 0
0 0 0
0 0 0
0 0 0
0 0 0
0 0 0
0 0 0
0 0 0
0 0 0
0 0 0
0 0 0
0 0 0
0 0 0
0 0 0
0 0 0
0 0 0
0 0 0
0 0 0
0 0 0
0 0 0
0 0 0
0 0 0
0 0 0
0 0 0
0 0 0
0 0 0
128 128 128
0 0 0
0 0 0
0 0 0
0 0 0
0 0 0
0 0 0
0 0 0
0 0 0
0 0 0
0 0 0
128 128 128
128 128 128
128 128 128
0 0 0
0 0 0
0 0 0
0 0 0
0 0 0
0 0 0
0 0 0
0 0 0
0 0 0
0 0 0
0 0 0
0 0 0
0 0 0
0 0 0
0 0 0
0 0 0
0 0 0
0 0 0
0 0 0
0 0 0
0 0 0
0 0 0
0 0 0
128 128 128
128 128 128
128 128 128
128 128 128
128 128 128
128 128 128
128 128 128
128 128 128
128 128 128
128 128 128
128 128 128
128 128 128
128 128 128
128 128 128
128 128 128
128 128 128
128 128 128
128 128 128
128 128 128
128 128 128
128 128 128
128 128 128
128 128 128
128 128 128
128 128 128
128 128 128
128 128 128
128 128 128
128 128 128
128 128 128
128 128 128
128 128 128
128 128 128
128 128 128
128 128 128
128 128 128
128 128 128
128 128 128
128 128 128
128 128 128
128 128 128
128 128 128
128 128 128
128 128 128
128 128 128
128 128 128
128 128 128
128 128 128
128 128 128
128 128 128
128 128 128
128 128 128
128 128 128
128 128 128
128 128 128
128 128 128
128 128 128
128 128 128
128 128 128
128 128 128
128 128 128
128 128 128
128 128 128
128 128 128
128 128 128
128 128 128
128 128 128
128 128 128
128 128 128
128 128 128
128 128 128
128 128 128
128 128 128
128 128 128
128 128 128
128 128 128
128 128 128
128 128 128
128 128 128
128 128 128
128 128 128
128 128 128
128 128 128
128 128 128
128 128 128
128 128 128
128 128 128
128 128 128
128 128 128
128 128 128
128 128 128
128 128 128
128 128 128
128 128 128
128 128 128
128 128 128
128 128 128
128 128 128
128 128 128
128 128 128
128 128 128
128 128 128
128 128 128
128 128 128
128 128 128
128 128 128
128 128 128
128 128 128
128 128 128
0 0 0
0 0 0
0 0 0
0 0 0
0 0 0
0 0 0
0 0 0
0 0 0
0 0 0
0 0 0
0 0 0
0 0 0
0 0 0
0 0 0
0 0 0
0 0 0
0 0 0
0 0 0
0 0 0
0 0 0
0 0 0
0 0 0
0 0 0
0 0 0
0 0 0
0 0 0
0 0 0
0 0 0
0 0 0
0 0 0
0 0 0
0 0 0
0 0 0
0 0 0
0 0 0
0 0 0
0 0 0
0 0 0
0 0 0
0 0 0
0 0 0
0 0 0
0 0 0
0 0 0
0 0 0
0 0 0
0 0 0
0 0 0
0 0 0
0 0 0
0 0 0
0 0 0
0 0 0
0 0 0
0 0 0
0 0 0
0 0 0
0 0 0
0 0 0
0 0 0
0 0 0
0 0 0
0 0 0
0 0 0
0 0 0
128 128 128
128 128 128
128 128 128
0 0 0
0 0 0
0 0 0
0 0 0
0 0 0
0 0 0
0 0 0
0 0 0
0 0 0
0 0 0
0 0 0
0 0 0
0 0 0
0 0 0
0 0 0
0 0 0
0 0 0
0 0 0
0 0 0
0 0 0
0 0 0
0 0 0
128 128 128
128 128 128
128 128 128
128 128 128
128 128 128
128 128 128
128 128 128
128 128 128
128 128 128
128 128 128
128 128 128
128 128 128
128 128 128
128 128 128
128 128 128
128 128 128
128 128 128
128 128 128
128 128 128
128 128 128
128 128 128
128 128 128
128 128 128
128 128 128
128 128 128
128 128 128
128 128 128
128 128 128
128 128 128
128 128 128
128 128 128
128 128 128
128 128 128
128 128 128
128 128 128
128 128 128
128 128 128
128 128 128
128 128 128
128 128 128
128 128 128
128 128 128
128 128 128
128 128 128
128 128 128
128 128 128
128 128 128
128 128 128
128 128 128
128 128 128
128 128 128
128 128 128
128 128 128
128 128 128
128 128 128
128 128 128
128 128 128
128 128 128
128 128 128
128 128 128
128 128 128
128 128 128
128 128 128
128 128 128
128 128 128
128 128 128
128 128 128
128 128 128
128 128 128
128 128 128
128 128 128
128 128 128
128 128 128
128 128 128
128 128 128
128 128 128
128 128 128
128 128 128
128 128 128
128 128 128
128 128 128
128 128 128
128 128 128
128 128 128
128 128 128
128 128 128
128 128 128
128 128 128
128 128 128
128 128 128
128 128 128
128 128 128
128 128 128
128 128 128
128 128 128
128 128 128
128 128 128
128 128 128
128 128 128
128 128 128
128 128 128
128 128 128
128 128 128
128 128 128
128 128 128
128 128 128
128 128 128
128 128 128
128 128 128
128 128 128
0 0 0
0 0 0
0 0 0
0 0 0
0 0 0
0 0 0
0 0 0
0 0 0
0 0 0
0 0 0
0 0 0
0 0 0
0 0 0
0 0 0
0 0 0
0 0 0
0 0 0
0 0 0
0 0 0
0 0 0
0 0 0
0 0 0
0 0 0
0 0 0
0 0 0
0 0 0
0 0 0
0 0 0
0 0 0
0 0 0
0 0 0
0 0 0
0 0 0
0 0 0
0 0 0
0 0 0
0 0 0
0 0 0
0 0 0
0 0 0
0 0 0
0 0 0
0 0 0
128 128 128
128 128 128
128 128 128
128 128 128
0 0 0
0 0 0
0 0 0
0 0 0
0 0 0
0 0 0
0 0 0
0 0 0
0 0 0
0 0 0
0 0 0
0 0 0
0 0 0
128 128 128
0 0 0
0 0 0
0 0 0
0 0 0
0 0 0
128 128 128
0 0 0
0 0 0
0 0 0
0 0 0
0 0 0
0 0 0
0 0 0
0 0 0
0 0 0
0 0 0
0 0 0
0 0 0
0 0 0
0 0 0
0 0 0
0 0 0
0 0 0
0 0 0
0 0 0
0 0 0
0 0 0
0 0 0
0 0 0
128 128 128
128 128 128
128 128 128
128 128 128
128 128 128
128 128 128
128 128 128
128 128 128
128 128 128
128 128 128
128 128 128
128 128 128
128 128 128
128 128 128
128 128 128
128 128 128
128 128 128
128 128 128
128 128 128
128 128 128
128 128 128
128 128 128
128 128 128
128 128 128
128 128 128
128 128 128
128 128 128
128 128 128
128 128 128
128 128 128
128 128 128
128 128 128
128 128 128
128 128 128
128 128 128
128 128 128
128 128 128
128 128 128
128 128 128
128 128 128
128 128 128
128 128 128
128 128 128
128 128 128
128 128 128
128 128 128
128 128 128
128 128 128
128 128 128
128 128 128
128 128 128
128 128 128
128 128 128
128 128 128
128 128 128
128 128 128
128 128 128
128 128 128
128 128 128
128 128 128
128 128 128
128 128 128
128 128 128
128 128 128
128 128 128
128 128 128
128 128 128
128 128 128
128 128 128
128 128 128
128 128 128
128 128 128
128 128 128
128 128 128
128 128 128
128 128 128
128 128 128
128 128 128
128 128 128
128 128 128
128 128 128
128 128 128
128 128 128
128 128 128
128 128 128
128 128 128
128 128 128
128 128 128
128 128 128
128 128 128
128 128 128
128 128 128
128 128 128
128 128 128
128 128 128
128 128 128
128 128 128
128 128 128
128 128 128
128 128 128
128 128 128
128 128 128
128 128 128
128 128 128
128 128 128
128 128 128
128 128 128
128 128 128
128 128 128
128 128 128
128 128 128
0 0 0
0 0 0
0 0 0
0 0 0
0 0 0
0 0 0
0 0 0
0 0 0
0 0 0
0 0 0
0 0 0
0 0 0
0 0 0
0 0 0
0 0 0
0 0 0
0 0 0
0 0 0
0 0 0
0 0 0
0 0 0
0 0 0
0 0 0
0 0 0
0 0 0
0 0 0
0 0 0
0 0 0
0 0 0
0 0 0
0 0 0
0 0 0
0 0 0
0 0 0
0 0 0
0 0 0
0 0 0
0 0 0
0 0 0
0 0 0
0 0 0
128 128 128
0 0 0
0 0 0
0 0 0
128 128 128
128 128 128
0 0 0
0 0 0
0 0 0
0 0 0
0 0 0
0 0 0
0 0 0
0 0 0
0 0 0
0 0 0
128 128 128
128 128 128
128 128 128
0 0 0
0 0 0
0 0 0
0 0 0
0 0 0
128 128 128
0 0 0
0 0 0
0 0 0
0 0 0
0 0 0
0 0 0
0 0 0
0 0 0
0 0 0
0 0 0
0 0 0
0 0 0
0 0 0
0 0 0
0 0 0
0 0 0
0 0 0
0 0 0
0 0 0
0 0 0
0 0 0
0 0 0
128 128 128
128 128 128
128 128 128
128 128 128
128 128 128
128 128 128
128 128 128
128 128 128
128 128 128
128 128 128
128 128 128
128 128 128
128 128 128
128 128 128
128 128 128
128 128 128
128 128 128
128 128 128
128 128 128
128 128 128
128 128 128
128 128 128
128 128 128
128 128 128
128 128 128
128 128 128
128 128 128
128 128 128
128 128 128
128 128 128
128 128 128
128 128 128
128 128 128
128 128 128
128 128 128
128 128 128
128 128 128
128 128 128
128 128 128
128 128 128
128 128 128
128 128 128
128 128 128
128 128 128
128 128 128
128 128 128
128 128 128
128 128 128
128 128 128
128 128 128
128 128 128
128 128 128
128 128 128
128 128 128
128 128 128
128 128 128
128 128 128
128 128 128
128 128 128
128 128 128
128 128 128
128 128 128
128 128 128
128 128 128
128 128 128
128 128 128
128 128 128
128 128 128
128 128 128
128 128 128
128 128 128
128 128 128
128 128 128
128 128 128
128 128 128
128 128 128
128 128 128
128 128 128
128 128 128
128 128 128
128 128 128
128 128 128
128 128 128
128 128 128
128 128 128
128 128 128
128 128 128
128 128 128
128 128 128
128 128 128
128 128 128
128 128 128
128 128 128
128 128 128
128 128 128
128 128 128
128 128 128
128 128 128
128 128 128
128 128 128
128 128 128
128 128 128
128 128 128
128 128 128
128 128 128
128 128 128
128 128 128
128 128 128
128 128 128
128 128 128
128 128 128
128 128 128
128 128 128
0 0 0
0 0 0
0 0 0
0 0 0
0 0 0
0 0 0
0 0 0
0 0 0
0 0 0
0 0 0
0 0 0
0 0 0
0 0 0
0 0 0
0 0 0
0 0 0
0 0 0
0 0 0
0 0 0
0 0 0
0 0 0
0 0 0
0 0 0
0 0 0
0 0 0
0 0 0
0 0 0
0 0 0
0 0 0
0 0 0
0 0 0
0 0 0
0 0 0
0 0 0
0 0 0
0 0 0
0 0 0
0 0 0
0 0 0
0 0 0
0 0 0
0 0 0
0 0 0
0 0 0
0 0 0
0 0 0
0 0 0
0 0 0
0 0 0
0 0 0
0 0 0
0 0 0
0 0 0
0 0 0
0 0 0
0 0 0
0 0 0
0 0 0
128 128 128
0 0 0
0 0 0
0 0 0
0 0 0
0 0 0
128 128 128
0 0 0
0 0 0
0 0 0
0 0 0
0 0 0
0 0 0
0 0 0
0 0 0
0 0 0
0 0 0
0 0 0
0 0 0
0 0 0
0 0 0
0 0 0
0 0 0
0 0 0
0 0 0
0 0 0
0 0 0
0 0 0
128 128 128
128 128 128
128 128 128
128 128 128
128 128 128
128 128 128
128 128 128
128 128 128
128 128 128
128 128 128
128 128 128
128 128 128
128 128 128
128 128 128
128 128 128
128 128 128
128 128 128
128 128 128
128 128 128
128 128 128
128 128 128
128 128 128
128 128 128
128 128 128
128 128 128
128 128 128
128 128 128
128 128 128
128 128 128
128 128 128
128 128 128
128 128 128
128 128 128
128 128 128
128 128 128
128 128 128
128 128 128
128 128 128
128 128 128
128 128 128
128 128 128
128 128 128
128 128 128
128 128 128
128 128 128
128 128 128
128 128 128
128 128 128
128 128 128
128 128 128
128 128 128
128 128 128
128 128 128
128 128 128
128 128 128
128 128 128
128 128 128
128 128 128
128 128 128
128 128 128
128 128 128
128 128 128
128 128 128
128 128 128
128 128 128
128 128 128
128 128 128
128 128 128
128 128 128
128 128 128
128 128 128
128 128 128
128 128 128
128 128 128
128 128 128
128 128 128
128 128 128
128 128 128
128 128 128
128 128 128
128 128 128
128 128 128
128 128 128
128 128 128
128 128 128
128 128 128
128 128 128
128 128 128
128 128 128
128 128 128
128 128 128
128 128 128
128 128 128
128 128 128
128 128 128
128 128 128
128 128 128
128 128 128
128 128 128
128 128 128
128 128 128
128 128 128
128 128 128
128 128 128
128 128 128
128 128 128
128 128 128
128 128 128
128 128 128
128 128 128
128 128 128
128 128 128
128 128 128
128 128 128
0 0 0
0 0 0
0 0 0
0 0 0
0 0 0
0 0 0
0 0 0
0 0 0
0 0 0
0 0 0
0 0 0
0 0 0
0 0 0
0 0 0
0 0 0
0 0 0
0 0 0
0 0 0
0 0 0
0 0 0
0 0 0
0 0 0
0 0 0
0 0 0
0 0 0
0 0 0
0 0 0
0 0 0
0 0 0
0 0 0
0 0 0
0 0 0
0 0 0
0 0 0
0 0 0
0 0 0
0 0 0
0 0 0
0 0 0
0 0 0
0 0 0
0 0 0
0 0 0
0 0 0
0 0 0
0 0 0
0 0 0
0 0 0
0 0 0
0 0 0
0 0 0
0 0 0
0 0 0
0 0 0
0 0 0
0 0 0
0 0 0
0 0 0
0 0 0
0 0 0
0 0 0
0 0 0
0 0 0
0 0 0
0 0 0
0 0 0
0 0 0
0 0 0
0 0 0
0 0 0
0 0 0
0 0 0
0 0 0
0 0 0
0 0 0
0 0 0
0 0 0
0 0 0
0 0 0
0 0 0
0 0 0
0 0 0
0 0 0
0 0 0
0 0 0
0 0 0
128 128 128
128 128 128
128 128 128
128 128 128
128 128 128
128 128 128
128 128 128
128 128 128
128 128 128
128 128 128
128 128 128
128 128 128
128 128 128
128 128 128
128 128 128
128 128 128
128 128 128
128 128 128
128 128 128
128 128 128
128 128 128
128 128 128
128 128 128
128 128 128
128 128 128
128 128 128
128 128 128
128 128 128
128 128 128
128 128 128
128 128 128
128 128 128
128 128 128
128 128 128
128 128 128
128 128 128
128 128 128
128 128 128
128 128 128
128 128 128
128 128 128
128 128 128
128 128 128
128 128 128
128 128 128
128 128 128
128 128 128
128 128 128
128 128 128
128 128 128
128 128 128
128 128 128
128 128 128
128 128 128
128 128 128
128 128 128
128 128 128
128 128 128
128 128 128
128 128 128
128 128 128
128 128 128
128 128 128
128 128 128
128 128 128
128 128 128
128 128 128
128 128 128
128 128 128
128 128 128
128 128 128
128 128 128
128 128 128
128 128 128
128 128 128
128 128 128
128 128 128
128 128 128
128 128 128
128 128 128
128 128 128
128 128 128
128 128 128
128 128 128
128 128 128
128 128 128
128 128 128
128 128 128
128 128 128
128 128 128
128 128 128
128 128 128
128 128 128
128 128 128
128 128 128
128 128 128
128 128 128
128 128 128
128 128 128
128 128 128
128 128 128
128 128 128
128 128 128
128 128 128
128 128 128
128 128 128
128 128 128
128 128 128
128 128 128
128 128 128
128 128 128
128 128 128
128 128 128
128 128 128
128 128 128
0 0 0
0 0 0
0 0 0
0 0 0
0 0 0
0 0 0
0 0 0
0 0 0
0 0 0
0 0 0
0 0 0
0 0 0
0 0 0
0 0 0
0 0 0
0 0 0
0 0 0
0 0 0
0 0 0
0 0 0
0 0 0
0 0 0
0 0 0
0 0 0
0 0 0
0 0 0
0 0 0
0 0 0
0 0 0
0 0 0
0 0 0
0 0 0
0 0 0
0 0 0
0 0 0
0 0 0
0 0 0
0 0 0
0 0 0
0 0 0
0 0 0
0 0 0
0 0 0
0 0 0
0 0 0
0 0 0
0 0 0
0 0 0
0 0 0
0 0 0
0 0 0
0 0 0
0 0 0
0 0 0
0 0 0
0 0 0
0 0 0
0 0 0
0 0 0
0 0 0
0 0 0
0 0 0
0 0 0
0 0 0
0 0 0
0 0 0
0 0 0
0 0 0
0 0 0
0 0 0
0 0 0
0 0 0
0 0 0
0 0 0
0 0 0
0 0 0
0 0 0
0 0 0
0 0 0
0 0 0
0 0 0
0 0 0
0 0 0
0 0 0
128 128 128
128 128 128
128 128 128
128 128 128
128 128 128
128 128 128
128 128 128
128 128 128
128 128 128
128 128 128
128 128 128
128 128 128
128 128 128
128 128 128
128 128 128
128 128 128
128 128 128
128 128 128
128 128 128
128 128 128
128 128 128
128 128 128
128 128 128
128 128 128
128 128 128
128 128 128
128 128 128
128 128 128
128 128 128
128 128 128
128 128 128
128 128 128
128 128 128
128 128 128
128 128 128
128 128 128
128 128 128
128 128 128
128 128 128
128 128 128
128 128 128
128 128 128
128 128 128
128 128 128
128 128 128
128 128 128
128 128 128
128 128 128
128 128 128
128 128 128
128 128 128
128 128 128
128 128 128
128 128 128
128 128 128
128 128 128
128 128 128
128 128 128
128 128 128
128 128 128
128 128 128
128 128 128
128 128 128
128 128 128
128 128 128
128 128 128
128 128 128
128 128 128
128 128 128
128 128 128
128 128 128
128 128 128
128 128 128
128 128 128
128 128 128
128 128 128
128 128 128
128 128 128
128 128 128
128 128 128
128 128 128
128 128 128
128 128 128
128 128 128
128 128 128
128 128 128
128 128 128
128 128 128
128 128 128
128 128 128
128 128 128
128 128 128
128 128 128
128 128 128
128 128 128
128 128 128
128 128 128
128 128 128
128 128 128
128 128 128
128 128 128
128 128 128
128 128 128
128 128 128
128 128 128
128 128 128
128 128 128
128 128 128
128 128 128
128 128 128
128 128 128
128 128 128
128 128 128
128 128 128
128 128 128
128 128 128
0 0 0
0 0 0
0 0 0
0 0 0
0 0 0
0 0 0
0 0 0
0 0 0
0 0 0
0 0 0
0 0 0
0 0 0
0 0 0
0 0 0
0 0 0
0 0 0
0 0 0
0 0 0
0 0 0
0 0 0
0 0 0
0 0 0
0 0 0
0 0 0
0 0 0
0 0 0
0 0 0
0 0 0
0 0 0
0 0 0
0 0 0
0 0 0
0 0 0
0 0 0
0 0 0
0 0 0
0 0 0
0 0 0
0 0 0
0 0 0
0 0 0
0 0 0
0 0 0
0 0 0
0 0 0
0 0 0
0 0 0
0 0 0
0 0 0
0 0 0
0 0 0
0 0 0
0 0 0
0 0 0
0 0 0
0 0 0
0 0 0
0 0 0
0 0 0
0 0 0
0 0 0
0 0 0
0 0 0
0 0 0
0 0 0
0 0 0
0 0 0
0 0 0
0 0 0
0 0 0
0 0 0
0 0 0
0 0 0
0 0 0
0 0 0
0 0 0
0 0 0
0 0 0
0 0 0
0 0 0
0 0 0
0 0 0
0 0 0
0 0 0
128 128 128
128 128 128
128 128 128
128 128 128
128 128 128
128 128 128
128 128 128
128 128 128
128 128 128
128 128 128
128 128 128
128 128 128
128 128 128
128 128 128
128 128 128
128 128 128
128 128 128
128 128 128
128 128 128
128 128 128
128 128 128
128 128 128
128 128 128
128 128 128
128 128 128
128 128 128
128 128 128
128 128 128
128 128 128
128 128 128
128 128 128
128 128 128
128 128 128
128 128 128
128 128 128
128 128 128
128 128 128
128 128 128
128 128 128
128 128 128
128 128 128
128 128 128
128 128 128
128 128 128
128 128 128
128 128 128
128 128 128
128 128 128
128 128 128
128 128 128
128 128 128
128 128 128
128 128 128
128 128 128
128 128 128
128 128 128
128 128 128
128 128 128
128 128 128
128 128 128
128 128 128
128 128 128
128 128 128
128 128 128
128 128 128
128 128 128
128 128 128
128 128 128
128 128 128
128 128 128
128 128 128
128 128 128
128 128 128
128 128 128
128 128 128
128 128 128
128 128 128
128 128 128
128 128 128
128 128 128
128 128 128
128 128 128
128 128 128
128 128 128
128 128 128
128 128 128
128 128 128
128 128 128
128 128 128
128 128 128
128 128 128
128 128 128
128 128 128
128 128 128
128 128 128
128 128 128
128 128 128
128 128 128
128 128 128
128 128 128
128 128 128
128 128 128
128 128 128
128 128 128
128 128 128
128 128 128
128 128 128
128 128 128
128 128 128
128 128 128
128 128 128
128 128 128
128 128 128
128 128 128
128 128 128
128 128 128
128 128 128
0 0 0
0 0 0
0 0 0
0 0 0
0 0 0
0 0 0
0 0 0
0 0 0
0 0 0
0 0 0
0 0 0
0 0 0
0 0 0
0 0 0
0 0 0
0 0 0
0 0 0
0 0 0
0 0 0
0 0 0
0 0 0
0 0 0
0 0 0
0 0 0
0 0 0
0 0 0
0 0 0
0 0 0
0 0 0
0 0 0
0 0 0
0 0 0
0 0 0
0 0 0
0 0 0
0 0 0
0 0 0
0 0 0
0 0 0
0 0 0
0 0 0
0 0 0
0 0 0
0 0 0
0 0 0
0 0 0
0 0 0
0 0 0
0 0 0
0 0 0
0 0 0
0 0 0
0 0 0
0 0 0
0 0 0
0 0 0
0 0 0
0 0 0
0 0 0
0 0 0
0 0 0
0 0 0
0 0 0
0 0 0
0 0 0
0 0 0
0 0 0
0 0 0
0 0 0
0 0 0
0 0 0
0 0 0
0 0 0
0 0 0
0 0 0
0 0 0
0 0 0
0 0 0
0 0 0
0 0 0
0 0 0
0 0 0
128 128 128
128 128 128
128 128 128
128 128 128
128 128 128
128 128 128
128 128 128
128 128 128
128 128 128
128 128 128
128 128 128
128 128 128
128 128 128
128 128 128
128 128 128
128 128 128
128 128 128
128 128 128
128 128 128
128 128 128
128 128 128
128 128 128
128 128 128
128 128 128
128 128 128
128 128 128
128 128 128
128 128 128
128 128 128
128 128 128
128 128 128
128 128 128
128 128 128
128 128 128
128 128 128
128 128 128
128 128 128
128 128 128
128 128 128
128 128 128
128 128 128
128 128 128
128 128 128
128 128 128
128 128 128
128 128 128
128 128 128
128 128 128
128 128 128
128 128 128
128 128 128
128 128 128
128 128 128
128 128 128
128 128 128
128 128 128
128 128 128
128 128 128
128 128 128
128 128 128
128 128 128
128 128 128
128 128 128
128 128 128
128 128 128
128 128 128
128 128 128
128 128 128
128 128 128
128 128 128
128 128 128
128 128 128
128 128 128
128 128 128
128 128 128
128 128 128
128 128 128
128 128 128
128 128 128
128 128 128
128 128 128
128 128 128
128 128 128
128 128 128
128 128 128
128 128 128
128 128 128
128 128 128
128 128 128
128 128 128
128 128 128
128 128 128
128 128 128
128 128 128
128 128 128
128 128 128
128 128 128
128 128 128
128 128 128
128 128 128
128 128 128
128 128 128
128 128 128
128 128 128
128 128 128
128 128 128
128 128 128
128 128 128
128 128 128
128 128 128
128 128 128
128 128 128
128 128 128
128 128 128
128 128 128
128 128 128
128 128 128
128 128 128
0 0 0
0 0 0
0 0 0
0 0 0
0 0 0
0 0 0
0 0 0
0 0 0
0 0 0
0 0 0
0 0 0
0 0 0
0 0 0
0 0 0
0 0 0
0 0 0
0 0 0
0 0 0
0 0 0
0 0 0
0 0 0
0 0 0
0 0 0
0 0 0
0 0 0
0 0 0
0 0 0
0 0 0
0 0 0
0 0 0
0 0 0
0 0 0
0 0 0
0 0 0
0 0 0
0 0 0
0 0 0
0 0 0
0 0 0
0 0 0
0 0 0
0 0 0
0 0 0
0 0 0
0 0 0
0 0 0
0 0 0
0 0 0
0 0 0
0 0 0
0 0 0
0 0 0
0 0 0
0 0 0
0 0 0
0 0 0
0 0 0
0 0 0
0 0 0
0 0 0
0 0 0
0 0 0
0 0 0
0 0 0
0 0 0
0 0 0
0 0 0
0 0 0
0 0 0
0 0 0
0 0 0
0 0 0
0 0 0
0 0 0
0 0 0
0 0 0
0 0 0
0 0 0
0 0 0
0 0 0
0 0 0
0 0 0
128 128 128
128 128 128
128 128 128
128 128 128
128 128 128
128 128 128
128 128 128
128 128 128
128 128 128
128 128 128
128 128 128
128 128 128
128 128 128
128 128 128
128 128 128
128 128 128
128 128 128
128 128 128
128 128 128
128 128 128
128 128 128
128 128 128
128 128 128
128 128 128
128 128 128
128 128 128
128 128 128
128 128 128
128 128 128
128 128 128
128 128 128
128 128 128
128 128 128
128 128 128
128 128 128
128 128 128
128 128 128
128 128 128
128 128 128
128 128 128
128 128 128
128 128 128
128 128 128
128 128 128
128 128 128
128 128 128
128 128 128
128 128 128
128 128 128
128 128 128
128 128 128
128 128 128
128 128 128
128 128 128
128 128 128
128 128 128
128 128 128
128 128 128
128 128 128
128 128 128
128 128 128
128 128 128
128 128 128
128 128 128
128 128 128
128 128 128
128 128 128
128 128 128
128 128 128
128 128 128
128 128 128
128 128 128
128 128 128
128 128 128
128 128 128
128 128 128
128 128 128
128 128 128
128 128 128
128 128 128
128 128 128
128 128 128
128 128 128
128 128 128
128 128 128
128 128 128
128 128 128
128 128 128
128 128 128
128 128 128
128 128 128
128 128 128
128 128 128
128 128 128
128 128 128
128 128 128
128 128 128
128 128 128
128 128 128
128 128 128
128 128 128
128 128 128
128 128 128
128 128 128
128 128 128
128 128 128
128 128 128
128 128 128
128 128 128
128 128 128
128 128 128
128 128 128
128 128 128
128 128 128
128 128 128
128 128 128
128 128 128
128 128 128
128 128 128
0 0 0
0 0 0
0 0 0
0 0 0
0 0 0
0 0 0
0 0 0
0 0 0
0 0 0
0 0 0
0 0 0
0 0 0
0 0 0
0 0 0
0 0 0
0 0 0
0 0 0
0 0 0
0 0 0
0 0 0
0 0 0
0 0 0
0 0 0
0 0 0
0 0 0
0 0 0
0 0 0
0 0 0
0 0 0
0 0 0
0 0 0
0 0 0
0 0 0
0 0 0
0 0 0
0 0 0
0 0 0
0 0 0
0 0 0
0 0 0
0 0 0
0 0 0
0 0 0
0 0 0
0 0 0
0 0 0
0 0 0
0 0 0
0 0 0
0 0 0
0 0 0
0 0 0
0 0 0
0 0 0
0 0 0
0 0 0
0 0 0
0 0 0
0 0 0
0 0 0
0 0 0
0 0 0
0 0 0
0 0 0
0 0 0
0 0 0
0 0 0
0 0 0
0 0 0
0 0 0
0 0 0
0 0 0
0 0 0
0 0 0
0 0 0
0 0 0
0 0 0
0 0 0
0 0 0
0 0 0
128 128 128
128 128 128
128 128 128
128 128 128
128 128 128
128 128 128
128 128 128
128 128 128
128 128 128
128 128 128
128 128 128
128 128 128
128 128 128
128 128 128
128 128 128
128 128 128
128 128 128
128 128 128
128 128 128
128 128 128
128 128 128
128 128 128
128 128 128
128 128 128
128 128 128
128 128 128
128 128 128
128 128 128
128 128 128
128 128 128
128 128 128
128 128 128
128 128 128
128 128 128
128 128 128
128 128 128
128 128 128
128 128 128
128 128 128
128 128 128
128 128 128
128 128 128
128 128 128
128 128 128
128 128 128
128 128 128
128 128 128
128 128 128
128 128 128
128 128 128
128 128 128
128 128 128
128 128 128
128 128 128
128 128 128
128 128 128
128 128 128
128 128 128
128 128 128
128 128 128
128 128 128
128 128 128
128 128 128
128 128 128
128 128 128
128 128 128
128 128 128
128 128 128
128 128 128
128 128 128
128 128 128
128 128 128
128 128 128
128 128 128
128 128 128
128 128 128
128 128 128
128 128 128
128 128 128
128 128 128
128 128 128
128 128 128
128 128 128
128 128 128
128 128 128
128 128 128
128 128 128
128 128 128
128 128 128
128 128 128
128 128 128
128 128 128
128 128 128
128 128 128
128 128 128
128 128 128
128 128 128
128 128 128
128 128 128
128 128 128
128 128 128
128 128 128
128 128 128
128 128 128
128 128 128
128 128 128
128 128 128
128 128 128
128 128 128
128 128 128
128 128 128
128 128 128
128 128 128
128 128 128
128 128 128
128 128 128
128 128 128
128 128 128
128 128 128
128 128 128
0 0 0
0 0 0
0 0 0
0 0 0
0 0 0
0 0 0
0 0 0
0 0 0
0 0 0
0 0 0
0 0 0
0 0 0
0 0 0
0 0 0
0 0 0
0 0 0
0 0 0
0 0 0
0 0 0
0 0 0
0 0 0
0 0 0
0 0 0
0 0 0
0 0 0
0 0 0
0 0 0
0 0 0
0 0 0
0 0 0
0 0 0
0 0 0
0 0 0
0 0 0
0 0 0
0 0 0
0 0 0
0 0 0
0 0 0
0 0 0
0 0 0
0 0 0
0 0 0
0 0 0
0 0 0
0 0 0
0 0 0
0 0 0
0 0 0
0 0 0
0 0 0
0 0 0
0 0 0
0 0 0
0 0 0
0 0 0
0 0 0
0 0 0
0 0 0
0 0 0
0 0 0
0 0 0
0 0 0
0 0 0
0 0 0
0 0 0
0 0 0
0 0 0
0 0 0
0 0 0
0 0 0
0 0 0
0 0 0
0 0 0
0 0 0
0 0 0
0 0 0
0 0 0
0 0 0
0 0 0
128 128 128
128 128 128
128 128 128
128 128 128
128 128 128
128 128 128
128 128 128
128 128 128
128 128 128
128 128 128
128 128 128
128 128 128
128 128 128
128 128 128
128 128 128
128 128 128
128 128 128
128 128 128
128 128 128
128 128 128
128 128 128
128 128 128
128 128 128
128 128 128
128 128 128
128 128 128
128 128 128
128 128 128
128 128 128
128 128 128
128 128 128
128 128 128
128 128 128
128 128 128
128 128 128
128 128 128
128 128 128
128 128 128
128 128 128
128 128 128
128 128 128
128 128 128
128 128 128
128 128 128
128 128 128
128 128 128
128 128 128
128 128 128
128 128 128
128 128 128
128 128 128
128 128 128
128 128 128
128 128 128
128 128 128
128 128 128
128 128 128
128 128 128
128 128 128
128 128 128
128 128 128
128 128 128
128 128 128
128 128 128
128 128 128
128 128 128
128 128 128
128 128 128
128 128 128
128 128 128
128 128 128
128 128 128
128 128 128
128 128 128
128 128 128
128 128 128
128 128 128
128 128 128
128 128 128
128 128 128
128 128 128
128 128 128
128 128 128
128 128 128
128 128 128
128 128 128
128 128 128
128 128 128
128 128 128
128 128 128
128 128 128
128 128 128
128 128 128
128 128 128
128 128 128
128 128 128
128 128 128
128 128 128
128 128 128
128 128 128
128 128 128
128 128 128
128 128 128
128 128 128
128 128 128
128 128 128
128 128 128
128 128 128
128 128 128
128 128 128
128 128 128
128 128 128
128 128 128
128 128 128
128 128 128
128 128 128
128 128 128
128 128 128
128 128 128
128 128 128
0 0 0
0 0 0
0 0 0
0 0 0
0 0 0
0 0 0
0 0 0
0 0 0
0 0 0
0 0 0
0 0 0
0 0 0
0 0 0
0 0 0
0 0 0
0 0 0
0 0 0
0 0 0
0 0 0
0 0 0
0 0 0
0 0 0
0 0 0
0 0 0
0 0 0
0 0 0
0 0 0
0 0 0
0 0 0
0 0 0
0 0 0
0 0 0
0 0 0
0 0 0
0 0 0
0 0 0
0 0 0
0 0 0
128 128 128
128 128 128
0 0 0
0 0 0
128 128 128
128 128 128
0 0 0
0 0 0
0 0 0
0 0 0
0 0 0
128 128 128
128 128 128
128 128 128
128 128 128
128 128 128
128 128 128
128 128 128
0 0 0
0 0 0
0 0 0
0 0 0
128 128 128
128 128 128
128 128 128
0 0 0
0 0 0
0 0 0
0 0 0
0 0 0
0 0 0
0 0 0
0 0 0
0 0 0
0 0 0
0 0 0
0 0 0
0 0 0
0 0 0
0 0 0
0 0 0
128 128 128
128 128 128
128 128 128
128 128 128
128 128 128
128 128 128
128 128 128
128 128 128
128 128 128
128 128 128
128 128 128
128 128 128
128 128 128
128 128 128
128 128 128
128 128 128
128 128 128
128 128 128
128 128 128
128 128 128
128 128 128
128 128 128
128 128 128
128 128 128
128 128 128
128 128 128
128 128 128
128 128 128
128 128 128
128 128 128
128 128 128
128 128 128
128 128 128
128 128 128
128 128 128
128 128 128
128 128 128
128 128 128
128 128 128
128 128 128
128 128 128
128 128 128
128 128 128
128 128 128
128 128 128
128 128 128
128 128 128
128 128 128
128 128 128
128 128 128
128 128 128
128 128 128
128 128 128
128 128 128
128 128 128
128 128 128
128 128 128
128 128 128
128 128 128
128 128 128
128 128 128
128 128 128
128 128 128
128 128 128
128 128 128
128 128 128
128 128 128
128 128 128
128 128 128
128 128 128
128 128 128
128 128 128
128 128 128
128 128 128
128 128 128
128 128 128
128 128 128
128 128 128
128 128 128
128 128 128
128 128 128
128 128 128
128 128 128
128 128 128
128 128 128
128 128 128
128 128 128
128 128 128
128 128 128
128 128 128
128 128 128
128 128 128
128 128 128
128 128 128
128 128 128
128 128 128
128 128 128
128 128 128
128 128 128
128 128 128
128 128 128
128 128 128
128 128 128
128 128 128
128 128 128
128 128 128
128 128 128
128 128 128
128 128 128
128 128 128
128 128 128
128 128 128
128 128 128
128 128 128
128 128 128
128 128 128
128 128 128
128 128 128
128 128 128
128 128 128
128 128 128
0 0 0
0 0 0
0 0 0
0 0 0
0 0 0
0 0 0
0 0 0
0 0 0
0 0 0
0 0 0
0 0 0
0 0 0
0 0 0
0 0 0
0 0 0
0 0 0
0 0 0
0 0 0
0 0 0
0 0 0
0 0 0
0 0 0
0 0 0
0 0 0
0 0 0
0 0 0
0 0 0
0 0 0
0 0 0
0 0 0
0 0 0
0 0 0
0 0 0
0 0 0
0 0 0
0 0 0
0 0 0
128 128 128
128 128 128
128 128 128
0 0 0
128 128 128
128 128 128
128 128 128
0 0 0
0 0 0
0 0 0
0 0 0
0 0 0
128 128 128
128 128 128
128 128 128
128 128 128
128 128 128
128 128 128
128 128 128
0 0 0
0 0 0
0 0 0
0 0 0
128 128 128
128 128 128
128 128 128
0 0 0
0 0 0
0 0 0
0 0 0
0 0 0
0 0 0
0 0 0
0 0 0
0 0 0
0 0 0
0 0 0
0 0 0
0 0 0
0 0 0
0 0 0
0 0 0
128 128 128
128 128 128
128 128 128
128 128 128
128 128 128
128 128 128
128 128 128
128 128 128
128 128 128
128 128 128
128 128 128
128 128 128
128 128 128
128 128 128
128 128 128
128 128 128
128 128 128
128 128 128
128 128 128
128 128 128
128 128 128
128 128 128
128 128 128
128 128 128
128 128 128
128 128 128
128 128 128
128 128 128
128 128 128
128 128 128
128 128 128
128 128 128
128 128 128
128 128 128
128 128 128
128 128 128
128 128 128
128 128 128
128 128 128
128 128 128
128 128 128
128 128 128
128 128 128
128 128 128
128 128 128
128 128 128
128 128 128
128 128 128
128 128 128
128 128 128
128 128 128
128 128 128
128 128 128
128 128 128
128 128 128
128 128 128
128 128 128
128 128 128
128 128 128
128 128 128
128 128 128
128 128 128
128 128 128
128 128 128
128 128 128
128 128 128
128 128 128
128 128 128
128 128 128
128 128 128
128 128 128
128 128 128
128 128 128
128 128 128
128 128 128
128 128 128
128 128 128
128 128 128
128 128 128
128 128 128
128 128 128
128 128 128
128 128 128
128 128 128
128 128 128
128 128 128
128 128 128
128 128 128
128 128 128
128 128 128
128 128 128
128 128 128
128 128 128
128 128 128
128 128 128
128 128 128
128 128 128
128 128 128
128 128 128
128 128 128
128 128 128
128 128 128
128 128 128
128 128 128
128 128 128
128 128 128
128 128 128
128 128 128
128 128 128
128 128 128
128 128 128
128 128 128
128 128 128
128 128 128
128 128 128
128 128 128
128 128 128
128 128 128
128 128 128
128 128 128
128 128 128
0 0 0
0 0 0
0 0 0
0 0 0
0 0 0
0 0 0
0 0 0
0 0 0
0 0 0
0 0 0
0 0 0
0 0 0
0 0 0
0 0 0
0 0 0
0 0 0
0 0 0
0 0 0
0 0 0
0 0 0
0 0 0
0 0 0
0 0 0
0 0 0
0 0 0
0 0 0
0 0 0
0 0 0
0 0 0
0 0 0
0 0 0
0 0 0
0 0 0
0 0 0
0 0 0
0 0 0
0 0 0
128 128 128
128 128 128
128 128 128
128 128 128
128 128 128
128 128 128
128 128 128
0 0 0
0 0 0
0 0 0
0 0 0
0 0 0
128 128 128
128 128 128
0 0 0
0 0 0
128 128 128
0 0 0
128 128 128
0 0 0
0 0 0
0 0 0
0 0 0
128 128 128
128 128 128
128 128 128
0 0 0
0 0 0
0 0 0
0 0 0
0 0 0
0 0 0
0 0 0
0 0 0
0 0 0
0 0 0
0 0 0
0 0 0
0 0 0
0 0 0
0 0 0
128 128 128
128 128 128
128 128 128
128 128 128
128 128 128
128 128 128
128 128 128
128 128 128
128 128 128
128 128 128
128 128 128
128 128 128
128 128 128
128 128 128
128 128 128
128 128 128
128 128 128
128 128 128
128 128 128
128 128 128
128 128 128
128 128 128
128 128 128
128 128 128
128 128 128
128 128 128
128 128 128
128 128 128
128 128 128
128 128 128
128 128 128
128 128 128
128 128 128
128 128 128
128 128 128
128 128 128
128 128 128
128 128 128
128 128 128
128 128 128
128 128 128
128 128 128
128 128 128
128 128 128
128 128 128
128 128 128
128 128 128
128 128 128
128 128 128
128 128 128
128 128 128
128 128 128
128 128 128
128 128 128
128 128 128
128 128 128
128 128 128
128 128 128
128 128 128
128 128 128
128 128 128
128 128 128
128 128 128
128 128 128
128 128 128
128 128 128
128 128 128
128 128 128
128 128 128
128 128 128
128 128 128
128 128 128
128 128 128
128 128 128
128 128 128
128 128 128
128 128 128
128 128 128
128 128 128
128 128 128
128 128 128
128 128 128
128 128 128
128 128 128
128 128 128
128 128 128
128 128 128
128 128 128
128 128 128
128 128 128
128 128 128
128 128 128
128 128 128
128 128 128
128 128 128
128 128 128
128 128 128
128 128 128
128 128 128
128 128 128
128 128 128
128 128 128
128 128 128
128 128 128
128 128 128
128 128 128
128 128 128
128 128 128
128 128 128
128 128 128
128 128 128
128 128 128
128 128 128
128 128 128
128 128 128
128 128 128
128 128 128
128 128 128
128 128 128
128 128 128
128 128 128
128 128 128
0 0 0
0 0 0
0 0 0
0 0 0
0 0 0
0 0 0
0 0 0
0 0 0
0 0 0
0 0 0
0 0 0
0 0 0
0 0 0
0 0 0
0 0 0
0 0 0
0 0 0
0 0 0
0 0 0
0 0 0
0 0 0
0 0 0
0 0 0
0 0 0
0 0 0
0 0 0
0 0 0
0 0 0
0 0 0
0 0 0
0 0 0
0 0 0
0 0 0
0 0 0
0 0 0
0 0 0
0 0 0
128 128 128
0 0 0
128 128 128
128 128 128
128 128 128
128 128 128
128 128 128
0 0 0
0 0 0
0 0 0
0 0 0
0 0 0
128 128 128
0 0 0
0 0 0
0 0 0
0 0 0
0 0 0
128 128 128
0 0 0
0 0 0
0 0 0
0 0 0
128 128 128
128 128 128
128 128 128
0 0 0
0 0 0
0 0 0
0 0 0
0 0 0
0 0 0
0 0 0
0 0 0
0 0 0
0 0 0
0 0 0
0 0 0
0 0 0
0 0 0
0 0 0
128 128 128
128 128 128
128 128 128
128 128 128
128 128 128
128 128 128
128 128 128
128 128 128
128 128 128
128 128 128
128 128 128
128 128 128
128 128 128
128 128 128
128 128 128
128 128 128
128 128 128
128 128 128
128 128 128
128 128 128
128 128 128
128 128 128
128 128 128
128 128 128
128 128 128
128 128 128
128 128 128
128 128 128
128 128 128
128 128 128
128 128 128
128 128 128
128 128 128
128 128 128
128 128 128
128 128 128
128 128 128
128 128 128
128 128 128
128 128 128
128 128 128
128 128 128
128 128 128
128 128 128
128 128 128
128 128 128
128 128 128
128 128 128
128 128 128
128 128 128
128 128 128
128 128 128
128 128 128
128 128 128
128 128 128
128 128 128
128 128 128
128 128 128
128 128 128
128 128 128
128 128 128
128 128 128
128 128 128
128 128 128
128 128 128
128 128 128
128 128 128
128 128 128
128 128 128
128 128 128
128 128 128
128 128 128
128 128 128
128 128 128
128 128 128
128 128 128
128 128 128
128 128 128
128 128 128
128 128 128
128 128 128
128 128 128
128 128 128
128 128 128
128 128 128
128 128 128
128 128 128
128 128 128
128 128 128
128 128 128
128 128 128
128 128 128
128 128 128
128 128 128
128 128 128
128 128 128
128 128 128
128 128 128
128 128 128
128 128 128
128 128 128
128 128 128
128 128 128
128 128 128
128 128 128
128 128 128
128 128 128
128 128 128
128 128 128
128 128 128
128 128 128
128 128 128
128 128 128
128 128 128
128 128 128
128 128 128
128 128 128
128 128 128
128 128 128
128 128 128
128 128 128
128 128 128
0 0 0
0 0 0
0 0 0
0 0 0
0 0 0
0 0 0
0 0 0
0 0 0
0 0 0
0 0 0
0 0 0
0 0 0
0 0 0
0 0 0
0 0 0
0 0 0
0 0 0
0 0 0
0 0 0
0 0 0
0 0 0
0 0 0
0 0 0
0 0 0
0 0 0
0 0 0
0 0 0
0 0 0
0 0 0
0 0 0
0 0 0
0 0 0
0 0 0
0 0 0
0 0 0
0 0 0
0 0 0
128 128 128
0 0 0
128 128 128
128 128 128
128 128 128
128 128 128
0 0 0
0 0 0
0 0 0
0 0 0
0 0 0
0 0 0
0 0 0
0 0 0
0 0 0
0 0 0
0 0 0
128 128 128
128 128 128
0 0 0
0 0 0
0 0 0
0 0 0
0 0 0
128 128 128
0 0 0
0 0 0
0 0 0
0 0 0
0 0 0
0 0 0
0 0 0
0 0 0
0 0 0
0 0 0
0 0 0
0 0 0
0 0 0
0 0 0
0 0 0
0 0 0
128 128 128
128 128 128
128 128 128
128 128 128
128 128 128
128 128 128
128 128 128
128 128 128
128 128 128
128 128 128
128 128 128
128 128 128
128 128 128
128 128 128
128 128 128
128 128 128
128 128 128
128 128 128
128 128 128
128 128 128
128 128 128
128 128 128
128 128 128
128 128 128
128 128 128
128 128 128
128 128 128
128 128 128
128 128 128
128 128 128
128 128 128
128 128 128
128 128 128
128 128 128
128 128 128
128 128 128
128 128 128
128 128 128
128 128 128
128 128 128
128 128 128
128 128 128
128 128 128
128 128 128
128 128 128
128 128 128
128 128 128
128 128 128
128 128 128
128 128 128
128 128 128
128 128 128
128 128 128
128 128 128
128 128 128
128 128 128
128 128 128
128 128 128
128 128 128
128 128 128
128 128 128
128 128 128
128 128 128
128 128 128
128 128 128
128 128 128
128 128 128
128 128 128
128 128 128
128 128 128
128 128 128
128 128 128
128 128 128
128 128 128
128 128 128
128 128 128
128 128 128
128 128 128
128 128 128
128 128 128
128 128 128
128 128 128
128 128 128
128 128 128
128 128 128
128 128 128
128 128 128
128 128 128
128 128 128
128 128 128
128 128 128
128 128 128
128 128 128
128 128 128
128 128 128
128 128 128
128 128 128
128 128 128
128 128 128
128 128 128
128 128 128
128 128 128
128 128 128
128 128 128
128 128 128
128 128 128
128 128 128
128 128 128
128 128 128
128 128 128
128 128 128
128 128 128
128 128 128
128 128 128
128 128 128
128 128 128
128 128 128
128 128 128
128 128 128
128 128 128
128 128 128
128 128 128
0 0 0
0 0 0
0 0 0
0 0 0
0 0 0
0 0 0
0 0 0
0 0 0
0 0 0
0 0 0
0 0 0
0 0 0
0 0 0
0 0 0
0 0 0
0 0 0
0 0 0
0 0 0
0 0 0
0 0 0
0 0 0
0 0 0
0 0 0
0 0 0
0 0 0
0 0 0
0 0 0
0 0 0
0 0 0
0 0 0
0 0 0
0 0 0
0 0 0
0 0 0
0 0 0
0 0 0
0 0 0
128 128 128
0 0 0
0 0 0
128 128 128
128 128 128
0 0 0
0 0 0
0 0 0
0 0 0
0 0 0
0 0 0
0 0 0
0 0 0
128 128 128
0 0 0
0 0 0
0 0 0
128 128 128
128 128 128
0 0 0
0 0 0
0 0 0
0 0 0
0 0 0
128 128 128
0 0 0
0 0 0
0 0 0
0 0 0
0 0 0
0 0 0
0 0 0
0 0 0
0 0 0
0 0 0
0 0 0
0 0 0
0 0 0
0 0 0
0 0 0
128 128 128
128 128 128
128 128 128
128 128 128
128 128 128
128 128 128
128 128 128
128 128 128
128 128 128
128 128 128
128 128 128
128 128 128
128 128 128
128 128 128
128 128 128
128 128 128
128 128 128
128 128 128
128 128 128
128 128 128
128 128 128
128 128 128
128 128 128
128 128 128
128 128 128
128 128 128
128 128 128
128 128 128
128 128 128
128 128 128
128 128 128
128 128 128
128 128 128
128 128 128
128 128 128
128 128 128
128 128 128
128 128 128
128 128 128
128 128 128
128 128 128
128 128 128
128 128 128
128 128 128
128 128 128
128 128 128
128 128 128
128 128 128
128 128 128
128 128 128
128 128 128
128 128 128
128 128 128
128 128 128
128 128 128
128 128 128
128 128 128
128 128 128
128 128 128
128 128 128
128 128 128
128 128 128
128 128 128
128 128 128
128 128 128
128 128 128
128 128 128
128 128 128
128 128 128
128 128 128
128 128 128
128 128 128
128 128 128
128 128 128
128 128 128
128 128 128
128 128 128
128 128 128
128 128 128
128 128 128
128 128 128
128 128 128
128 128 128
128 128 128
128 128 128
128 128 128
128 128 128
128 128 128
128 128 128
128 128 128
128 128 128
128 128 128
128 128 128
128 128 128
128 128 128
128 128 128
128 128 128
128 128 128
128 128 128
128 128 128
128 128 128
128 128 128
128 128 128
128 128 128
128 128 128
128 128 128
128 128 128
128 128 128
128 128 128
128 128 128
128 128 128
128 128 128
128 128 128
128 128 128
128 128 128
128 128 128
128 128 128
128 128 128
128 128 128
128 128 128
128 128 128
128 128 128
128 128 128
0 0 0
0 0 0
0 0 0
0 0 0
0 0 0
0 0 0
0 0 0
0 0 0
0 0 0
0 0 0
0 0 0
0 0 0
0 0 0
0 0 0
0 0 0
0 0 0
0 0 0
0 0 0
0 0 0
0 0 0
0 0 0
0 0 0
0 0 0
0 0 0
0 0 0
0 0 0
0 0 0
0 0 0
0 0 0
0 0 0
0 0 0
0 0 0
0 0 0
0 0 0
0 0 0
0 0 0
0 0 0
128 128 128
0 0 0
0 0 0
0 0 0
0 0 0
0 0 0
0 0 0
0 0 0
0 0 0
0 0 0
0 0 0
0 0 0
0 0 0
128 128 128
0 0 0
0 0 0
0 0 0
128 128 128
128 128 128
0 0 0
0 0 0
0 0 0
0 0 0
0 0 0
128 128 128
128 128 128
0 0 0
0 0 0
0 0 0
0 0 0
0 0 0
0 0 0
0 0 0
0 0 0
0 0 0
0 0 0
0 0 0
0 0 0
0 0 0
0 0 0
128 128 128
128 128 128
128 128 128
128 128 128
128 128 128
128 128 128
128 128 128
128 128 128
128 128 128
128 128 128
128 128 128
128 128 128
128 128 128
128 128 128
128 128 128
128 128 128
128 128 128
128 128 128
128 128 128
128 128 128
128 128 128
128 128 128
128 128 128
128 128 128
128 128 128
128 128 128
128 128 128
128 128 128
128 128 128
128 128 128
128 128 128
128 128 128
128 128 128
128 128 128
128 128 128
128 128 128
128 128 128
128 128 128
128 128 128
128 128 128
128 128 128
128 128 128
128 128 128
128 128 128
128 128 128
128 128 128
128 128 128
128 128 128
128 128 128
128 128 128
128 128 128
128 128 128
128 128 128
128 128 128
128 128 128
128 128 128
128 128 128
128 128 128
128 128 128
128 128 128
128 128 128
128 128 128
128 128 128
128 128 128
128 128 128
128 128 128
128 128 128
128 128 128
128 128 128
128 128 128
128 128 128
128 128 128
128 128 128
128 128 128
128 128 128
128 128 128
128 128 128
128 128 128
128 128 128
128 128 128
128 128 128
128 128 128
128 128 128
128 128 128
128 128 128
128 128 128
128 128 128
128 128 128
128 128 128
128 128 128
128 128 128
128 128 128
128 128 128
128 128 128
128 128 128
128 128 128
128 128 128
128 128 128
128 128 128
128 128 128
128 128 128
128 128 128
128 128 128
128 128 128
128 128 128
128 128 128
128 128 128
128 128 128
128 128 128
128 128 128
128 128 128
128 128 128
128 128 128
128 128 128
128 128 128
128 128 128
128 128 128
128 128 128
128 128 128
128 128 128
128 128 128
128 128 128
128 128 128
0 0 0
0 0 0
0 0 0
0 0 0
0 0 0
0 0 0
0 0 0
0 0 0
0 0 0
0 0 0
0 0 0
0 0 0
0 0 0
0 0 0
0 0 0
0 0 0
0 0 0
0 0 0
0 0 0
0 0 0
0 0 0
0 0 0
0 0 0
0 0 0
0 0 0
0 0 0
0 0 0
0 0 0
0 0 0
0 0 0
0 0 0
0 0 0
0 0 0
0 0 0
0 0 0
0 0 0
0 0 0
0 0 0
0 0 0
0 0 0
0 0 0
0 0 0
0 0 0
0 0 0
0 0 0
0 0 0
0 0 0
0 0 0
0 0 0
0 0 0
0 0 0
0 0 0
0 0 0
0 0 0
0 0 0
0 0 0
0 0 0
0 0 0
0 0 0
0 0 0
0 0 0
0 0 0
0 0 0
0 0 0
0 0 0
0 0 0
0 0 0
0 0 0
0 0 0
0 0 0
0 0 0
0 0 0
0 0 0
0 0 0
0 0 0
0 0 0
0 0 0
128 128 128
128 128 128
128 128 128
128 128 128
128 128 128
128 128 128
128 128 128
128 128 128
128 128 128
128 128 128
128 128 128
128 128 128
128 128 128
128 128 128
128 128 128
128 128 128
128 128 128
128 128 128
128 128 128
128 128 128
128 128 128
128 128 128
128 128 128
128 128 128
128 128 128
128 128 128
128 128 128
128 128 128
128 128 128
128 128 128
128 128 128
128 128 128
128 128 128
128 128 128
128 128 128
128 128 128
128 128 128
128 128 128
128 128 128
128 128 128
128 128 128
128 128 128
128 128 128
128 128 128
128 128 128
128 128 128
128 128 128
128 128 128
128 128 128
128 128 128
128 128 128
128 128 128
128 128 128
128 128 128
128 128 128
128 128 128
128 128 128
128 128 128
128 128 128
128 128 128
128 128 128
128 128 128
128 128 128
128 128 128
128 128 128
128 128 128
128 128 128
128 128 128
128 128 128
128 128 128
128 128 128
128 128 128
128 128 128
128 128 128
128 128 128
128 128 128
128 128 128
128 128 128
128 128 128
128 128 128
128 128 128
128 128 128
128 128 128
128 128 128
128 128 128
128 128 128
128 128 128
128 128 128
128 128 128
128 128 128
128 128 128
128 128 128
128 128 128
128 128 128
128 128 128
128 128 128
128 128 128
128 128 128
128 128 128
128 128 128
128 128 128
128 128 128
128 128 128
128 128 128
128 128 128
128 128 128
128 128 128
128 128 128
128 128 128
128 128 128
128 128 128
128 128 128
128 128 128
128 128 128
128 128 128
128 128 128
128 128 128
128 128 128
128 128 128
128 128 128
128 128 128
128 128 128
128 128 128
0 0 0
0 0 0
0 0 0
0 0 0
0 0 0
0 0 0
0 0 0
0 0 0
0 0 0
0 0 0
0 0 0
0 0 0
0 0 0
0 0 0
0 0 0
0 0 0
0 0 0
0 0 0
0 0 0
0 0 0
0 0 0
0 0 0
0 0 0
0 0 0
0 0 0
0 0 0
0 0 0
0 0 0
0 0 0
0 0 0
0 0 0
0 0 0
0 0 0
0 0 0
0 0 0
0 0 0
0 0 0
0 0 0
0 0 0
0 0 0
0 0 0
0 0 0
0 0 0
0 0 0
0 0 0
0 0 0
0 0 0
0 0 0
0 0 0
0 0 0
0 0 0
0 0 0
0 0 0
0 0 0
0 0 0
0 0 0
0 0 0
0 0 0
0 0 0
0 0 0
0 0 0
0 0 0
0 0 0
0 0 0
0 0 0
0 0 0
0 0 0
0 0 0
0 0 0
0 0 0
0 0 0
0 0 0
0 0 0
0 0 0
0 0 0
0 0 0
128 128 128
128 128 128
128 128 128
128 128 128
128 128 128
128 128 128
128 128 128
128 128 128
128 128 128
128 128 128
128 128 128
128 128 128
128 128 128
128 128 128
128 128 128
128 128 128
128 128 128
128 128 128
128 128 128
128 128 128
128 128 128
128 128 128
128 128 128
128 128 128
128 128 128
128 128 128
128 128 128
128 128 128
128 128 128
128 128 128
128 128 128
128 128 128
128 128 128
128 128 128
128 128 128
128 128 128
128 128 128
128 128 128
128 128 128
128 128 128
128 128 128
128 128 128
128 128 128
128 128 128
128 128 128
128 128 128
128 128 128
128 128 128
128 128 128
128 128 128
128 128 128
128 128 128
128 128 128
128 128 128
128 128 128
128 128 128
128 128 128
128 128 128
128 128 128
128 128 128
128 128 128
128 128 128
128 128 128
128 128 128
128 128 128
128 128 128
128 128 128
128 128 128
128 128 128
128 128 128
128 128 128
128 128 128
128 128 128
128 128 128
128 128 128
128 128 128
128 128 128
128 128 128
128 128 128
128 128 128
128 128 128
128 128 128
128 128 128
128 128 128
128 128 128
128 128 128
128 128 128
128 128 128
128 128 128
128 128 128
128 128 128
128 128 128
128 128 128
128 128 128
128 128 128
128 128 128
128 128 128
128 128 128
128 128 128
128 128 128
128 128 128
128 128 128
128 128 128
128 128 128
128 128 128
128 128 128
128 128 128
128 128 128
128 128 128
128 128 128
128 128 128
128 128 128
128 128 128
128 128 128
128 128 128
128 128 128
128 128 128
128 128 128
128 128 128
128 128 128
128 128 128
128 128 128
128 128 128
128 128 128
0 0 0
0 0 0
0 0 0
0 0 0
0 0 0
0 0 0
0 0 0
0 0 0
0 0 0
0 0 0
0 0 0
0 0 0
0 0 0
0 0 0
0 0 0
0 0 0
0 0 0
0 0 0
0 0 0
0 0 0
0 0 0
0 0 0
0 0 0
0 0 0
0 0 0
0 0 0
0 0 0
0 0 0
0 0 0
0 0 0
0 0 0
0 0 0
0 0 0
0 0 0
0 0 0
0 0 0
0 0 0
0 0 0
0 0 0
0 0 0
0 0 0
0 0 0
0 0 0
0 0 0
0 0 0
0 0 0
0 0 0
0 0 0
0 0 0
0 0 0
0 0 0
0 0 0
0 0 0
0 0 0
0 0 0
0 0 0
0 0 0
0 0 0
0 0 0
0 0 0
0 0 0
0 0 0
0 0 0
0 0 0
0 0 0
0 0 0
0 0 0
0 0 0
0 0 0
0 0 0
0 0 0
0 0 0
0 0 0
0 0 0
0 0 0
0 0 0
128 128 128
128 128 128
128 128 128
128 128 128
128 128 128
128 128 128
128 128 128
128 128 128
128 128 128
128 128 128
128 128 128
128 128 128
128 128 128
128 128 128
128 128 128
128 128 128
128 128 128
128 128 128
128 128 128
128 128 128
128 128 128
128 128 128
128 128 128
128 128 128
128 128 128
128 128 128
128 128 128
128 128 128
128 128 128
128 128 128
128 128 128
128 128 128
128 128 128
128 128 128
128 128 128
128 128 128
128 128 128
128 128 128
128 128 128
128 128 128
128 128 128
128 128 128
128 128 128
128 128 128
128 128 128
128 128 128
128 128 128
128 128 128
128 128 128
128 128 128
128 128 128
128 128 128
128 128 128
128 128 128
128 128 128
128 128 128
128 128 128
128 128 128
128 128 128
128 128 128
128 128 128
128 128 128
128 128 128
128 128 128
128 128 128
128 128 128
128 128 128
128 128 128
128 128 128
128 128 128
128 128 128
128 128 128
128 128 128
128 128 128
128 128 128
128 128 128
128 128 128
128 128 128
128 128 128
128 128 128
128 128 128
128 128 128
128 128 128
128 128 128
128 128 128
128 128 128
128 128 128
128 128 128
128 128 128
128 128 128
128 128 128
128 128 128
128 128 128
128 128 128
128 128 128
128 128 128
128 128 128
128 128 128
128 128 128
128 128 128
128 128 128
128 128 128
128 128 128
128 128 128
128 128 128
128 128 128
128 128 128
128 128 128
128 128 128
128 128 128
128 128 128
128 128 128
128 128 128
128 128 128
128 128 128
128 128 128
128 128 128
128 128 128
128 128 128
128 128 128
128 128 128
128 128 128
128 128 128
0 0 0
0 0 0
0 0 0
0 0 0
0 0 0
0 0 0
0 0 0
0 0 0
0 0 0
0 0 0
0 0 0
0 0 0
0 0 0
0 0 0
0 0 0
0 0 0
0 0 0
0 0 0
0 0 0
0 0 0
0 0 0
0 0 0
0 0 0
0 0 0
0 0 0
0 0 0
0 0 0
0 0 0
0 0 0
0 0 0
0 0 0
0 0 0
0 0 0
0 0 0
0 0 0
0 0 0
0 0 0
0 0 0
0 0 0
0 0 0
0 0 0
0 0 0
0 0 0
0 0 0
0 0 0
0 0 0
0 0 0
0 0 0
0 0 0
0 0 0
0 0 0
0 0 0
0 0 0
0 0 0
0 0 0
0 0 0
0 0 0
0 0 0
0 0 0
0 0 0
0 0 0
0 0 0
0 0 0
0 0 0
0 0 0
0 0 0
0 0 0
0 0 0
0 0 0
0 0 0
0 0 0
0 0 0
0 0 0
0 0 0
0 0 0
0 0 0
0 0 0
128 128 128
128 128 128
128 128 128
128 128 128
128 128 128
128 128 128
128 128 128
128 128 128
128 128 128
128 128 128
128 128 128
128 128 128
128 128 128
128 128 128
128 128 128
128 128 128
128 128 128
128 128 128
128 128 128
128 128 128
128 128 128
128 128 128
128 128 128
128 128 128
128 128 128
128 128 128
128 128 128
128 128 128
128 128 128
128 128 128
128 128 128
128 128 128
128 128 128
128 128 128
128 128 128
128 128 128
128 128 128
128 128 128
128 128 128
128 128 128
128 128 128
128 128 128
128 128 128
128 128 128
128 128 128
128 128 128
128 128 128
128 128 128
128 128 128
128 128 128
128 128 128
128 128 128
128 128 128
128 128 128
128 128 128
128 128 128
128 128 128
128 128 128
128 128 128
128 128 128
128 128 128
128 128 128
128 128 128
128 128 128
128 128 128
128 128 128
128 128 128
128 128 128
128 128 128
128 128 128
128 128 128
128 128 128
128 128 128
128 128 128
128 128 128
128 128 128
128 128 128
128 128 128
128 128 128
128 128 128
128 128 128
128 128 128
128 128 128
128 128 128
128 128 128
128 128 128
128 128 128
128 128 128
128 128 128
128 128 128
128 128 128
128 128 128
128 128 128
128 128 128
128 128 128
128 128 128
128 128 128
128 128 128
128 128 128
128 128 128
128 128 128
128 128 128
128 128 128
128 128 128
128 128 128
128 128 128
128 128 128
128 128 128
128 128 128
128 128 128
128 128 128
128 128 128
128 128 128
128 128 128
128 128 128
128 128 128
128 128 128
128 128 128
128 128 128
128 128 128
128 128 128
128 128 128
128 128 128
0 0 0
0 0 0
0 0 0
0 0 0
0 0 0
0 0 0
0 0 0
0 0 0
0 0 0
0 0 0
0 0 0
0 0 0
0 0 0
0 0 0
0 0 0
0 0 0
0 0 0
0 0 0
0 0 0
0 0 0
0 0 0
0 0 0
128 128 128
0 0 0
0 0 0
0 0 0
0 0 0
0 0 0
0 0 0
0 0 0
0 0 0
0 0 0
0 0 0
0 0 0
0 0 0
0 0 0
0 0 0
0 0 0
0 0 0
0 0 0
0 0 0
0 0 0
0 0 0
0 0 0
0 0 0
0 0 0
0 0 0
0 0 0
0 0 0
0 0 0
0 0 0
0 0 0
0 0 0
0 0 0
0 0 0
0 0 0
0 0 0
0 0 0
0 0 0
0 0 0
0 0 0
0 0 0
0 0 0
0 0 0
0 0 0
0 0 0
0 0 0
0 0 0
0 0 0
0 0 0
0 0 0
0 0 0
0 0 0
0 0 0
0 0 0
0 0 0
0 0 0
128 128 128
128 128 128
128 128 128
128 128 128
128 128 128
128 128 128
128 128 128
128 128 128
128 128 128
128 128 128
128 128 128
128 128 128
128 128 128
128 128 128
128 128 128
128 128 128
128 128 128
128 128 128
128 128 128
128 128 128
128 128 128
128 128 128
128 128 128
128 128 128
128 128 128
128 128 128
128 128 128
128 128 128
128 128 128
128 128 128
128 128 128
128 128 128
128 128 128
128 128 128
128 128 128
128 128 128
128 128 128
128 128 128
128 128 128
128 128 128
128 128 128
128 128 128
128 128 128
128 128 128
128 128 128
128 128 128
128 128 128
128 128 128
128 128 128
128 128 128
128 128 128
128 128 128
128 128 128
128 128 128
128 128 128
128 128 128
128 128 128
128 128 128
128 128 128
128 128 128
128 128 128
128 128 128
128 128 128
128 128 128
128 128 128
128 128 128
128 128 128
128 128 128
128 128 128
128 128 128
128 128 128
128 128 128
128 128 128
128 128 128
128 128 128
128 128 128
128 128 128
128 128 128
128 128 128
128 128 128
128 128 128
128 128 128
128 128 128
128 128 128
128 128 128
128 128 128
128 128 128
128 128 128
128 128 128
128 128 128
128 128 128
128 128 128
128 128 128
128 128 128
128 128 128
128 128 128
128 128 128
128 128 128
128 128 128
128 128 128
128 128 128
128 128 128
128 128 128
128 128 128
128 128 128
128 128 128
128 128 128
128 128 128
128 128 128
128 128 128
128 128 128
128 128 128
128 128 128
128 128 128
128 128 128
128 128 128
128 128 128
128 128 128
128 128 128
128 128 128
128 128 128
128 128 128
128 128 128
0 0 0
0 0 0
0 0 0
0 0 0
0 0 0
0 0 0
0 0 0
0 0 0
0 0 0
0 0 0
0 0 0
0 0 0
0 0 0
0 0 0
0 0 0
0 0 0
0 0 0
0 0 0
0 0 0
0 0 0
0 0 0
0 0 0
128 128 128
0 0 0
0 0 0
0 0 0
0 0 0
0 0 0
0 0 0
0 0 0
0 0 0
0 0 0
0 0 0
0 0 0
0 0 0
0 0 0
0 0 0
0 0 0
0 0 0
0 0 0
0 0 0
0 0 0
0 0 0
0 0 0
0 0 0
0 0 0
0 0 0
0 0 0
0 0 0
0 0 0
0 0 0
0 0 0
0 0 0
0 0 0
0 0 0
0 0 0
0 0 0
0 0 0
0 0 0
0 0 0
0 0 0
0 0 0
0 0 0
0 0 0
0 0 0
0 0 0
0 0 0
0 0 0
0 0 0
0 0 0
0 0 0
0 0 0
0 0 0
0 0 0
0 0 0
0 0 0
0 0 0
128 128 128
128 128 128
128 128 128
128 128 128
128 128 128
128 128 128
128 128 128
128 128 128
128 128 128
128 128 128
128 128 128
128 128 128
128 128 128
128 128 128
128 128 128
128 128 128
128 128 128
128 128 128
128 128 128
128 128 128
128 128 128
128 128 128
128 128 128
128 128 128
128 128 128
128 128 128
128 128 128
128 128 128
128 128 128
128 128 128
128 128 128
128 128 128
128 128 128
128 128 128
128 128 128
128 128 128
128 128 128
128 128 128
128 128 128
128 128 128
128 128 128
128 128 128
128 128 128
128 128 128
128 128 128
128 128 128
128 128 128
128 128 128
128 128 128
128 128 128
128 128 128
128 128 128
128 128 128
128 128 128
128 128 128
128 128 128
128 128 128
128 128 128
128 128 128
128 128 128
128 128 128
128 128 128
128 128 128
128 128 128
128 128 128
128 128 128
128 128 128
128 128 128
128 128 128
128 128 128
128 128 128
128 128 128
128 128 128
128 128 128
128 128 128
128 128 128
128 128 128
128 128 128
128 128 128
128 128 128
128 128 128
128 128 128
128 128 128
128 128 128
128 128 128
128 128 128
128 128 128
128 128 128
128 128 128
128 128 128
128 128 128
128 128 128
128 128 128
128 128 128
128 128 128
128 128 128
128 128 128
128 128 128
128 128 128
128 128 128
128 128 128
128 128 128
128 128 128
128 128 128
128 128 128
128 128 128
128 128 128
128 128 128
128 128 128
128 128 128
128 128 128
128 128 128
128 128 128
128 128 128
128 128 128
128 128 128
128 128 128
128 128 128
128 128 128
128 128 128
128 128 128
128 128 128
128 128 128
0 0 0
0 0 0
0 0 0
0 0 0
0 0 0
0 0 0
0 0 0
0 0 0
0 0 0
0 0 0
0 0 0
0 0 0
0 0 0
0 0 0
0 0 0
0 0 0
0 0 0
0 0 0
0 0 0
0 0 0
0 0 0
0 0 0
128 128 128
0 0 0
0 0 0
0 0 0
0 0 0
0 0 0
0 0 0
0 0 0
0 0 0
0 0 0
0 0 0
0 0 0
0 0 0
0 0 0
0 0 0
0 0 0
0 0 0
0 0 0
0 0 0
0 0 0
0 0 0
0 0 0
0 0 0
0 0 0
0 0 0
0 0 0
0 0 0
0 0 0
0 0 0
0 0 0
0 0 0
0 0 0
0 0 0
0 0 0
0 0 0
0 0 0
0 0 0
0 0 0
0 0 0
0 0 0
128 128 128
128 128 128
0 0 0
0 0 0
0 0 0
0 0 0
0 0 0
0 0 0
0 0 0
0 0 0
0 0 0
0 0 0
0 0 0
0 0 0
128 128 128
128 128 128
128 128 128
128 128 128
128 128 128
128 128 128
128 128 128
128 128 128
128 128 128
128 128 128
128 128 128
128 128 128
128 128 128
128 128 128
128 128 128
128 128 128
128 128 128
128 128 128
128 128 128
128 128 128
128 128 128
128 128 128
128 128 128
128 128 128
128 128 128
128 128 128
128 128 128
128 128 128
128 128 128
128 128 128
128 128 128
128 128 128
128 128 128
128 128 128
128 128 128
128 128 128
128 128 128
128 128 128
128 128 128
128 128 128
128 128 128
128 128 128
128 128 128
128 128 128
128 128 128
128 128 128
128 128 128
128 128 128
128 128 128
128 128 128
128 128 128
128 128 128
128 128 128
128 128 128
128 128 128
128 128 128
128 128 128
128 128 128
128 128 128
128 128 128
128 128 128
128 128 128
128 128 128
128 128 128
128 128 128
128 128 128
128 128 128
128 128 128
128 128 128
128 128 128
128 128 128
128 128 128
128 128 128
128 128 128
128 128 128
128 128 128
128 128 128
128 128 128
128 128 128
128 128 128
128 128 128
128 128 128
128 128 128
128 128 128
128 128 128
128 128 128
128 128 128
128 128 128
128 128 128
128 128 128
128 128 128
128 128 128
128 128 128
128 128 128
128 128 128
128 128 128
128 128 128
128 128 128
128 128 128
128 128 128
128 128 128
128 128 128
128 128 128
128 128 128
128 128 128
128 128 128
128 128 128
128 128 128
128 128 128
128 128 128
128 128 128
128 128 128
128 128 128
128 128 128
128 128 128
128 128 128
128 128 128
128 128 128
128 128 128
128 128 128
128 128 128
128 128 128
128 128 128
128 128 128
0 0 0
0 0 0
0 0 0
0 0 0
0 0 0
0 0 0
0 0 0
0 0 0
0 0 0
0 0 0
0 0 0
0 0 0
0 0 0
0 0 0
0 0 0
0 0 0
0 0 0
0 0 0
0 0 0
0 0 0
0 0 0
0 0 0
0 0 0
0 0 0
0 0 0
0 0 0
0 0 0
0 0 0
0 0 0
0 0 0
0 0 0
0 0 0
0 0 0
0 0 0
0 0 0
0 0 0
0 0 0
0 0 0
0 0 0
0 0 0
0 0 0
0 0 0
0 0 0
0 0 0
0 0 0
0 0 0
0 0 0
0 0 0
0 0 0
0 0 0
0 0 0
0 0 0
0 0 0
0 0 0
0 0 0
0 0 0
0 0 0
0 0 0
0 0 0
0 0 0
0 0 0
0 0 0
128 128 128
128 128 128
0 0 0
0 0 0
0 0 0
0 0 0
0 0 0
0 0 0
0 0 0
0 0 0
0 0 0
0 0 0
0 0 0
0 0 0
128 128 128
128 128 128
128 128 128
128 128 128
128 128 128
128 128 128
128 128 128
128 128 128
128 128 128
128 128 128
128 128 128
128 128 128
128 128 128
128 128 128
128 128 128
128 128 128
128 128 128
128 128 128
128 128 128
128 128 128
128 128 128
128 128 128
128 128 128
128 128 128
128 128 128
128 128 128
128 128 128
128 128 128
128 128 128
128 128 128
128 128 128
128 128 128
128 128 128
128 128 128
128 128 128
128 128 128
128 128 128
128 128 128
128 128 128
128 128 128
128 128 128
128 128 128
128 128 128
128 128 128
128 128 128
128 128 128
128 128 128
128 128 128
128 128 128
128 128 128
128 128 128
128 128 128
128 128 128
128 128 128
128 128 128
128 128 128
128 128 128
128 128 128
128 128 128
128 128 128
128 128 128
128 128 128
128 128 128
128 128 128
128 128 128
128 128 128
128 128 128
128 128 128
128 128 128
128 128 128
128 128 128
128 128 128
128 128 128
128 128 128
128 128 128
128 128 128
128 128 128
128 128 128
128 128 128
128 128 128
128 128 128
128 128 128
128 128 128
128 128 128
128 128 128
128 128 128
128 128 128
128 128 128
128 128 128
128 128 128
128 128 128
128 128 128
128 128 128
128 128 128
128 128 128
128 128 128
128 128 128
128 128 128
128 128 128
128 128 128
128 128 128
128 128 128
128 128 128
128 128 128
128 128 128
128 128 128
128 128 128
128 128 128
128 128 128
128 128 128
128 128 128
128 128 128
128 128 128
128 128 128
128 128 128
128 128 128
128 128 128
128 128 128
128 128 128
128 128 128
128 128 128
128 128 128
128 128 128
128 128 128
0 0 0
0 0 0
0 0 0
0 0 0
0 0 0
0 0 0
0 0 0
0 0 0
0 0 0
0 0 0
0 0 0
0 0 0
0 0 0
0 0 0
0 0 0
0 0 0
0 0 0
0 0 0
0 0 0
0 0 0
0 0 0
0 0 0
0 0 0
0 0 0
0 0 0
0 0 0
0 0 0
0 0 0
0 0 0
0 0 0
0 0 0
0 0 0
0 0 0
0 0 0
0 0 0
0 0 0
0 0 0
0 0 0
0 0 0
0 0 0
0 0 0
0 0 0
0 0 0
0 0 0
0 0 0
0 0 0
0 0 0
0 0 0
0 0 0
0 0 0
0 0 0
0 0 0
0 0 0
0 0 0
0 0 0
0 0 0
0 0 0
0 0 0
0 0 0
0 0 0
0 0 0
0 0 0
128 128 128
128 128 128
0 0 0
0 0 0
0 0 0
0 0 0
0 0 0
0 0 0
0 0 0
0 0 0
0 0 0
0 0 0
0 0 0
0 0 0
128 128 128
128 128 128
128 128 128
128 128 128
128 128 128
128 128 128
128 128 128
128 128 128
128 128 128
128 128 128
128 128 128
128 128 128
128 128 128
128 128 128
128 128 128
128 128 128
128 128 128
128 128 128
128 128 128
128 128 128
128 128 128
128 128 128
128 128 128
128 128 128
128 128 128
128 128 128
128 128 128
128 128 128
128 128 128
128 128 128
128 128 128
128 128 128
128 128 128
128 128 128
128 128 128
128 128 128
128 128 128
128 128 128
128 128 128
128 128 128
128 128 128
128 128 128
128 128 128
128 128 128
128 128 128
128 128 128
128 128 128
128 128 128
128 128 128
128 128 128
128 128 128
128 128 128
128 128 128
128 128 128
128 128 128
128 128 128
128 128 128
128 128 128
128 128 128
128 128 128
128 128 128
128 128 128
128 128 128
128 128 128
128 128 128
128 128 128
128 128 128
128 128 128
128 128 128
128 128 128
128 128 128
128 128 128
128 128 128
128 128 128
128 128 128
128 128 128
128 128 128
128 128 128
128 128 128
128 128 128
128 128 128
128 128 128
128 128 128
128 128 128
128 128 128
128 128 128
128 128 128
128 128 128
128 128 128
128 128 128
128 128 128
128 128 128
128 128 128
128 128 128
128 128 128
128 128 128
128 128 128
128 128 128
128 128 128
128 128 128
128 128 128
128 128 128
128 128 128
128 128 128
128 128 128
128 128 128
128 128 128
128 128 128
128 128 128
128 128 128
128 128 128
128 128 128
128 128 128
128 128 128
128 128 128
128 128 128
128 128 128
128 128 128
128 128 128
128 128 128
128 128 128
128 128 128
128 128 128
128 128 128
0 0 0
0 0 0
0 0 0
0 0 0
0 0 0
0 0 0
0 0 0
0 0 0
0 0 0
0 0 0
0 0 0
0 0 0
0 0 0
0 0 0
0 0 0
0 0 0
0 0 0
0 0 0
0 0 0
0 0 0
0 0 0
0 0 0
0 0 0
0 0 0
0 0 0
0 0 0
0 0 0
0 0 0
0 0 0
0 0 0
0 0 0
0 0 0
0 0 0
0 0 0
0 0 0
0 0 0
0 0 0
0 0 0
0 0 0
0 0 0
0 0 0
0 0 0
0 0 0
0 0 0
0 0 0
0 0 0
0 0 0
0 0 0
0 0 0
0 0 0
0 0 0
0 0 0
0 0 0
0 0 0
0 0 0
0 0 0
0 0 0
0 0 0
0 0 0
0 0 0
0 0 0
0 0 0
128 128 128
128 128 128
0 0 0
0 0 0
0 0 0
0 0 0
0 0 0
0 0 0
0 0 0
0 0 0
0 0 0
0 0 0
0 0 0
0 0 0
128 128 128
128 128 128
128 128 128
128 128 128
128 128 128
128 128 128
128 128 128
128 128 128
128 128 128
128 128 128
128 128 128
128 128 128
128 128 128
128 128 128
128 128 128
128 128 128
128 128 128
128 128 128
128 128 128
128 128 128
128 128 128
128 128 128
128 128 128
128 128 128
128 128 128
128 128 128
128 128 128
128 128 128
128 128 128
128 128 128
128 128 128
128 128 128
128 128 128
128 128 128
128 128 128
128 128 128
128 128 128
128 128 128
128 128 128
128 128 128
128 128 128
128 128 128
128 128 128
128 128 128
128 128 128
128 128 128
128 128 128
128 128 128
128 128 128
128 128 128
128 128 128
128 128 128
128 128 128
128 128 128
128 128 128
128 128 128
128 128 128
128 128 128
128 128 128
128 128 128
128 128 128
128 128 128
128 128 128
128 128 128
128 128 128
128 128 128
128 128 128
128 128 128
128 128 128
128 128 128
128 128 128
128 128 128
128 128 128
128 128 128
128 128 128
128 128 128
128 128 128
128 128 128
128 128 128
128 128 128
128 128 128
128 128 128
128 128 128
128 128 128
128 128 128
128 128 128
128 128 128
128 128 128
128 128 128
128 128 128
128 128 128
128 128 128
128 128 128
128 128 128
128 128 128
128 128 128
128 128 128
128 128 128
128 128 128
128 128 128
128 128 128
128 128 128
128 128 128
128 128 128
128 128 128
128 128 128
128 128 128
128 128 128
128 128 128
128 128 128
128 128 128
128 128 128
128 128 128
128 128 128
128 128 128
128 128 128
128 128 128
128 128 128
128 128 128
128 128 128
128 128 128
128 128 128
128 128 128
128 128 128
0 0 0
0 0 0
0 0 0
0 0 0
0 0 0
0 0 0
0 0 0
0 0 0
0 0 0
0 0 0
0 0 0
0 0 0
0 0 0
0 0 0
0 0 0
0 0 0
0 0 0
0 0 0
0 0 0
0 0 0
0 0 0
0 0 0
0 0 0
0 0 0
0 0 0
0 0 0
0 0 0
0 0 0
0 0 0
0 0 0
0 0 0
0 0 0
0 0 0
0 0 0
0 0 0
0 0 0
0 0 0
0 0 0
0 0 0
0 0 0
0 0 0
0 0 0
0 0 0
0 0 0
0 0 0
0 0 0
0 0 0
0 0 0
0 0 0
0 0 0
0 0 0
0 0 0
0 0 0
0 0 0
0 0 0
0 0 0
0 0 0
0 0 0
0 0 0
0 0 0
0 0 0
0 0 0
128 128 128
128 128 128
0 0 0
0 0 0
0 0 0
0 0 0
0 0 0
0 0 0
0 0 0
0 0 0
0 0 0
0 0 0
0 0 0
0 0 0
128 128 128
128 128 128
128 128 128
128 128 128
128 128 128
128 128 128
128 128 128
128 128 128
128 128 128
128 128 128
128 128 128
128 128 128
128 128 128
128 128 128
128 128 128
128 128 128
128 128 128
128 128 128
128 128 128
128 128 128
128 128 128
128 128 128
128 128 128
128 128 128
128 128 128
128 128 128
128 128 128
128 128 128
128 128 128
128 128 128
128 128 128
128 128 128
128 128 128
128 128 128
128 128 128
128 128 128
128 128 128
128 128 128
128 128 128
128 128 128
128 128 128
128 128 128
128 128 128
128 128 128
128 128 128
128 128 128
128 128 128
128 128 128
128 128 128
128 128 128
128 128 128
128 128 128
128 128 128
128 128 128
128 128 128
128 128 128
128 128 128
128 128 128
128 128 128
128 128 128
128 128 128
128 128 128
128 128 128
128 128 128
128 128 128
128 128 128
128 128 128
128 128 128
128 128 128
128 128 128
128 128 128
128 128 128
128 128 128
128 128 128
128 128 128
128 128 128
128 128 128
128 128 128
128 128 128
128 128 128
128 128 128
128 128 128
128 128 128
128 128 128
128 128 128
128 128 128
128 128 128
128 128 128
128 128 128
128 128 128
128 128 128
128 128 128
128 128 128
128 128 128
128 128 128
128 128 128
128 128 128
128 128 128
128 128 128
128 128 128
128 128 128
128 128 128
128 128 128
128 128 128
128 128 128
128 128 128
128 128 128
128 128 128
128 128 128
128 128 128
128 128 128
128 128 128
128 128 128
128 128 128
128 128 128
128 128 128
128 128 128
128 128 128
128 128 128
128 128 128
128 128 128
128 128 128
128 128 128
128 128 128
0 0 0
0 0 0
0 0 0
0 0 0
0 0 0
0 0 0
0 0 0
0 0 0
0 0 0
0 0 0
0 0 0
0 0 0
0 0 0
0 0 0
0 0 0
0 0 0
0 0 0
0 0 0
0 0 0
0 0 0
0 0 0
0 0 0
0 0 0
0 0 0
0 0 0
0 0 0
0 0 0
0 0 0
0 0 0
0 0 0
0 0 0
0 0 0
0 0 0
0 0 0
0 0 0
0 0 0
0 0 0
0 0 0
0 0 0
0 0 0
0 0 0
0 0 0
0 0 0
0 0 0
0 0 0
0 0 0
0 0 0
0 0 0
0 0 0
0 0 0
0 0 0
0 0 0
0 0 0
0 0 0
0 0 0
0 0 0
0 0 0
0 0 0
0 0 0
0 0 0
0 0 0
0 0 0
128 128 128
128 128 128
0 0 0
0 0 0
0 0 0
0 0 0
0 0 0
0 0 0
0 0 0
0 0 0
0 0 0
0 0 0
0 0 0
0 0 0
128 128 128
128 128 128
128 128 128
128 128 128
128 128 128
128 128 128
128 128 128
128 128 128
128 128 128
128 128 128
128 128 128
128 128 128
128 128 128
128 128 128
128 128 128
128 128 128
128 128 128
128 128 128
128 128 128
128 128 128
128 128 128
128 128 128
128 128 128
128 128 128
128 128 128
128 128 128
128 128 128
128 128 128
128 128 128
128 128 128
128 128 128
128 128 128
128 128 128
128 128 128
128 128 128
128 128 128
128 128 128
128 128 128
128 128 128
128 128 128
128 128 128
128 128 128
128 128 128
128 128 128
128 128 128
128 128 128
128 128 128
128 128 128
128 128 128
128 128 128
128 128 128
128 128 128
128 128 128
128 128 128
128 128 128
128 128 128
128 128 128
128 128 128
128 128 128
128 128 128
128 128 128
128 128 128
128 128 128
128 128 128
128 128 128
128 128 128
128 128 128
128 128 128
128 128 128
128 128 128
128 128 128
128 128 128
128 128 128
128 128 128
128 128 128
128 128 128
128 128 128
128 128 128
128 128 128
128 128 128
128 128 128
128 128 128
128 128 128
128 128 128
128 128 128
128 128 128
128 128 128
128 128 128
128 128 128
128 128 128
128 128 128
128 128 128
128 128 128
128 128 128
128 128 128
128 128 128
128 128 128
128 128 128
128 128 128
128 128 128
128 128 128
128 128 128
128 128 128
128 128 128
128 128 128
128 128 128
128 128 128
128 128 128
128 128 128
128 128 128
128 128 128
128 128 128
128 128 128
128 128 128
128 128 128
128 128 128
128 128 128
128 128 128
128 128 128
128 128 128
128 128 128
128 128 128
128 128 128
128 128 128
0 0 0
0 0 0
0 0 0
0 0 0
0 0 0
0 0 0
0 0 0
0 0 0
0 0 0
0 0 0
0 0 0
0 0 0
0 0 0
0 0 0
0 0 0
0 0 0
0 0 0
0 0 0
0 0 0
0 0 0
0 0 0
0 0 0
0 0 0
0 0 0
0 0 0
0 0 0
0 0 0
0 0 0
0 0 0
0 0 0
0 0 0
0 0 0
0 0 0
0 0 0
0 0 0
0 0 0
0 0 0
0 0 0
0 0 0
0 0 0
0 0 0
0 0 0
0 0 0
0 0 0
0 0 0
0 0 0
0 0 0
0 0 0
0 0 0
0 0 0
0 0 0
0 0 0
0 0 0
0 0 0
0 0 0
0 0 0
0 0 0
0 0 0
0 0 0
0 0 0
0 0 0
0 0 0
0 0 0
0 0 0
0 0 0
0 0 0
0 0 0
0 0 0
0 0 0
0 0 0
0 0 0
0 0 0
0 0 0
0 0 0
0 0 0
128 128 128
128 128 128
128 128 128
128 128 128
128 128 128
128 128 128
128 128 128
128 128 128
128 128 128
128 128 128
128 128 128
128 128 128
128 128 128
128 128 128
128 128 128
128 128 128
128 128 128
128 128 128
128 128 128
128 128 128
128 128 128
128 128 128
128 128 128
128 128 128
128 128 128
128 128 128
128 128 128
128 128 128
128 128 128
128 128 128
128 128 128
128 128 128
128 128 128
128 128 128
128 128 128
128 128 128
128 128 128
128 128 128
128 128 128
128 128 128
128 128 128
128 128 128
128 128 128
128 128 128
128 128 128
128 128 128
128 128 128
128 128 128
128 128 128
128 128 128
128 128 128
128 128 128
128 128 128
128 128 128
128 128 128
128 128 128
128 128 128
128 128 128
128 128 128
128 128 128
128 128 128
128 128 128
128 128 128
128 128 128
128 128 128
128 128 128
128 128 128
128 128 128
128 128 128
128 128 128
128 128 128
128 128 128
128 128 128
128 128 128
128 128 128
128 128 128
128 128 128
128 128 128
128 128 128
128 128 128
128 128 128
128 128 128
128 128 128
128 128 128
128 128 128
128 128 128
128 128 128
128 128 128
128 128 128
128 128 128
128 128 128
128 128 128
128 128 128
128 128 128
128 128 128
128 128 128
128 128 128
128 128 128
128 128 128
128 128 128
128 128 128
128 128 128
128 128 128
128 128 128
128 128 128
128 128 128
128 128 128
128 128 128
128 128 128
128 128 128
128 128 128
128 128 128
128 128 128
128 128 128
128 128 128
128 128 128
128 128 128
128 128 128
128 128 128
128 128 128
128 128 128
128 128 128
128 128 128
128 128 128
128 128 128
0 0 0
0 0 0
0 0 0
0 0 0
0 0 0
0 0 0
0 0 0
0 0 0
0 0 0
0 0 0
0 0 0
0 0 0
0 0 0
0 0 0
0 0 0
0 0 0
0 0 0
0 0 0
0 0 0
0 0 0
0 0 0
0 0 0
0 0 0
0 0 0
0 0 0
0 0 0
0 0 0
0 0 0
0 0 0
0 0 0
0 0 0
0 0 0
0 0 0
0 0 0
0 0 0
0 0 0
0 0 0
0 0 0
0 0 0
0 0 0
0 0 0
0 0 0
0 0 0
0 0 0
0 0 0
0 0 0
0 0 0
0 0 0
0 0 0
0 0 0
0 0 0
0 0 0
0 0 0
0 0 0
0 0 0
0 0 0
0 0 0
0 0 0
0 0 0
0 0 0
0 0 0
0 0 0
0 0 0
0 0 0
0 0 0
0 0 0
0 0 0
0 0 0
0 0 0
0 0 0
0 0 0
0 0 0
0 0 0
0 0 0
0 0 0
128 128 128
128 128 128
128 128 128
128 128 128
128 128 128
128 128 128
128 128 128
128 128 128
128 128 128
128 128 128
128 128 128
128 128 128
128 128 128
128 128 128
128 128 128
128 128 128
128 128 128
128 128 128
128 128 128
128 128 128
128 128 128
128 128 128
128 128 128
128 128 128
128 128 128
128 128 128
128 128 128
128 128 128
128 128 128
128 128 128
128 128 128
128 128 128
128 128 128
128 128 128
128 128 128
128 128 128
128 128 128
128 128 128
128 128 128
128 128 128
128 128 128
128 128 128
128 128 128
128 128 128
128 128 128
128 128 128
128 128 128
128 128 128
128 128 128
128 128 128
128 128 128
128 128 128
128 128 128
128 128 128
128 128 128
128 128 128
128 128 128
128 128 128
128 128 128
128 128 128
128 128 128
128 128 128
128 128 128
128 128 128
128 128 128
128 128 128
128 128 128
128 128 128
128 128 128
128 128 128
128 128 128
128 128 128
128 128 128
128 128 128
128 128 128
128 128 128
128 128 128
128 128 128
128 128 128
128 128 128
128 128 128
128 128 128
128 128 128
128 128 128
128 128 128
128 128 128
128 128 128
128 128 128
128 128 128
128 128 128
128 128 128
128 128 128
128 128 128
128 128 128
128 128 128
128 128 128
128 128 128
128 128 128
128 128 128
128 128 128
128 128 128
128 128 128
128 128 128
128 128 128
128 128 128
128 128 128
128 128 128
128 128 128
128 128 128
128 128 128
128 128 128
128 128 128
128 128 128
128 128 128
128 128 128
128 128 128
128 128 128
128 128 128
128 128 128
128 128 128
128 128 128
128 128 128
128 128 128
128 128 128
128 128 128
128 128 128
0 0 0
0 0 0
0 0 0
0 0 0
0 0 0
0 0 0
0 0 0
0 0 0
0 0 0
0 0 0
0 0 0
0 0 0
0 0 0
0 0 0
0 0 0
0 0 0
0 0 0
0 0 0
0 0 0
0 0 0
0 0 0
0 0 0
0 0 0
0 0 0
0 0 0
0 0 0
0 0 0
0 0 0
0 0 0
0 0 0
0 0 0
0 0 0
0 0 0
0 0 0
0 0 0
0 0 0
0 0 0
0 0 0
0 0 0
0 0 0
0 0 0
0 0 0
0 0 0
0 0 0
0 0 0
0 0 0
0 0 0
0 0 0
0 0 0
0 0 0
0 0 0
0 0 0
0 0 0
0 0 0
0 0 0
0 0 0
0 0 0
0 0 0
0 0 0
0 0 0
0 0 0
0 0 0
0 0 0
0 0 0
0 0 0
0 0 0
0 0 0
0 0 0
0 0 0
0 0 0
0 0 0
0 0 0
0 0 0
0 0 0
128 128 128
128 128 128
128 128 128
128 128 128
128 128 128
128 128 128
128 128 128
128 128 128
128 128 128
128 128 128
128 128 128
128 128 128
128 128 128
128 128 128
128 128 128
128 128 128
128 128 128
128 128 128
128 128 128
128 128 128
128 128 128
128 128 128
128 128 128
128 128 128
128 128 128
128 128 128
128 128 128
128 128 128
128 128 128
128 128 128
128 128 128
128 128 128
128 128 128
128 128 128
128 128 128
128 128 128
128 128 128
128 128 128
128 128 128
128 128 128
128 128 128
128 128 128
128 128 128
128 128 128
128 128 128
128 128 128
128 128 128
128 128 128
128 128 128
128 128 128
128 128 128
128 128 128
128 128 128
128 128 128
128 128 128
128 128 128
128 128 128
128 128 128
128 128 128
128 128 128
128 128 128
128 128 128
128 128 128
128 128 128
128 128 128
128 128 128
128 128 128
128 128 128
128 128 128
128 128 128
128 128 128
128 128 128
128 128 128
128 128 128
128 128 128
128 128 128
128 128 128
128 128 128
128 128 128
128 128 128
128 128 128
128 128 128
128 128 128
128 128 128
128 128 128
128 128 128
128 128 128
128 128 128
128 128 128
128 128 128
128 128 128
128 128 128
128 128 128
128 128 128
128 128 128
128 128 128
128 128 128
128 128 128
128 128 128
128 128 128
128 128 128
128 128 128
128 128 128
128 128 128
128 128 128
128 128 128
128 128 128
128 128 128
128 128 128
128 128 128
128 128 128
128 128 128
128 128 128
128 128 128
128 128 128
128 128 128
128 128 128
128 128 128
128 128 128
128 128 128
128 128 128
128 128 128
128 128 128
128 128 128
128 128 128
128 128 128
0 0 0
0 0 0
0 0 0
0 0 0
0 0 0
0 0 0
0 0 0
0 0 0
0 0 0
0 0 0
0 0 0
0 0 0
0 0 0
0 0 0
0 0 0
0 0 0
0 0 0
0 0 0
0 0 0
0 0 0
0 0 0
0 0 0
0 0 0
0 0 0
0 0 0
0 0 0
0 0 0
0 0 0
0 0 0
0 0 0
0 0 0
0 0 0
0 0 0
0 0 0
0 0 0
0 0 0
0 0 0
0 0 0
0 0 0
0 0 0
0 0 0
0 0 0
0 0 0
0 0 0
0 0 0
0 0 0
0 0 0
0 0 0
0 0 0
0 0 0
0 0 0
0 0 0
0 0 0
0 0 0
0 0 0
0 0 0
0 0 0
0 0 0
0 0 0
0 0 0
0 0 0
0 0 0
0 0 0
0 0 0
0 0 0
0 0 0
0 0 0
0 0 0
0 0 0
0 0 0
0 0 0
0 0 0
0 0 0
0 0 0
128 128 128
128 128 128
128 128 128
128 128 128
128 128 128
128 128 128
128 128 128
128 128 128
128 128 128
128 128 128
128 128 128
128 128 128
128 128 128
128 128 128
128 128 128
128 128 128
128 128 128
128 128 128
128 128 128
128 128 128
128 128 128
128 128 128
128 128 128
128 128 128
128 128 128
128 128 128
128 128 128
128 128 128
128 128 128
128 128 128
128 128 128
128 128 128
128 128 128
128 128 128
128 128 128
128 128 128
128 128 128
128 128 128
128 128 128
128 128 128
128 128 128
128 128 128
128 128 128
128 128 128
128 128 128
128 128 128
128 128 128
128 128 128
128 128 128
128 128 128
128 128 128
128 128 128
128 128 128
128 128 128
128 128 128
128 128 128
128 128 128
128 128 128
128 128 128
128 128 128
128 128 128
128 128 128
128 128 128
128 128 128
128 128 128
128 128 128
128 128 128
128 128 128
128 128 128
128 128 128
128 128 128
128 128 128
128 128 128
128 128 128
128 128 128
128 128 128
128 128 128
128 128 128
128 128 128
128 128 128
128 128 128
128 128 128
128 128 128
128 128 128
128 128 128
128 128 128
128 128 128
128 128 128
128 128 128
128 128 128
128 128 128
128 128 128
128 128 128
128 128 128
128 128 128
128 128 128
128 128 128
128 128 128
128 128 128
128 128 128
128 128 128
128 128 128
128 128 128
128 128 128
128 128 128
128 128 128
128 128 128
128 128 128
128 128 128
128 128 128
128 128 128
128 128 128
128 128 128
128 128 128
128 128 128
128 128 128
128 128 128
128 128 128
128 128 128
128 128 128
128 128 128
128 128 128
128 128 128
128 128 128
128 128 128
0 0 0
0 0 0
0 0 0
0 0 0
0 0 0
0 0 0
0 0 0
0 0 0
0 0 0
0 0 0
0 0 0
0 0 0
0 0 0
0 0 0
0 0 0
0 0 0
0 0 0
0 0 0
0 0 0
0 0 0
0 0 0
0 0 0
0 0 0
0 0 0
0 0 0
0 0 0
0 0 0
0 0 0
0 0 0
0 0 0
0 0 0
0 0 0
0 0 0
0 0 0
0 0 0
0 0 0
0 0 0
0 0 0
0 0 0
0 0 0
0 0 0
0 0 0
0 0 0
0 0 0
0 0 0
0 0 0
0 0 0
0 0 0
0 0 0
0 0 0
0 0 0
0 0 0
0 0 0
0 0 0
0 0 0
0 0 0
0 0 0
0 0 0
0 0 0
0 0 0
0 0 0
0 0 0
0 0 0
0 0 0
0 0 0
0 0 0
0 0 0
0 0 0
0 0 0
0 0 0
0 0 0
0 0 0
0 0 0
0 0 0
0 0 0
128 128 128
128 128 128
128 128 128
128 128 128
128 128 128
128 128 128
128 128 128
128 128 128
128 128 128
128 128 128
128 128 128
128 128 128
128 128 128
128 128 128
128 128 128
128 128 128
128 128 128
128 128 128
128 128 128
128 128 128
128 128 128
128 128 128
128 128 128
128 128 128
128 128 128
128 128 128
128 128 128
128 128 128
128 128 128
128 128 128
128 128 128
128 128 128
128 128 128
128 128 128
128 128 128
128 128 128
128 128 128
128 128 128
128 128 128
128 128 128
128 128 128
128 128 128
128 128 128
128 128 128
128 128 128
128 128 128
128 128 128
128 128 128
128 128 128
128 128 128
128 128 128
128 128 128
128 128 128
128 128 128
128 128 128
128 128 128
128 128 128
128 128 128
128 128 128
128 128 128
128 128 128
128 128 128
128 128 128
128 128 128
128 128 128
128 128 128
128 128 128
128 128 128
128 128 128
128 128 128
128 128 128
128 128 128
128 128 128
128 128 128
128 128 128
128 128 128
128 128 128
128 128 128
128 128 128
128 128 128
128 128 128
128 128 128
128 128 128
128 128 128
128 128 128
128 128 128
128 128 128
128 128 128
128 128 128
128 128 128
128 128 128
128 128 128
128 128 128
128 128 128
128 128 128
128 128 128
128 128 128
128 128 128
128 128 128
128 128 128
128 128 128
128 128 128
128 128 128
128 128 128
128 128 128
128 128 128
128 128 128
128 128 128
128 128 128
128 128 128
128 128 128
128 128 128
128 128 128
128 128 128
128 128 128
128 128 128
128 128 128
128 128 128
128 128 128
128 128 128
128 128 128
128 128 128
128 128 128
128 128 128
128 128 128
0 0 0
0 0 0
0 0 0
0 0 0
0 0 0
0 0 0
0 0 0
0 0 0
0 0 0
0 0 0
0 0 0
0 0 0
0 0 0
0 0 0
0 0 0
0 0 0
0 0 0
0 0 0
0 0 0
0 0 0
0 0 0
0 0 0
0 0 0
0 0 0
0 0 0
0 0 0
0 0 0
0 0 0
0 0 0
0 0 0
0 0 0
0 0 0
0 0 0
0 0 0
0 0 0
0 0 0
0 0 0
0 0 0
0 0 0
0 0 0
0 0 0
0 0 0
0 0 0
0 0 0
0 0 0
0 0 0
0 0 0
0 0 0
0 0 0
0 0 0
0 0 0
0 0 0
0 0 0
0 0 0
0 0 0
0 0 0
0 0 0
0 0 0
0 0 0
0 0 0
0 0 0
0 0 0
0 0 0
0 0 0
0 0 0
0 0 0
0 0 0
0 0 0
0 0 0
0 0 0
0 0 0
0 0 0
0 0 0
0 0 0
0 0 0
128 128 128
128 128 128
128 128 128
128 128 128
128 128 128
128 128 128
128 128 128
128 128 128
128 128 128
128 128 128
128 128 128
128 128 128
128 128 128
128 128 128
128 128 128
128 128 128
128 128 128
128 128 128
128 128 128
128 128 128
128 128 128
128 128 128
128 128 128
128 128 128
128 128 128
128 128 128
128 128 128
128 128 128
128 128 128
128 128 128
128 128 128
128 128 128
128 128 128
128 128 128
128 128 128
128 128 128
128 128 128
128 128 128
128 128 128
128 128 128
128 128 128
128 128 128
128 128 128
128 128 128
128 128 128
128 128 128
128 128 128
128 128 128
128 128 128
128 128 128
128 128 128
128 128 128
128 128 128
128 128 128
128 128 128
128 128 128
128 128 128
128 128 128
128 128 128
128 128 128
128 128 128
128 128 128
128 128 128
128 128 128
128 128 128
128 128 128
128 128 128
128 128 128
128 128 128
128 128 128
128 128 128
128 128 128
128 128 128
128 128 128
128 128 128
128 128 128
128 128 128
128 128 128
128 128 128
128 128 128
128 128 128
128 128 128
128 128 128
128 128 128
128 128 128
128 128 128
128 128 128
128 128 128
128 128 128
128 128 128
128 128 128
128 128 128
128 128 128
128 128 128
128 128 128
128 128 128
128 128 128
128 128 128
128 128 128
128 128 128
128 128 128
128 128 128
128 128 128
128 128 128
128 128 128
128 128 128
128 128 128
128 128 128
128 128 128
128 128 128
128 128 128
128 128 128
128 128 128
128 128 128
128 128 128
128 128 128
128 128 128
128 128 128
128 128 128
128 128 128
128 128 128
128 128 128
128 128 128
128 128 128
128 128 128
0 0 0
0 0 0
0 0 0
0 0 0
0 0 0
0 0 0
0 0 0
0 0 0
0 0 0
0 0 0
128 128 128
0 0 0
0 0 0
0 0 0
0 0 0
0 0 0
0 0 0
0 0 0
0 0 0
0 0 0
0 0 0
0 0 0
0 0 0
0 0 0
0 0 0
0 0 0
0 0 0
0 0 0
0 0 0
0 0 0
0 0 0
0 0 0
0 0 0
0 0 0
0 0 0
0 0 0
0 0 0
0 0 0
0 0 0
0 0 0
0 0 0
0 0 0
0 0 0
0 0 0
0 0 0
0 0 0
0 0 0
0 0 0
0 0 0
0 0 0
0 0 0
0 0 0
0 0 0
0 0 0
0 0 0
0 0 0
0 0 0
0 0 0
0 0 0
0 0 0
0 0 0
0 0 0
0 0 0
0 0 0
0 0 0
0 0 0
0 0 0
0 0 0
0 0 0
0 0 0
0 0 0
0 0 0
0 0 0
0 0 0
0 0 0
128 128 128
128 128 128
128 128 128
128 128 128
128 128 128
128 128 128
128 128 128
128 128 128
128 128 128
128 128 128
128 128 128
128 128 128
128 128 128
128 128 128
128 128 128
128 128 128
128 128 128
128 128 128
128 128 128
128 128 128
128 128 128
128 128 128
128 128 128
128 128 128
128 128 128
128 128 128
128 128 128
128 128 128
128 128 128
128 128 128
128 128 128
128 128 128
128 128 128
128 128 128
128 128 128
128 128 128
128 128 128
128 128 128
128 128 128
128 128 128
128 128 128
128 128 128
128 128 128
128 128 128
128 128 128
128 128 128
128 128 128
128 128 128
128 128 128
128 128 128
128 128 128
128 128 128
128 128 128
128 128 128
128 128 128
128 128 128
128 128 128
128 128 128
128 128 128
128 128 128
128 128 128
128 128 128
128 128 128
128 128 128
128 128 128
128 128 128
128 128 128
128 128 128
128 128 128
128 128 128
128 128 128
128 128 128
128 128 128
128 128 128
128 128 128
128 128 128
128 128 128
128 128 128
128 128 128
128 128 128
128 128 128
128 128 128
128 128 128
128 128 128
128 128 128
128 128 128
128 128 128
128 128 128
128 128 128
128 128 128
128 128 128
128 128 128
128 128 128
128 128 128
128 128 128
128 128 128
128 128 128
128 128 128
128 128 128
128 128 128
128 128 128
128 128 128
128 128 128
128 128 128
128 128 128
128 128 128
128 128 128
128 128 128
128 128 128
128 128 128
128 128 128
128 128 128
128 128 128
128 128 128
128 128 128
128 128 128
128 128 128
128 128 128
128 128 128
128 128 128
128 128 128
128 128 128
128 128 128
128 128 128
128 128 128
0 0 0
0 0 0
0 0 0
0 0 0
0 0 0
0 0 0
0 0 0
0 0 0
0 0 0
0 0 0
128 128 128
0 0 0
0 0 0
0 0 0
0 0 0
0 0 0
0 0 0
0 0 0
0 0 0
0 0 0
0 0 0
0 0 0
0 0 0
0 0 0
0 0 0
0 0 0
0 0 0
0 0 0
0 0 0
0 0 0
0 0 0
0 0 0
0 0 0
0 0 0
0 0 0
0 0 0
0 0 0
0 0 0
0 0 0
0 0 0
0 0 0
0 0 0
0 0 0
0 0 0
0 0 0
0 0 0
0 0 0
0 0 0
0 0 0
0 0 0
0 0 0
0 0 0
0 0 0
0 0 0
0 0 0
0 0 0
0 0 0
0 0 0
0 0 0
0 0 0
0 0 0
0 0 0
0 0 0
0 0 0
0 0 0
0 0 0
0 0 0
0 0 0
0 0 0
0 0 0
0 0 0
0 0 0
0 0 0
0 0 0
0 0 0
128 128 128
128 128 128
128 128 128
128 128 128
128 128 128
128 128 128
128 128 128
128 128 128
128 128 128
128 128 128
128 128 128
128 128 128
128 128 128
128 128 128
128 128 128
128 128 128
128 128 128
128 128 128
128 128 128
128 128 128
128 128 128
128 128 128
128 128 128
128 128 128
128 128 128
128 128 128
128 128 128
128 128 128
128 128 128
128 128 128
128 128 128
128 128 128
128 128 128
128 128 128
128 128 128
128 128 128
128 128 128
128 128 128
128 128 128
128 128 128
128 128 128
128 128 128
128 128 128
128 128 128
128 128 128
128 128 128
128 128 128
128 128 128
128 128 128
128 128 128
128 128 128
128 128 128
128 128 128
128 128 128
128 128 128
128 128 128
128 128 128
128 128 128
128 128 128
128 128 128
128 128 128
128 128 128
128 128 128
128 128 128
128 128 128
128 128 128
128 128 128
128 128 128
128 128 128
128 128 128
128 128 128
128 128 128
128 128 128
128 128 128
128 128 128
128 128 128
128 128 128
128 128 128
128 128 128
128 128 128
128 128 128
128 128 128
128 128 128
128 128 128
128 128 128
128 128 128
128 128 128
128 128 128
128 128 128
128 128 128
128 128 128
128 128 128
128 128 128
128 128 128
128 128 128
128 128 128
128 128 128
128 128 128
128 128 128
128 128 128
128 128 128
128 128 128
128 128 128
128 128 128
128 128 128
128 128 128
128 128 128
128 128 128
128 128 128
128 128 128
128 128 128
128 128 128
128 128 128
128 128 128
128 128 128
128 128 128
128 128 128
128 128 128
128 128 128
128 128 128
128 128 128
128 128 128
128 128 128
128 128 128
128 128 128
0 0 0
0 0 0
0 0 0
0 0 0
0 0 0
0 0 0
0 0 0
0 0 0
0 0 0
0 0 0
128 128 128
0 0 0
0 0 0
0 0 0
0 0 0
0 0 0
0 0 0
0 0 0
0 0 0
0 0 0
0 0 0
0 0 0
0 0 0
0 0 0
0 0 0
0 0 0
0 0 0
0 0 0
0 0 0
0 0 0
0 0 0
0 0 0
0 0 0
0 0 0
0 0 0
0 0 0
0 0 0
0 0 0
0 0 0
0 0 0
128 128 128
128 128 128
128 128 128
0 0 0
0 0 0
0 0 0
0 0 0
0 0 0
0 0 0
0 0 0
0 0 0
0 0 0
0 0 0
0 0 0
0 0 0
0 0 0
0 0 0
0 0 0
0 0 0
0 0 0
0 0 0
0 0 0
0 0 0
0 0 0
0 0 0
0 0 0
0 0 0
0 0 0
0 0 0
0 0 0
0 0 0
0 0 0
0 0 0
0 0 0
0 0 0
128 128 128
128 128 128
128 128 128
128 128 128
128 128 128
128 128 128
128 128 128
128 128 128
128 128 128
128 128 128
128 128 128
128 128 128
128 128 128
128 128 128
128 128 128
128 128 128
128 128 128
128 128 128
128 128 128
128 128 128
128 128 128
128 128 128
128 128 128
128 128 128
128 128 128
128 128 128
128 128 128
128 128 128
128 128 128
128 128 128
128 128 128
128 128 128
128 128 128
128 128 128
128 128 128
128 128 128
128 128 128
128 128 128
128 128 128
128 128 128
128 128 128
128 128 128
128 128 128
128 128 128
128 128 128
128 128 128
128 128 128
128 128 128
128 128 128
128 128 128
128 128 128
128 128 128
128 128 128
128 128 128
128 128 128
128 128 128
128 128 128
128 128 128
128 128 128
128 128 128
128 128 128
128 128 128
128 128 128
128 128 128
128 128 128
128 128 128
128 128 128
128 128 128
128 128 128
128 128 128
128 128 128
128 128 128
128 128 128
128 128 128
128 128 128
128 128 128
128 128 128
128 128 128
128 128 128
128 128 128
128 128 128
128 128 128
128 128 128
128 128 128
128 128 128
128 128 128
128 128 128
128 128 128
128 128 128
128 128 128
128 128 128
128 128 128
128 128 128
128 128 128
128 128 128
128 128 128
128 128 128
128 128 128
128 128 128
128 128 128
128 128 128
128 128 128
128 128 128
128 128 128
128 128 128
128 128 128
128 128 128
128 128 128
128 128 128
128 128 128
128 128 128
128 128 128
128 128 128
128 128 128
128 128 128
128 128 128
128 128 128
128 128 128
128 128 128
128 128 128
128 128 128
128 128 128
128 128 128
128 128 128
128 128 128
0 0 0
0 0 0
0 0 0
0 0 0
0 0 0
0 0 0
0 0 0
0 0 0
0 0 0
0 0 0
128 128 128
0 0 0
0 0 0
0 0 0
0 0 0
0 0 0
0 0 0
0 0 0
0 0 0
0 0 0
0 0 0
0 0 0
0 0 0
0 0 0
0 0 0
0 0 0
0 0 0
0 0 0
0 0 0
0 0 0
0 0 0
0 0 0
0 0 0
0 0 0
0 0 0
0 0 0
0 0 0
0 0 0
0 0 0
128 128 128
128 128 128
128 128 128
128 128 128
128 128 128
128 128 128
128 128 128
0 0 0
0 0 0
0 0 0
0 0 0
0 0 0
0 0 0
0 0 0
0 0 0
0 0 0
0 0 0
0 0 0
0 0 0
0 0 0
0 0 0
0 0 0
0 0 0
0 0 0
128 128 128
0 0 0
0 0 0
0 0 0
0 0 0
0 0 0
0 0 0
0 0 0
0 0 0
0 0 0
0 0 0
0 0 0
128 128 128
128 128 128
128 128 128
128 128 128
128 128 128
128 128 128
128 128 128
128 128 128
128 128 128
128 128 128
128 128 128
128 128 128
128 128 128
128 128 128
128 128 128
128 128 128
128 128 128
128 128 128
128 128 128
128 128 128
128 128 128
128 128 128
128 128 128
128 128 128
128 128 128
128 128 128
128 128 128
128 128 128
128 128 128
128 128 128
128 128 128
128 128 128
128 128 128
128 128 128
128 128 128
128 128 128
128 128 128
128 128 128
128 128 128
128 128 128
128 128 128
128 128 128
128 128 128
128 128 128
128 128 128
128 128 128
128 128 128
128 128 128
128 128 128
128 128 128
128 128 128
128 128 128
128 128 128
128 128 128
128 128 128
128 128 128
128 128 128
128 128 128
128 128 128
128 128 128
128 128 128
128 128 128
128 128 128
128 128 128
128 128 128
128 128 128
128 128 128
128 128 128
128 128 128
128 128 128
128 128 128
128 128 128
128 128 128
128 128 128
128 128 128
128 128 128
128 128 128
128 128 128
128 128 128
128 128 128
128 128 128
128 128 128
128 128 128
128 128 128
128 128 128
128 128 128
128 128 128
128 128 128
128 128 128
128 128 128
128 128 128
128 128 128
128 128 128
128 128 128
128 128 128
128 128 128
128 128 128
128 128 128
128 128 128
128 128 128
128 128 128
128 128 128
128 128 128
128 128 128
128 128 128
128 128 128
128 128 128
128 128 128
128 128 128
128 128 128
128 128 128
128 128 128
128 128 128
128 128 128
128 128 128
128 128 128
128 128 128
128 128 128
128 128 128
128 128 128
128 128 128
128 128 128
128 128 128
128 128 128
128 128 128
0 0 0
0 0 0
0 0 0
0 0 0
0 0 0
0 0 0
0 0 0
0 0 0
0 0 0
0 0 0
0 0 0
0 0 0
0 0 0
0 0 0
0 0 0
0 0 0
0 0 0
0 0 0
0 0 0
0 0 0
0 0 0
0 0 0
0 0 0
0 0 0
0 0 0
0 0 0
0 0 0
0 0 0
0 0 0
0 0 0
0 0 0
0 0 0
0 0 0
0 0 0
0 0 0
0 0 0
0 0 0
0 0 0
0 0 0
0 0 0
0 0 0
0 0 0
0 0 0
0 0 0
0 0 0
0 0 0
0 0 0
0 0 0
0 0 0
0 0 0
0 0 0
0 0 0
0 0 0
0 0 0
0 0 0
0 0 0
0 0 0
0 0 0
0 0 0
0 0 0
0 0 0
0 0 0
0 0 0
128 128 128
0 0 0
0 0 0
0 0 0
0 0 0
0 0 0
0 0 0
0 0 0
0 0 0
0 0 0
0 0 0
0 0 0
128 128 128
128 128 128
128 128 128
128 128 128
128 128 128
128 128 128
128 128 128
128 128 128
128 128 128
128 128 128
128 128 128
128 128 128
128 128 128
128 128 128
128 128 128
128 128 128
128 128 128
128 128 128
128 128 128
128 128 128
128 128 128
128 128 128
128 128 128
128 128 128
128 128 128
128 128 128
128 128 128
128 128 128
128 128 128
128 128 128
128 128 128
128 128 128
128 128 128
128 128 128
128 128 128
128 128 128
128 128 128
128 128 128
128 128 128
128 128 128
128 128 128
128 128 128
128 128 128
128 128 128
128 128 128
128 128 128
128 128 128
128 128 128
128 128 128
128 128 128
128 128 128
128 128 128
128 128 128
128 128 128
128 128 128
128 128 128
128 128 128
128 128 128
128 128 128
128 128 128
128 128 128
128 128 128
128 128 128
128 128 128
128 128 128
128 128 128
128 128 128
128 128 128
128 128 128
128 128 128
128 128 128
128 128 128
128 128 128
128 128 128
128 128 128
128 128 128
128 128 128
128 128 128
128 128 128
128 128 128
128 128 128
128 128 128
128 128 128
128 128 128
128 128 128
128 128 128
128 128 128
128 128 128
128 128 128
128 128 128
128 128 128
128 128 128
128 128 128
128 128 128
128 128 128
128 128 128
128 128 128
128 128 128
128 128 128
128 128 128
128 128 128
128 128 128
128 128 128
128 128 128
128 128 128
128 128 128
128 128 128
128 128 128
128 128 128
128 128 128
128 128 128
128 128 128
128 128 128
128 128 128
128 128 128
128 128 128
128 128 128
128 128 128
128 128 128
128 128 128
128 128 128
128 128 128
128 128 128
128 128 128
128 128 128
0 0 0
0 0 0
0 0 0
0 0 0
0 0 0
0 0 0
0 0 0
0 0 0
0 0 0
0 0 0
0 0 0
0 0 0
0 0 0
0 0 0
0 0 0
0 0 0
0 0 0
0 0 0
0 0 0
0 0 0
0 0 0
0 0 0
0 0 0
0 0 0
0 0 0
0 0 0
0 0 0
0 0 0
0 0 0
0 0 0
0 0 0
0 0 0
0 0 0
0 0 0
0 0 0
0 0 0
0 0 0
0 0 0
0 0 0
0 0 0
0 0 0
0 0 0
0 0 0
0 0 0
0 0 0
0 0 0
0 0 0
0 0 0
0 0 0
0 0 0
0 0 0
0 0 0
0 0 0
0 0 0
0 0 0
0 0 0
0 0 0
0 0 0
0 0 0
0 0 0
0 0 0
0 0 0
128 128 128
128 128 128
0 0 0
0 0 0
0 0 0
0 0 0
0 0 0
0 0 0
0 0 0
0 0 0
0 0 0
0 0 0
0 0 0
128 128 128
128 128 128
128 128 128
128 128 128
128 128 128
128 128 128
128 128 128
128 128 128
128 128 128
128 128 128
128 128 128
128 128 128
128 128 128
128 128 128
128 128 128
128 128 128
128 128 128
128 128 128
128 128 128
128 128 128
128 128 128
128 128 128
128 128 128
128 128 128
128 128 128
128 128 128
128 128 128
128 128 128
128 128 128
128 128 128
128 128 128
128 128 128
128 128 128
128 128 128
128 128 128
128 128 128
128 128 128
128 128 128
128 128 128
128 128 128
128 128 128
128 128 128
128 128 128
128 128 128
128 128 128
128 128 128
128 128 128
128 128 128
128 128 128
128 128 128
128 128 128
128 128 128
128 128 128
128 128 128
128 128 128
128 128 128
128 128 128
128 128 128
128 128 128
128 128 128
128 128 128
128 128 128
128 128 128
128 128 128
128 128 128
128 128 128
128 128 128
128 128 128
128 128 128
128 128 128
128 128 128
128 128 128
128 128 128
128 128 128
128 128 128
128 128 128
128 128 128
128 128 128
128 128 128
128 128 128
128 128 128
128 128 128
128 128 128
128 128 128
128 128 128
128 128 128
128 128 128
128 128 128
128 128 128
128 128 128
128 128 128
128 128 128
128 128 128
128 128 128
128 128 128
128 128 128
128 128 128
128 128 128
128 128 128
128 128 128
128 128 128
128 128 128
128 128 128
128 128 128
128 128 128
128 128 128
128 128 128
128 128 128
128 128 128
128 128 128
128 128 128
128 128 128
128 128 128
128 128 128
128 128 128
128 128 128
128 128 128
128 128 128
128 128 128
128 128 128
128 128 128
128 128 128
128 128 128
128 128 128
128 128 128
0 0 0
0 0 0
0 0 0
0 0 0
0 0 0
0 0 0
0 0 0
0 0 0
0 0 0
0 0 0
0 0 0
0 0 0
0 0 0
0 0 0
0 0 0
0 0 0
0 0 0
0 0 0
128 128 128
128 128 128
0 0 0
0 0 0
0 0 0
0 0 0
0 0 0
0 0 0
0 0 0
0 0 0
0 0 0
0 0 0
0 0 0
0 0 0
0 0 0
0 0 0
0 0 0
0 0 0
0 0 0
0 0 0
0 0 0
0 0 0
0 0 0
0 0 0
0 0 0
0 0 0
0 0 0
0 0 0
0 0 0
0 0 0
0 0 0
0 0 0
0 0 0
0 0 0
0 0 0
0 0 0
0 0 0
0 0 0
0 0 0
0 0 0
0 0 0
0 0 0
0 0 0
0 0 0
128 128 128
128 128 128
0 0 0
0 0 0
0 0 0
0 0 0
0 0 0
0 0 0
0 0 0
0 0 0
0 0 0
0 0 0
0 0 0
128 128 128
128 128 128
128 128 128
128 128 128
128 128 128
128 128 128
128 128 128
128 128 128
128 128 128
128 128 128
128 128 128
128 128 128
128 128 128
128 128 128
128 128 128
128 128 128
128 128 128
128 128 128
128 128 128
128 128 128
128 128 128
128 128 128
128 128 128
128 128 128
128 128 128
128 128 128
128 128 128
128 128 128
128 128 128
128 128 128
128 128 128
128 128 128
128 128 128
128 128 128
128 128 128
128 128 128
128 128 128
128 128 128
128 128 128
128 128 128
128 128 128
128 128 128
128 128 128
128 128 128
128 128 128
128 128 128
128 128 128
128 128 128
128 128 128
128 128 128
128 128 128
128 128 128
128 128 128
128 128 128
128 128 128
128 128 128
128 128 128
128 128 128
128 128 128
128 128 128
128 128 128
128 128 128
128 128 128
128 128 128
128 128 128
128 128 128
128 128 128
128 128 128
128 128 128
128 128 128
128 128 128
128 128 128
128 128 128
128 128 128
128 128 128
128 128 128
128 128 128
128 128 128
128 128 128
128 128 128
128 128 128
128 128 128
128 128 128
128 128 128
128 128 128
128 128 128
128 128 128
128 128 128
128 128 128
128 128 128
128 128 128
128 128 128
128 128 128
128 128 128
128 128 128
128 128 128
128 128 128
128 128 128
128 128 128
128 128 128
128 128 128
128 128 128
128 128 128
128 128 128
128 128 128
128 128 128
128 128 128
128 128 128
128 128 128
128 128 128
128 128 128
128 128 128
128 128 128
128 128 128
128 128 128
128 128 128
128 128 128
128 128 128
128 128 128
128 128 128
128 128 128
128 128 128
128 128 128
128 128 128
128 128 128
0 0 0
0 0 0
0 0 0
0 0 0
0 0 0
0 0 0
0 0 0
0 0 0
0 0 0
0 0 0
0 0 0
0 0 0
0 0 0
0 0 0
0 0 0
0 0 0
0 0 0
0 0 0
128 128 128
128 128 128
0 0 0
0 0 0
0 0 0
0 0 0
0 0 0
0 0 0
0 0 0
0 0 0
0 0 0
0 0 0
0 0 0
0 0 0
0 0 0
0 0 0
0 0 0
0 0 0
0 0 0
0 0 0
0 0 0
0 0 0
0 0 0
0 0 0
0 0 0
0 0 0
0 0 0
0 0 0
0 0 0
0 0 0
0 0 0
0 0 0
0 0 0
0 0 0
0 0 0
0 0 0
0 0 0
0 0 0
0 0 0
0 0 0
0 0 0
0 0 0
0 0 0
0 0 0
0 0 0
0 0 0
0 0 0
0 0 0
0 0 0
0 0 0
0 0 0
0 0 0
0 0 0
0 0 0
0 0 0
0 0 0
0 0 0
0 0 0
128 128 128
128 128 128
128 128 128
128 128 128
128 128 128
128 128 128
128 128 128
128 128 128
128 128 128
128 128 128
128 128 128
128 128 128
128 128 128
128 128 128
128 128 128
128 128 128
128 128 128
128 128 128
128 128 128
128 128 128
128 128 128
128 128 128
128 128 128
128 128 128
128 128 128
128 128 128
128 128 128
128 128 128
128 128 128
128 128 128
128 128 128
128 128 128
128 128 128
128 128 128
128 128 128
128 128 128
128 128 128
128 128 128
128 128 128
128 128 128
128 128 128
128 128 128
128 128 128
128 128 128
128 128 128
128 128 128
128 128 128
128 128 128
128 128 128
128 128 128
128 128 128
128 128 128
128 128 128
128 128 128
128 128 128
128 128 128
128 128 128
128 128 128
128 128 128
128 128 128
128 128 128
128 128 128
128 128 128
128 128 128
128 128 128
128 128 128
128 128 128
128 128 128
128 128 128
128 128 128
128 128 128
128 128 128
128 128 128
128 128 128
128 128 128
128 128 128
128 128 128
128 128 128
128 128 128
128 128 128
128 128 128
128 128 128
128 128 128
128 128 128
128 128 128
128 128 128
128 128 128
128 128 128
128 128 128
128 128 128
128 128 128
128 128 128
128 128 128
128 128 128
128 128 128
128 128 128
128 128 128
128 128 128
128 128 128
128 128 128
128 128 128
128 128 128
128 128 128
128 128 128
128 128 128
128 128 128
128 128 128
128 128 128
128 128 128
128 128 128
128 128 128
128 128 128
128 128 128
128 128 128
128 128 128
128 128 128
128 128 128
128 128 128
128 128 128
128 128 128
128 128 128
128 128 128
128 128 128
128 128 128
0 0 0
0 0 0
0 0 0
0 0 0
0 0 0
0 0 0
0 0 0
0 0 0
0 0 0
0 0 0
0 0 0
0 0 0
0 0 0
0 0 0
128 128 128
0 0 0
0 0 0
0 0 0
0 0 0
0 0 0
0 0 0
0 0 0
0 0 0
0 0 0
0 0 0
0 0 0
0 0 0
0 0 0
0 0 0
0 0 0
0 0 0
0 0 0
0 0 0
0 0 0
0 0 0
0 0 0
0 0 0
0 0 0
0 0 0
0 0 0
0 0 0
0 0 0
0 0 0
0 0 0
0 0 0
0 0 0
0 0 0
0 0 0
0 0 0
0 0 0
0 0 0
0 0 0
0 0 0
0 0 0
0 0 0
0 0 0
0 0 0
0 0 0
0 0 0
0 0 0
0 0 0
0 0 0
0 0 0
0 0 0
0 0 0
0 0 0
0 0 0
0 0 0
0 0 0
0 0 0
0 0 0
0 0 0
0 0 0
0 0 0
0 0 0
0 0 0
128 128 128
128 128 128
128 128 128
128 128 128
128 128 128
128 128 128
128 128 128
128 128 128
128 128 128
128 128 128
128 128 128
128 128 128
128 128 128
128 128 128
128 128 128
128 128 128
128 128 128
128 128 128
128 128 128
128 128 128
128 128 128
128 128 128
128 128 128
128 128 128
128 128 128
128 128 128
128 128 128
128 128 128
128 128 128
128 128 128
128 128 128
128 128 128
128 128 128
128 128 128
128 128 128
128 128 128
128 128 128
128 128 128
128 128 128
128 128 128
128 128 128
128 128 128
128 128 128
128 128 128
128 128 128
128 128 128
128 128 128
128 128 128
128 128 128
128 128 128
128 128 128
128 128 128
128 128 128
128 128 128
128 128 128
128 128 128
128 128 128
128 128 128
128 128 128
128 128 128
128 128 128
128 128 128
128 128 128
128 128 128
128 128 128
128 128 128
128 128 128
128 128 128
128 128 128
128 128 128
128 128 128
128 128 128
128 128 128
128 128 128
128 128 128
128 128 128
128 128 128
128 128 128
128 128 128
128 128 128
128 128 128
128 128 128
128 128 128
128 128 128
128 128 128
128 128 128
128 128 128
128 128 128
128 128 128
128 128 128
128 128 128
128 128 128
128 128 128
128 128 128
128 128 128
128 128 128
128 128 128
128 128 128
128 128 128
128 128 128
128 128 128
128 128 128
128 128 128
128 128 128
128 128 128
128 128 128
128 128 128
128 128 128
128 128 128
128 128 128
128 128 128
128 128 128
128 128 128
128 128 128
128 128 128
128 128 128
128 128 128
128 128 128
128 128 128
128 128 128
128 128 128
128 128 128
128 128 128
128 128 128
0 0 0
0 0 0
0 0 0
0 0 0
0 0 0
0 0 0
0 0 0
0 0 0
0 0 0
0 0 0
128 128 128
128 128 128
0 0 0
0 0 0
128 128 128
0 0 0
0 0 0
0 0 0
0 0 0
0 0 0
0 0 0
0 0 0
0 0 0
0 0 0
0 0 0
0 0 0
0 0 0
0 0 0
0 0 0
0 0 0
0 0 0
0 0 0
0 0 0
0 0 0
0 0 0
0 0 0
0 0 0
0 0 0
0 0 0
0 0 0
0 0 0
0 0 0
0 0 0
0 0 0
0 0 0
0 0 0
0 0 0
0 0 0
0 0 0
0 0 0
0 0 0
0 0 0
0 0 0
0 0 0
0 0 0
0 0 0
0 0 0
0 0 0
0 0 0
0 0 0
0 0 0
0 0 0
0 0 0
0 0 0
0 0 0
0 0 0
0 0 0
0 0 0
0 0 0
0 0 0
0 0 0
0 0 0
0 0 0
0 0 0
0 0 0
0 0 0
128 128 128
128 128 128
128 128 128
128 128 128
128 128 128
128 128 128
128 128 128
128 128 128
128 128 128
128 128 128
128 128 128
128 128 128
128 128 128
128 128 128
128 128 128
128 128 128
128 128 128
128 128 128
128 128 128
128 128 128
128 128 128
128 128 128
128 128 128
128 128 128
128 128 128
128 128 128
128 128 128
128 128 128
128 128 128
128 128 128
128 128 128
128 128 128
128 128 128
128 128 128
128 128 128
128 128 128
128 128 128
128 128 128
128 128 128
128 128 128
128 128 128
128 128 128
128 128 128
128 128 128
128 128 128
128 128 128
128 128 128
128 128 128
128 128 128
128 128 128
128 128 128
128 128 128
128 128 128
128 128 128
128 128 128
128 128 128
128 128 128
128 128 128
128 128 128
128 128 128
128 128 128
128 128 128
128 128 128
128 128 128
128 128 128
128 128 128
128 128 128
128 128 128
128 128 128
128 128 128
128 128 128
128 128 128
128 128 128
128 128 128
128 128 128
128 128 128
128 128 128
128 128 128
128 128 128
128 128 128
128 128 128
128 128 128
128 128 128
128 128 128
128 128 128
128 128 128
128 128 128
128 128 128
128 128 128
128 128 128
128 128 128
128 128 128
128 128 128
128 128 128
128 128 128
128 128 128
128 128 128
128 128 128
128 128 128
128 128 128
128 128 128
128 128 128
128 128 128
128 128 128
128 128 128
128 128 128
128 128 128
128 128 128
128 128 128
128 128 128
128 128 128
128 128 128
128 128 128
128 128 128
128 128 128
128 128 128
128 128 128
128 128 128
128 128 128
128 128 128
128 128 128
128 128 128
128 128 128
128 128 128
0 0 0
0 0 0
0 0 0
0 0 0
0 0 0
0 0 0
0 0 0
0 0 0
0 0 0
0 0 0
0 0 0
0 0 0
0 0 0
0 0 0
128 128 128
0 0 0
0 0 0
0 0 0
0 0 0
0 0 0
0 0 0
0 0 0
0 0 0
0 0 0
0 0 0
0 0 0
0 0 0
0 0 0
0 0 0
0 0 0
0 0 0
0 0 0
0 0 0
0 0 0
0 0 0
0 0 0
0 0 0
0 0 0
0 0 0
0 0 0
0 0 0
0 0 0
0 0 0
0 0 0
0 0 0
0 0 0
0 0 0
0 0 0
0 0 0
0 0 0
0 0 0
0 0 0
0 0 0
0 0 0
0 0 0
0 0 0
0 0 0
0 0 0
0 0 0
0 0 0
0 0 0
0 0 0
0 0 0
0 0 0
0 0 0
0 0 0
0 0 0
0 0 0
0 0 0
0 0 0
0 0 0
0 0 0
0 0 0
0 0 0
0 0 0
0 0 0
128 128 128
128 128 128
128 128 128
128 128 128
128 128 128
128 128 128
128 128 128
128 128 128
128 128 128
128 128 128
128 128 128
128 128 128
128 128 128
128 128 128
128 128 128
128 128 128
128 128 128
128 128 128
128 128 128
128 128 128
128 128 128
128 128 128
128 128 128
128 128 128
128 128 128
128 128 128
128 128 128
128 128 128
128 128 128
128 128 128
128 128 128
128 128 128
128 128 128
128 128 128
128 128 128
128 128 128
128 128 128
128 128 128
128 128 128
128 128 128
128 128 128
128 128 128
128 128 128
128 128 128
128 128 128
128 128 128
128 128 128
128 128 128
128 128 128
128 128 128
128 128 128
128 128 128
128 128 128
128 128 128
128 128 128
128 128 128
128 128 128
128 128 128
128 128 128
128 128 128
128 128 128
128 128 128
128 128 128
128 128 128
128 128 128
128 128 128
128 128 128
128 128 128
128 128 128
128 128 128
128 128 128
128 128 128
128 128 128
128 128 128
128 128 128
128 128 128
128 128 128
128 128 128
128 128 128
128 128 128
128 128 128
128 128 128
128 128 128
128 128 128
128 128 128
128 128 128
128 128 128
128 128 128
128 128 128
128 128 128
128 128 128
128 128 128
128 128 128
128 128 128
128 128 128
128 128 128
128 128 128
128 128 128
128 128 128
128 128 128
128 128 128
128 128 128
128 128 128
128 128 128
128 128 128
128 128 128
128 128 128
128 128 128
128 128 128
128 128 128
128 128 128
128 128 128
128 128 128
128 128 128
128 128 128
128 128 128
128 128 128
128 128 128
128 128 128
128 128 128
128 128 128
128 128 128
128 128 128
128 128 128
0 0 0
0 0 0
0 0 0
0 0 0
0 0 0
0 0 0
0 0 0
0 0 0
0 0 0
0 0 0
0 0 0
0 0 0
0 0 0
128 128 128
128 128 128
0 0 0
0 0 0
0 0 0
0 0 0
0 0 0
0 0 0
0 0 0
0 0 0
0 0 0
0 0 0
0 0 0
0 0 0
0 0 0
0 0 0
0 0 0
0 0 0
0 0 0
0 0 0
0 0 0
0 0 0
0 0 0
0 0 0
0 0 0
0 0 0
0 0 0
0 0 0
0 0 0
0 0 0
0 0 0
0 0 0
0 0 0
0 0 0
0 0 0
0 0 0
0 0 0
0 0 0
0 0 0
0 0 0
0 0 0
0 0 0
0 0 0
0 0 0
0 0 0
0 0 0
0 0 0
0 0 0
0 0 0
0 0 0
0 0 0
0 0 0
0 0 0
0 0 0
0 0 0
0 0 0
0 0 0
0 0 0
0 0 0
0 0 0
0 0 0
0 0 0
0 0 0
128 128 128
128 128 128
128 128 128
128 128 128
128 128 128
128 128 128
128 128 128
128 128 128
128 128 128
128 128 128
128 128 128
128 128 128
128 128 128
128 128 128
128 128 128
128 128 128
128 128 128
128 128 128
128 128 128
128 128 128
128 128 128
128 128 128
128 128 128
128 128 128
128 128 128
128 128 128
128 128 128
128 128 128
128 128 128
128 128 128
128 128 128
128 128 128
128 128 128
128 128 128
128 128 128
128 128 128
128 128 128
128 128 128
128 128 128
128 128 128
128 128 128
128 128 128
128 128 128
128 128 128
128 128 128
128 128 128
128 128 128
128 128 128
128 128 128
128 128 128
128 128 128
128 128 128
128 128 128
128 128 128
128 128 128
128 128 128
128 128 128
128 128 128
128 128 128
128 128 128
128 128 128
128 128 128
128 128 128
128 128 128
128 128 128
128 128 128
128 128 128
128 128 128
128 128 128
128 128 128
128 128 128
128 128 128
128 128 128
128 128 128
128 128 128
128 128 128
128 128 128
128 128 128
128 128 128
128 128 128
128 128 128
128 128 128
128 128 128
128 128 128
128 128 128
128 128 128
128 128 128
128 128 128
128 128 128
128 128 128
128 128 128
128 128 128
128 128 128
128 128 128
128 128 128
128 128 128
128 128 128
128 128 128
128 128 128
128 128 128
128 128 128
128 128 128
128 128 128
128 128 128
128 128 128
128 128 128
128 128 128
128 128 128
128 128 128
128 128 128
128 128 128
128 128 128
128 128 128
128 128 128
128 128 128
128 128 128
128 128 128
128 128 128
128 128 128
128 128 128
128 128 128
128 128 128
128 128 128
128 128 128
0 0 0
0 0 0
0 0 0
0 0 0
0 0 0
0 0 0
0 0 0
0 0 0
0 0 0
0 0 0
0 0 0
0 0 0
0 0 0
0 0 0
0 0 0
0 0 0
0 0 0
0 0 0
0 0 0
0 0 0
0 0 0
0 0 0
0 0 0
0 0 0
0 0 0
0 0 0
0 0 0
0 0 0
0 0 0
0 0 0
0 0 0
0 0 0
0 0 0
0 0 0
0 0 0
0 0 0
0 0 0
0 0 0
0 0 0
0 0 0
0 0 0
0 0 0
0 0 0
0 0 0
0 0 0
0 0 0
0 0 0
0 0 0
0 0 0
0 0 0
0 0 0
0 0 0
0 0 0
0 0 0
0 0 0
0 0 0
0 0 0
0 0 0
0 0 0
0 0 0
0 0 0
0 0 0
0 0 0
0 0 0
0 0 0
0 0 0
0 0 0
0 0 0
0 0 0
0 0 0
0 0 0
0 0 0
0 0 0
0 0 0
0 0 0
0 0 0
128 128 128
128 128 128
128 128 128
128 128 128
128 128 128
128 128 128
128 128 128
128 128 128
128 128 128
128 128 128
128 128 128
128 128 128
128 128 128
128 128 128
128 128 128
128 128 128
128 128 128
128 128 128
128 128 128
128 128 128
128 128 128
128 128 128
128 128 128
128 128 128
128 128 128
128 128 128
128 128 128
128 128 128
128 128 128
128 128 128
128 128 128
128 128 128
128 128 128
128 128 128
128 128 128
128 128 128
128 128 128
128 128 128
128 128 128
128 128 128
128 128 128
128 128 128
128 128 128
128 128 128
128 128 128
128 128 128
128 128 128
128 128 128
128 128 128
128 128 128
128 128 128
128 128 128
128 128 128
128 128 128
128 128 128
128 128 128
128 128 128
128 128 128
128 128 128
128 128 128
128 128 128
128 128 128
128 128 128
128 128 128
128 128 128
128 128 128
128 128 128
128 128 128
128 128 128
128 128 128
128 128 128
128 128 128
128 128 128
128 128 128
128 128 128
128 128 128
128 128 128
128 128 128
128 128 128
128 128 128
128 128 128
128 128 128
128 128 128
128 128 128
128 128 128
128 128 128
128 128 128
128 128 128
128 128 128
128 128 128
128 128 128
128 128 128
128 128 128
128 128 128
128 128 128
128 128 128
128 128 128
128 128 128
128 128 128
128 128 128
128 128 128
128 128 128
128 128 128
128 128 128
128 128 128
128 128 128
128 128 128
128 128 128
128 128 128
128 128 128
128 128 128
128 128 128
128 128 128
128 128 128
128 128 128
128 128 128
128 128 128
128 128 128
128 128 128
128 128 128
128 128 128
128 128 128
128 128 128
128 128 128
128 128 128
0 0 0
0 0 0
0 0 0
0 0 0
0 0 0
0 0 0
0 0 0
0 0 0
0 0 0
0 0 0
0 0 0
0 0 0
0 0 0
0 0 0
0 0 0
0 0 0
0 0 0
0 0 0
0 0 0
0 0 0
0 0 0
0 0 0
0 0 0
0 0 0
0 0 0
0 0 0
0 0 0
0 0 0
0 0 0
0 0 0
0 0 0
0 0 0
0 0 0
0 0 0
0 0 0
0 0 0
0 0 0
0 0 0
0 0 0
0 0 0
0 0 0
0 0 0
0 0 0
0 0 0
0 0 0
0 0 0
0 0 0
0 0 0
0 0 0
0 0 0
0 0 0
0 0 0
0 0 0
0 0 0
0 0 0
0 0 0
0 0 0
0 0 0
0 0 0
0 0 0
0 0 0
0 0 0
0 0 0
0 0 0
0 0 0
0 0 0
0 0 0
0 0 0
0 0 0
0 0 0
0 0 0
0 0 0
0 0 0
0 0 0
0 0 0
0 0 0
128 128 128
128 128 128
128 128 128
128 128 128
128 128 128
128 128 128
128 128 128
128 128 128
128 128 128
128 128 128
128 128 128
128 128 128
128 128 128
128 128 128
128 128 128
128 128 128
128 128 128
128 128 128
128 128 128
128 128 128
128 128 128
128 128 128
128 128 128
128 128 128
128 128 128
128 128 128
128 128 128
128 128 128
128 128 128
128 128 128
128 128 128
128 128 128
128 128 128
128 128 128
128 128 128
128 128 128
128 128 128
128 128 128
128 128 128
128 128 128
128 128 128
128 128 128
128 128 128
128 128 128
128 128 128
128 128 128
128 128 128
128 128 128
128 128 128
128 128 128
128 128 128
128 128 128
128 128 128
128 128 128
128 128 128
128 128 128
128 128 128
128 128 128
128 128 128
128 128 128
128 128 128
128 128 128
128 128 128
128 128 128
128 128 128
128 128 128
128 128 128
128 128 128
128 128 128
128 128 128
128 128 128
128 128 128
128 128 128
128 128 128
128 128 128
128 128 128
128 128 128
128 128 128
128 128 128
128 128 128
128 128 128
128 128 128
128 128 128
128 128 128
128 128 128
128 128 128
128 128 128
128 128 128
128 128 128
128 128 128
128 128 128
128 128 128
128 128 128
128 128 128
128 128 128
128 128 128
128 128 128
128 128 128
128 128 128
128 128 128
128 128 128
128 128 128
128 128 128
128 128 128
128 128 128
128 128 128
128 128 128
128 128 128
128 128 128
128 128 128
128 128 128
128 128 128
128 128 128
128 128 128
128 128 128
128 128 128
128 128 128
128 128 128
128 128 128
128 128 128
128 128 128
128 128 128
128 128 128
0 0 0
0 0 0
0 0 0
0 0 0
0 0 0
0 0 0
0 0 0
0 0 0
0 0 0
0 0 0
0 0 0
0 0 0
0 0 0
0 0 0
0 0 0
0 0 0
0 0 0
0 0 0
0 0 0
0 0 0
0 0 0
0 0 0
0 0 0
0 0 0
0 0 0
0 0 0
0 0 0
0 0 0
0 0 0
0 0 0
0 0 0
0 0 0
0 0 0
0 0 0
0 0 0
0 0 0
0 0 0
0 0 0
0 0 0
0 0 0
0 0 0
0 0 0
0 0 0
0 0 0
0 0 0
0 0 0
0 0 0
0 0 0
0 0 0
0 0 0
0 0 0
0 0 0
0 0 0
0 0 0
0 0 0
0 0 0
0 0 0
0 0 0
0 0 0
0 0 0
0 0 0
0 0 0
0 0 0
0 0 0
0 0 0
0 0 0
0 0 0
0 0 0
0 0 0
0 0 0
0 0 0
0 0 0
0 0 0
0 0 0
0 0 0
0 0 0
0 0 0
128 128 128
128 128 128
128 128 128
128 128 128
128 128 128
128 128 128
128 128 128
128 128 128
128 128 128
128 128 128
128 128 128
128 128 128
128 128 128
128 128 128
128 128 128
128 128 128
128 128 128
128 128 128
128 128 128
128 128 128
128 128 128
128 128 128
128 128 128
128 128 128
128 128 128
128 128 128
128 128 128
128 128 128
128 128 128
128 128 128
128 128 128
128 128 128
128 128 128
128 128 128
128 128 128
128 128 128
128 128 128
128 128 128
128 128 128
128 128 128
128 128 128
128 128 128
128 128 128
128 128 128
128 128 128
128 128 128
128 128 128
128 128 128
128 128 128
128 128 128
128 128 128
128 128 128
128 128 128
128 128 128
128 128 128
128 128 128
128 128 128
128 128 128
128 128 128
128 128 128
128 128 128
128 128 128
128 128 128
128 128 128
128 128 128
128 128 128
128 128 128
128 128 128
128 128 128
128 128 128
128 128 128
128 128 128
128 128 128
128 128 128
128 128 128
128 128 128
128 128 128
128 128 128
128 128 128
128 128 128
128 128 128
128 128 128
128 128 128
128 128 128
128 128 128
128 128 128
128 128 128
128 128 128
128 128 128
128 128 128
128 128 128
128 128 128
128 128 128
128 128 128
128 128 128
128 128 128
128 128 128
128 128 128
128 128 128
128 128 128
128 128 128
128 128 128
128 128 128
128 128 128
128 128 128
128 128 128
128 128 128
128 128 128
128 128 128
128 128 128
128 128 128
128 128 128
128 128 128
128 128 128
128 128 128
128 128 128
128 128 128
128 128 128
128 128 128
128 128 128
128 128 128
128 128 128
128 128 128
128 128 128
0 0 0
0 0 0
0 0 0
0 0 0
0 0 0
0 0 0
0 0 0
0 0 0
0 0 0
0 0 0
0 0 0
0 0 0
0 0 0
0 0 0
0 0 0
0 0 0
0 0 0
0 0 0
0 0 0
0 0 0
0 0 0
0 0 0
0 0 0
0 0 0
0 0 0
0 0 0
0 0 0
0 0 0
0 0 0
0 0 0
0 0 0
0 0 0
0 0 0
0 0 0
0 0 0
0 0 0
0 0 0
0 0 0
0 0 0
0 0 0
0 0 0
0 0 0
0 0 0
0 0 0
0 0 0
0 0 0
0 0 0
0 0 0
0 0 0
0 0 0
0 0 0
0 0 0
0 0 0
0 0 0
0 0 0
0 0 0
0 0 0
0 0 0
0 0 0
0 0 0
0 0 0
0 0 0
0 0 0
0 0 0
0 0 0
0 0 0
0 0 0
0 0 0
0 0 0
0 0 0
0 0 0
0 0 0
0 0 0
0 0 0
0 0 0
0 0 0
128 128 128
128 128 128
128 128 128
128 128 128
128 128 128
128 128 128
128 128 128
128 128 128
128 128 128
128 128 128
128 128 128
128 128 128
128 128 128
128 128 128
128 128 128
128 128 128
128 128 128
128 128 128
128 128 128
128 128 128
128 128 128
128 128 128
128 128 128
128 128 128
128 128 128
128 128 128
128 128 128
128 128 128
128 128 128
128 128 128
128 128 128
128 128 128
128 128 128
128 128 128
128 128 128
128 128 128
128 128 128
128 128 128
128 128 128
128 128 128
128 128 128
128 128 128
128 128 128
128 128 128
128 128 128
128 128 128
128 128 128
128 128 128
128 128 128
128 128 128
128 128 128
128 128 128
128 128 128
128 128 128
128 128 128
128 128 128
128 128 128
128 128 128
128 128 128
128 128 128
128 128 128
128 128 128
128 128 128
128 128 128
128 128 128
128 128 128
128 128 128
128 128 128
128 128 128
128 128 128
128 128 128
128 128 128
128 128 128
128 128 128
128 128 128
128 128 128
128 128 128
128 128 128
128 128 128
128 128 128
128 128 128
128 128 128
128 128 128
128 128 128
128 128 128
128 128 128
128 128 128
128 128 128
128 128 128
128 128 128
128 128 128
128 128 128
128 128 128
128 128 128
128 128 128
128 128 128
128 128 128
128 128 128
128 128 128
128 128 128
128 128 128
128 128 128
128 128 128
128 128 128
128 128 128
128 128 128
128 128 128
128 128 128
128 128 128
128 128 128
128 128 128
128 128 128
128 128 128
128 128 128
128 128 128
128 128 128
128 128 128
128 128 128
128 128 128
128 128 128
128 128 128
128 128 128
128 128 128
128 128 128
0 0 0
0 0 0
0 0 0
0 0 0
0 0 0
0 0 0
0 0 0
0 0 0
0 0 0
0 0 0
0 0 0
0 0 0
0 0 0
0 0 0
0 0 0
0 0 0
0 0 0
0 0 0
0 0 0
0 0 0
0 0 0
0 0 0
0 0 0
0 0 0
0 0 0
0 0 0
0 0 0
0 0 0
0 0 0
0 0 0
0 0 0
0 0 0
0 0 0
0 0 0
0 0 0
0 0 0
0 0 0
0 0 0
0 0 0
0 0 0
0 0 0
0 0 0
0 0 0
0 0 0
0 0 0
0 0 0
0 0 0
0 0 0
0 0 0
0 0 0
0 0 0
0 0 0
0 0 0
0 0 0
0 0 0
0 0 0
0 0 0
0 0 0
0 0 0
0 0 0
0 0 0
0 0 0
0 0 0
0 0 0
0 0 0
0 0 0
0 0 0
0 0 0
0 0 0
0 0 0
0 0 0
0 0 0
0 0 0
0 0 0
0 0 0
0 0 0
128 128 128
128 128 128
128 128 128
128 128 128
128 128 128
128 128 128
128 128 128
128 128 128
128 128 128
128 128 128
128 128 128
128 128 128
128 128 128
128 128 128
128 128 128
128 128 128
128 128 128
128 128 128
128 128 128
128 128 128
128 128 128
128 128 128
128 128 128
128 128 128
128 128 128
128 128 128
128 128 128
128 128 128
128 128 128
128 128 128
128 128 128
128 128 128
128 128 128
128 128 128
128 128 128
128 128 128
128 128 128
128 128 128
128 128 128
128 128 128
128 128 128
128 128 128
128 128 128
128 128 128
128 128 128
128 128 128
128 128 128
128 128 128
128 128 128
128 128 128
128 128 128
128 128 128
128 128 128
128 128 128
128 128 128
128 128 128
128 128 128
128 128 128
128 128 128
128 128 128
128 128 128
128 128 128
128 128 128
128 128 128
128 128 128
128 128 128
128 128 128
128 128 128
128 128 128
128 128 128
128 128 128
128 128 128
128 128 128
128 128 128
128 128 128
128 128 128
128 128 128
128 128 128
128 128 128
128 128 128
128 128 128
128 128 128
128 128 128
128 128 128
128 128 128
128 128 128
128 128 128
128 128 128
128 128 128
128 128 128
128 128 128
128 128 128
128 128 128
128 128 128
128 128 128
128 128 128
128 128 128
128 128 128
128 128 128
128 128 128
128 128 128
128 128 128
128 128 128
128 128 128
128 128 128
128 128 128
128 128 128
128 128 128
128 128 128
128 128 128
128 128 128
128 128 128
128 128 128
128 128 128
128 128 128
128 128 128
128 128 128
128 128 128
128 128 128
128 128 128
128 128 128
128 128 128
128 128 128
0 0 0
0 0 0
0 0 0
0 0 0
0 0 0
0 0 0
0 0 0
0 0 0
0 0 0
0 0 0
0 0 0
0 0 0
0 0 0
0 0 0
0 0 0
0 0 0
0 0 0
0 0 0
0 0 0
0 0 0
0 0 0
0 0 0
0 0 0
0 0 0
0 0 0
0 0 0
0 0 0
0 0 0
0 0 0
0 0 0
0 0 0
0 0 0
0 0 0
0 0 0
0 0 0
0 0 0
0 0 0
0 0 0
0 0 0
0 0 0
0 0 0
0 0 0
0 0 0
0 0 0
0 0 0
0 0 0
0 0 0
0 0 0
0 0 0
0 0 0
0 0 0
128 128 128
128 128 128
128 128 128
128 128 128
128 128 128
128 128 128
0 0 0
0 0 0
0 0 0
0 0 0
0 0 0
0 0 0
0 0 0
0 0 0
0 0 0
0 0 0
0 0 0
0 0 0
0 0 0
0 0 0
0 0 0
0 0 0
0 0 0
0 0 0
0 0 0
0 0 0
0 0 0
128 128 128
128 128 128
128 128 128
128 128 128
128 128 128
128 128 128
128 128 128
128 128 128
128 128 128
128 128 128
128 128 128
128 128 128
128 128 128
128 128 128
128 128 128
128 128 128
128 128 128
128 128 128
128 128 128
128 128 128
128 128 128
128 128 128
128 128 128
0 0 0
128 128 128
128 128 128
128 128 128
128 128 128
128 128 128
128 128 128
128 128 128
128 128 128
128 128 128
128 128 128
128 128 128
128 128 128
128 128 128
128 128 128
128 128 128
128 128 128
128 128 128
128 128 128
128 128 128
128 128 128
128 128 128
128 128 128
128 128 128
128 128 128
128 128 128
128 128 128
128 128 128
128 128 128
128 128 128
128 128 128
128 128 128
128 128 128
128 128 128
128 128 128
128 128 128
128 128 128
128 128 128
128 128 128
128 128 128
128 128 128
128 128 128
128 128 128
128 128 128
128 128 128
128 128 128
128 128 128
128 128 128
128 128 128
128 128 128
128 128 128
128 128 128
128 128 128
128 128 128
128 128 128
128 128 128
128 128 128
128 128 128
128 128 128
128 128 128
128 128 128
128 128 128
128 128 128
128 128 128
128 128 128
128 128 128
128 128 128
128 128 128
128 128 128
128 128 128
128 128 128
128 128 128
128 128 128
128 128 128
128 128 128
128 128 128
128 128 128
128 128 128
128 128 128
128 128 128
128 128 128
128 128 128
128 128 128
128 128 128
128 128 128
128 128 128
128 128 128
128 128 128
128 128 128
128 128 128
128 128 128
128 128 128
128 128 128
128 128 128
128 128 128
128 128 128
128 128 128
128 128 128
128 128 128
0 0 0
0 0 0
0 0 0
0 0 0
0 0 0
0 0 0
0 0 0
0 0 0
0 0 0
0 0 0
128 128 128
128 128 128
0 0 0
0 0 0
0 0 0
0 0 0
0 0 0
0 0 0
0 0 0
0 0 0
0 0 0
0 0 0
0 0 0
0 0 0
0 0 0
0 0 0
0 0 0
0 0 0
0 0 0
0 0 0
0 0 0
0 0 0
0 0 0
0 0 0
0 0 0
0 0 0
0 0 0
0 0 0
0 0 0
0 0 0
0 0 0
0 0 0
0 0 0
0 0 0
128 128 128
0 0 0
0 0 0
0 0 0
0 0 0
0 0 0
128 128 128
128 128 128
128 128 128
128 128 128
128 128 128
128 128 128
128 128 128
0 0 0
0 0 0
0 0 0
0 0 0
0 0 0
0 0 0
0 0 0
0 0 0
0 0 0
0 0 0
0 0 0
0 0 0
0 0 0
0 0 0
0 0 0
0 0 0
0 0 0
0 0 0
0 0 0
0 0 0
0 0 0
128 128 128
128 128 128
128 128 128
128 128 128
128 128 128
128 128 128
128 128 128
128 128 128
128 128 128
128 128 128
128 128 128
128 128 128
128 128 128
128 128 128
128 128 128
128 128 128
128 128 128
128 128 128
128 128 128
128 128 128
128 128 128
128 128 128
128 128 128
0 0 0
128 128 128
128 128 128
128 128 128
128 128 128
128 128 128
128 128 128
128 128 128
128 128 128
128 128 128
128 128 128
128 128 128
128 128 128
128 128 128
128 128 128
128 128 128
128 128 128
128 128 128
128 128 128
128 128 128
128 128 128
128 128 128
128 128 128
128 128 128
128 128 128
128 128 128
128 128 128
128 128 128
128 128 128
128 128 128
128 128 128
128 128 128
128 128 128
128 128 128
128 128 128
128 128 128
128 128 128
128 128 128
128 128 128
128 128 128
128 128 128
128 128 128
128 128 128
128 128 128
128 128 128
128 128 128
128 128 128
128 128 128
128 128 128
128 128 128
128 128 128
128 128 128
128 128 128
128 128 128
128 128 128
128 128 128
128 128 128
128 128 128
128 128 128
128 128 128
128 128 128
128 128 128
128 128 128
128 128 128
128 128 128
128 128 128
128 128 128
128 128 128
128 128 128
128 128 128
128 128 128
128 128 128
128 128 128
128 128 128
128 128 128
128 128 128
128 128 128
128 128 128
128 128 128
128 128 128
128 128 128
128 128 128
128 128 128
128 128 128
128 128 128
128 128 128
128 128 128
128 128 128
128 128 128
128 128 128
128 128 128
128 128 128
128 128 128
128 128 128
128 128 128
128 128 128
128 128 128
128 128 128
128 128 128
0 0 0
0 0 0
0 0 0
0 0 0
0 0 0
0 0 0
0 0 0
0 0 0
0 0 0
0 0 0
0 0 0
0 0 0
0 0 0
0 0 0
0 0 0
0 0 0
0 0 0
0 0 0
0 0 0
0 0 0
0 0 0
0 0 0
0 0 0
0 0 0
0 0 0
0 0 0
0 0 0
0 0 0
0 0 0
0 0 0
0 0 0
0 0 0
0 0 0
0 0 0
0 0 0
0 0 0
0 0 0
0 0 0
0 0 0
0 0 0
0 0 0
128 128 128
0 0 0
0 0 0
128 128 128
128 128 128
0 0 0
0 0 0
0 0 0
0 0 0
0 0 0
128 128 128
128 128 128
0 0 0
0 0 0
0 0 0
0 0 0
0 0 0
0 0 0
0 0 0
0 0 0
0 0 0
0 0 0
128 128 128
0 0 0
0 0 0
0 0 0
0 0 0
0 0 0
0 0 0
0 0 0
0 0 0
0 0 0
0 0 0
0 0 0
0 0 0
0 0 0
0 0 0
128 128 128
128 128 128
128 128 128
128 128 128
128 128 128
128 128 128
128 128 128
128 128 128
128 128 128
128 128 128
128 128 128
128 128 128
128 128 128
128 128 128
128 128 128
128 128 128
128 128 128
128 128 128
128 128 128
128 128 128
128 128 128
128 128 128
128 128 128
128 128 128
128 128 128
128 128 128
0 0 0
128 128 128
128 128 128
128 128 128
128 128 128
128 128 128
128 128 128
128 128 128
128 128 128
128 128 128
128 128 128
128 128 128
128 128 128
128 128 128
128 128 128
128 128 128
128 128 128
128 128 128
128 128 128
128 128 128
128 128 128
128 128 128
128 128 128
128 128 128
128 128 128
128 128 128
128 128 128
128 128 128
128 128 128
128 128 128
128 128 128
128 128 128
128 128 128
128 128 128
128 128 128
128 128 128
128 128 128
128 128 128
128 128 128
128 128 128
128 128 128
128 128 128
128 128 128
128 128 128
128 128 128
128 128 128
128 128 128
128 128 128
128 128 128
128 128 128
128 128 128
128 128 128
128 128 128
128 128 128
128 128 128
128 128 128
128 128 128
128 128 128
128 128 128
128 128 128
128 128 128
128 128 128
128 128 128
128 128 128
128 128 128
128 128 128
128 128 128
128 128 128
128 128 128
128 128 128
128 128 128
128 128 128
128 128 128
128 128 128
128 128 128
128 128 128
128 128 128
128 128 128
128 128 128
128 128 128
128 128 128
128 128 128
128 128 128
128 128 128
128 128 128
128 128 128
128 128 128
128 128 128
128 128 128
128 128 128
128 128 128
128 128 128
128 128 128
128 128 128
128 128 128
128 128 128
0 0 0
0 0 0
0 0 0
0 0 0
0 0 0
0 0 0
0 0 0
0 0 0
0 0 0
0 0 0
0 0 0
0 0 0
0 0 0
0 0 0
0 0 0
0 0 0
0 0 0
0 0 0
0 0 0
0 0 0
0 0 0
0 0 0
0 0 0
0 0 0
0 0 0
0 0 0
0 0 0
0 0 0
0 0 0
0 0 0
0 0 0
0 0 0
0 0 0
0 0 0
0 0 0
0 0 0
0 0 0
0 0 0
0 0 0
0 0 0
0 0 0
128 128 128
128 128 128
128 128 128
128 128 128
128 128 128
0 0 0
0 0 0
0 0 0
0 0 0
0 0 0
0 0 0
0 0 0
0 0 0
0 0 0
0 0 0
0 0 0
0 0 0
0 0 0
0 0 0
0 0 0
0 0 0
0 0 0
128 128 128
0 0 0
0 0 0
0 0 0
0 0 0
0 0 0
0 0 0
0 0 0
0 0 0
0 0 0
0 0 0
0 0 0
0 0 0
0 0 0
0 0 0
128 128 128
128 128 128
128 128 128
128 128 128
128 128 128
128 128 128
128 128 128
128 128 128
128 128 128
128 128 128
128 128 128
128 128 128
128 128 128
128 128 128
128 128 128
128 128 128
128 128 128
128 128 128
128 128 128
128 128 128
128 128 128
128 128 128
128 128 128
128 128 128
128 128 128
128 128 128
128 128 128
128 128 128
128 128 128
128 128 128
128 128 128
128 128 128
128 128 128
128 128 128
128 128 128
128 128 128
128 128 128
128 128 128
128 128 128
128 128 128
128 128 128
128 128 128
128 128 128
128 128 128
128 128 128
128 128 128
128 128 128
128 128 128
128 128 128
128 128 128
128 128 128
128 128 128
128 128 128
128 128 128
128 128 128
128 128 128
128 128 128
128 128 128
128 128 128
128 128 128
128 128 128
128 128 128
128 128 128
128 128 128
128 128 128
128 128 128
128 128 128
128 128 128
128 128 128
128 128 128
128 128 128
128 128 128
128 128 128
128 128 128
128 128 128
128 128 128
128 128 128
128 128 128
128 128 128
128 128 128
128 128 128
128 128 128
128 128 128
128 128 128
128 128 128
128 128 128
128 128 128
128 128 128
128 128 128
128 128 128
128 128 128
128 128 128
128 128 128
128 128 128
128 128 128
128 128 128
128 128 128
128 128 128
128 128 128
128 128 128
128 128 128
128 128 128
128 128 128
128 128 128
128 128 128
128 128 128
128 128 128
128 128 128
128 128 128
128 128 128
128 128 128
128 128 128
128 128 128
128 128 128
128 128 128
128 128 128
128 128 128
128 128 128
128 128 128
128 128 128
128 128 128
128 128 128
0 0 0
0 0 0
0 0 0
0 0 0
0 0 0
0 0 0
0 0 0
0 0 0
0 0 0
0 0 0
0 0 0
0 0 0
0 0 0
0 0 0
0 0 0
0 0 0
0 0 0
0 0 0
0 0 0
0 0 0
0 0 0
0 0 0
0 0 0
0 0 0
0 0 0
0 0 0
0 0 0
0 0 0
0 0 0
0 0 0
0 0 0
0 0 0
0 0 0
0 0 0
0 0 0
0 0 0
0 0 0
0 0 0
0 0 0
0 0 0
0 0 0
0 0 0
0 0 0
128 128 128
0 0 0
0 0 0
0 0 0
0 0 0
0 0 0
0 0 0
0 0 0
0 0 0
0 0 0
0 0 0
0 0 0
0 0 0
0 0 0
0 0 0
0 0 0
0 0 0
0 0 0
0 0 0
0 0 0
0 0 0
0 0 0
0 0 0
0 0 0
0 0 0
0 0 0
0 0 0
0 0 0
0 0 0
0 0 0
0 0 0
0 0 0
0 0 0
0 0 0
0 0 0
0 0 0
128 128 128
128 128 128
128 128 128
128 128 128
128 128 128
128 128 128
128 128 128
128 128 128
128 128 128
128 128 128
128 128 128
128 128 128
128 128 128
128 128 128
128 128 128
128 128 128
128 128 128
128 128 128
128 128 128
128 128 128
128 128 128
128 128 128
128 128 128
128 128 128
128 128 128
128 128 128
128 128 128
128 128 128
128 128 128
128 128 128
128 128 128
128 128 128
128 128 128
128 128 128
128 128 128
128 128 128
128 128 128
128 128 128
128 128 128
128 128 128
128 128 128
128 128 128
128 128 128
128 128 128
128 128 128
128 128 128
128 128 128
128 128 128
128 128 128
128 128 128
128 128 128
128 128 128
128 128 128
128 128 128
128 128 128
128 128 128
128 128 128
128 128 128
128 128 128
128 128 128
128 128 128
128 128 128
128 128 128
128 128 128
128 128 128
128 128 128
128 128 128
128 128 128
128 128 128
128 128 128
128 128 128
128 128 128
128 128 128
128 128 128
128 128 128
128 128 128
128 128 128
128 128 128
128 128 128
128 128 128
128 128 128
128 128 128
128 128 128
128 128 128
128 128 128
128 128 128
128 128 128
128 128 128
128 128 128
128 128 128
128 128 128
128 128 128
128 128 128
128 128 128
128 128 128
128 128 128
128 128 128
128 128 128
128 128 128
128 128 128
128 128 128
128 128 128
128 128 128
128 128 128
128 128 128
128 128 128
128 128 128
128 128 128
128 128 128
128 128 128
128 128 128
128 128 128
128 128 128
128 128 128
128 128 128
128 128 128
128 128 128
128 128 128
128 128 128
128 128 128
128 128 128
0 0 0
0 0 0
0 0 0
0 0 0
0 0 0
0 0 0
0 0 0
0 0 0
0 0 0
0 0 0
0 0 0
0 0 0
0 0 0
0 0 0
0 0 0
0 0 0
0 0 0
0 0 0
0 0 0
0 0 0
0 0 0
0 0 0
0 0 0
0 0 0
0 0 0
0 0 0
0 0 0
0 0 0
0 0 0
0 0 0
0 0 0
0 0 0
0 0 0
0 0 0
0 0 0
0 0 0
0 0 0
0 0 0
0 0 0
0 0 0
0 0 0
0 0 0
0 0 0
0 0 0
0 0 0
0 0 0
0 0 0
0 0 0
0 0 0
0 0 0
0 0 0
0 0 0
0 0 0
0 0 0
0 0 0
0 0 0
0 0 0
0 0 0
0 0 0
0 0 0
0 0 0
0 0 0
0 0 0
128 128 128
0 0 0
0 0 0
0 0 0
0 0 0
0 0 0
0 0 0
0 0 0
0 0 0
0 0 0
0 0 0
0 0 0
0 0 0
0 0 0
0 0 0
0 0 0
128 128 128
128 128 128
128 128 128
128 128 128
128 128 128
128 128 128
128 128 128
128 128 128
128 128 128
128 128 128
128 128 128
128 128 128
128 128 128
128 128 128
128 128 128
128 128 128
128 128 128
128 128 128
128 128 128
128 128 128
128 128 128
128 128 128
128 128 128
128 128 128
128 128 128
128 128 128
128 128 128
128 128 128
128 128 128
128 128 128
128 128 128
128 128 128
128 128 128
128 128 128
128 128 128
128 128 128
128 128 128
128 128 128
128 128 128
128 128 128
128 128 128
128 128 128
128 128 128
128 128 128
128 128 128
128 128 128
128 128 128
128 128 128
128 128 128
128 128 128
128 128 128
128 128 128
128 128 128
128 128 128
128 128 128
128 128 128
128 128 128
128 128 128
128 128 128
128 128 128
128 128 128
128 128 128
128 128 128
128 128 128
128 128 128
128 128 128
128 128 128
128 128 128
128 128 128
128 128 128
128 128 128
128 128 128
128 128 128
128 128 128
128 128 128
128 128 128
128 128 128
128 128 128
128 128 128
128 128 128
128 128 128
128 128 128
128 128 128
128 128 128
128 128 128
128 128 128
128 128 128
128 128 128
128 128 128
128 128 128
128 128 128
128 128 128
128 128 128
128 128 128
128 128 128
128 128 128
128 128 128
128 128 128
128 128 128
128 128 128
128 128 128
128 128 128
128 128 128
128 128 128
128 128 128
128 128 128
128 128 128
128 128 128
128 128 128
128 128 128
128 128 128
128 128 128
128 128 128
128 128 128
128 128 128
128 128 128
128 128 128
128 128 128
128 128 128
128 128 128
128 128 128
0 0 0
0 0 0
0 0 0
0 0 0
0 0 0
0 0 0
0 0 0
0 0 0
0 0 0
0 0 0
0 0 0
0 0 0
0 0 0
0 0 0
0 0 0
0 0 0
0 0 0
0 0 0
0 0 0
0 0 0
0 0 0
0 0 0
0 0 0
0 0 0
0 0 0
0 0 0
0 0 0
0 0 0
0 0 0
0 0 0
0 0 0
0 0 0
0 0 0
0 0 0
0 0 0
0 0 0
0 0 0
0 0 0
0 0 0
0 0 0
0 0 0
0 0 0
0 0 0
0 0 0
0 0 0
0 0 0
0 0 0
0 0 0
0 0 0
0 0 0
0 0 0
0 0 0
0 0 0
0 0 0
0 0 0
0 0 0
0 0 0
0 0 0
0 0 0
0 0 0
0 0 0
0 0 0
0 0 0
0 0 0
0 0 0
0 0 0
0 0 0
0 0 0
0 0 0
0 0 0
0 0 0
0 0 0
0 0 0
0 0 0
0 0 0
0 0 0
0 0 0
0 0 0
0 0 0
128 128 128
128 128 128
128 128 128
128 128 128
128 128 128
128 128 128
128 128 128
128 128 128
128 128 128
128 128 128
128 128 128
128 128 128
128 128 128
128 128 128
128 128 128
128 128 128
128 128 128
128 128 128
128 128 128
128 128 128
128 128 128
128 128 128
128 128 128
128 128 128
128 128 128
128 128 128
128 128 128
128 128 128
128 128 128
128 128 128
128 128 128
128 128 128
128 128 128
128 128 128
128 128 128
128 128 128
128 128 128
128 128 128
128 128 128
128 128 128
128 128 128
128 128 128
128 128 128
128 128 128
128 128 128
128 128 128
128 128 128
128 128 128
128 128 128
128 128 128
128 128 128
128 128 128
128 128 128
128 128 128
128 128 128
128 128 128
128 128 128
128 128 128
128 128 128
128 128 128
128 128 128
128 128 128
128 128 128
128 128 128
128 128 128
128 128 128
128 128 128
128 128 128
128 128 128
128 128 128
128 128 128
128 128 128
128 128 128
128 128 128
128 128 128
128 128 128
128 128 128
128 128 128
128 128 128
128 128 128
128 128 128
128 128 128
128 128 128
128 128 128
128 128 128
128 128 128
128 128 128
128 128 128
128 128 128
128 128 128
128 128 128
128 128 128
128 128 128
128 128 128
128 128 128
128 128 128
128 128 128
128 128 128
128 128 128
128 128 128
128 128 128
128 128 128
128 128 128
128 128 128
128 128 128
128 128 128
128 128 128
128 128 128
128 128 128
128 128 128
128 128 128
128 128 128
128 128 128
128 128 128
128 128 128
128 128 128
128 128 128
128 128 128
128 128 128
128 128 128
128 128 128
0 0 0
0 0 0
0 0 0
0 0 0
0 0 0
0 0 0
0 0 0
0 0 0
0 0 0
0 0 0
0 0 0
0 0 0
0 0 0
0 0 0
0 0 0
0 0 0
0 0 0
0 0 0
0 0 0
0 0 0
0 0 0
0 0 0
0 0 0
0 0 0
0 0 0
0 0 0
0 0 0
0 0 0
0 0 0
0 0 0
0 0 0
0 0 0
0 0 0
0 0 0
0 0 0
0 0 0
0 0 0
0 0 0
0 0 0
0 0 0
0 0 0
0 0 0
0 0 0
0 0 0
0 0 0
0 0 0
0 0 0
0 0 0
0 0 0
0 0 0
0 0 0
0 0 0
0 0 0
0 0 0
0 0 0
0 0 0
0 0 0
0 0 0
0 0 0
0 0 0
0 0 0
0 0 0
0 0 0
0 0 0
0 0 0
0 0 0
0 0 0
0 0 0
0 0 0
0 0 0
0 0 0
0 0 0
0 0 0
0 0 0
0 0 0
0 0 0
0 0 0
0 0 0
0 0 0
0 0 0
128 128 128
128 128 128
128 128 128
128 128 128
128 128 128
128 128 128
128 128 128
128 128 128
128 128 128
128 128 128
128 128 128
128 128 128
128 128 128
128 128 128
128 128 128
128 128 128
128 128 128
128 128 128
128 128 128
128 128 128
128 128 128
128 128 128
128 128 128
128 128 128
128 128 128
128 128 128
128 128 128
128 128 128
128 128 128
128 128 128
128 128 128
128 128 128
128 128 128
128 128 128
128 128 128
128 128 128
128 128 128
128 128 128
128 128 128
128 128 128
128 128 128
128 128 128
128 128 128
128 128 128
128 128 128
128 128 128
128 128 128
128 128 128
128 128 128
128 128 128
128 128 128
128 128 128
128 128 128
128 128 128
128 128 128
128 128 128
128 128 128
128 128 128
128 128 128
128 128 128
128 128 128
128 128 128
128 128 128
128 128 128
128 128 128
128 128 128
128 128 128
128 128 128
128 128 128
128 128 128
128 128 128
128 128 128
128 128 128
128 128 128
128 128 128
128 128 128
128 128 128
128 128 128
128 128 128
128 128 128
128 128 128
128 128 128
128 128 128
128 128 128
128 128 128
128 128 128
128 128 128
128 128 128
128 128 128
128 128 128
128 128 128
128 128 128
128 128 128
128 128 128
128 128 128
128 128 128
128 128 128
128 128 128
128 128 128
128 128 128
128 128 128
128 128 128
128 128 128
128 128 128
128 128 128
128 128 128
128 128 128
128 128 128
128 128 128
128 128 128
128 128 128
128 128 128
128 128 128
128 128 128
128 128 128
128 128 128
128 128 128
128 128 128
128 128 128
128 128 128
0 0 0
0 0 0
0 0 0
0 0 0
0 0 0
0 0 0
0 0 0
0 0 0
0 0 0
0 0 0
0 0 0
0 0 0
0 0 0
0 0 0
0 0 0
0 0 0
0 0 0
0 0 0
0 0 0
0 0 0
0 0 0
0 0 0
0 0 0
0 0 0
0 0 0
0 0 0
0 0 0
0 0 0
0 0 0
0 0 0
0 0 0
0 0 0
0 0 0
0 0 0
0 0 0
0 0 0
0 0 0
0 0 0
0 0 0
0 0 0
0 0 0
0 0 0
0 0 0
0 0 0
0 0 0
0 0 0
0 0 0
0 0 0
0 0 0
0 0 0
0 0 0
0 0 0
0 0 0
0 0 0
0 0 0
0 0 0
0 0 0
0 0 0
0 0 0
0 0 0
0 0 0
0 0 0
0 0 0
0 0 0
0 0 0
0 0 0
0 0 0
0 0 0
0 0 0
0 0 0
0 0 0
0 0 0
0 0 0
0 0 0
0 0 0
0 0 0
0 0 0
0 0 0
0 0 0
0 0 0
128 128 128
128 128 128
128 128 128
128 128 128
128 128 128
128 128 128
128 128 128
128 128 128
128 128 128
128 128 128
128 128 128
128 128 128
128 128 128
128 128 128
128 128 128
128 128 128
128 128 128
128 128 128
128 128 128
128 128 128
128 128 128
128 128 128
128 128 128
128 128 128
128 128 128
128 128 128
128 128 128
128 128 128
128 128 128
128 128 128
128 128 128
128 128 128
128 128 128
128 128 128
128 128 128
128 128 128
128 128 128
128 128 128
128 128 128
128 128 128
128 128 128
128 128 128
128 128 128
128 128 128
128 128 128
128 128 128
128 128 128
128 128 128
128 128 128
128 128 128
128 128 128
128 128 128
128 128 128
128 128 128
128 128 128
128 128 128
128 128 128
128 128 128
128 128 128
128 128 128
128 128 128
128 128 128
128 128 128
128 128 128
128 128 128
128 128 128
128 128 128
128 128 128
128 128 128
128 128 128
128 128 128
128 128 128
128 128 128
128 128 128
128 128 128
128 128 128
128 128 128
128 128 128
128 128 128
128 128 128
128 128 128
128 128 128
128 128 128
128 128 128
128 128 128
128 128 128
128 128 128
128 128 128
128 128 128
128 128 128
128 128 128
128 128 128
128 128 128
128 128 128
128 128 128
128 128 128
128 128 128
128 128 128
128 128 128
128 128 128
128 128 128
128 128 128
128 128 128
128 128 128
128 128 128
128 128 128
128 128 128
128 128 128
128 128 128
128 128 128
128 128 128
128 128 128
128 128 128
128 128 128
128 128 128
128 128 128
128 128 128
128 128 128
128 128 128
128 128 128
0 0 0
0 0 0
0 0 0
0 0 0
0 0 0
0 0 0
0 0 0
0 0 0
0 0 0
0 0 0
0 0 0
0 0 0
0 0 0
0 0 0
0 0 0
0 0 0
0 0 0
0 0 0
0 0 0
0 0 0
0 0 0
0 0 0
0 0 0
0 0 0
0 0 0
0 0 0
0 0 0
0 0 0
0 0 0
0 0 0
0 0 0
0 0 0
0 0 0
0 0 0
0 0 0
0 0 0
0 0 0
0 0 0
0 0 0
0 0 0
0 0 0
0 0 0
0 0 0
0 0 0
0 0 0
0 0 0
0 0 0
0 0 0
0 0 0
0 0 0
0 0 0
0 0 0
0 0 0
0 0 0
0 0 0
0 0 0
0 0 0
0 0 0
0 0 0
0 0 0
0 0 0
0 0 0
0 0 0
0 0 0
0 0 0
0 0 0
0 0 0
0 0 0
0 0 0
0 0 0
0 0 0
0 0 0
0 0 0
0 0 0
0 0 0
0 0 0
0 0 0
0 0 0
0 0 0
0 0 0
0 0 0
128 128 128
128 128 128
128 128 128
128 128 128
128 128 128
128 128 128
128 128 128
128 128 128
128 128 128
128 128 128
128 128 128
128 128 128
128 128 128
128 128 128
128 128 128
128 128 128
128 128 128
128 128 128
128 128 128
128 128 128
128 128 128
128 128 128
128 128 128
128 128 128
128 128 128
128 128 128
128 128 128
128 128 128
128 128 128
128 128 128
128 128 128
128 128 128
128 128 128
128 128 128
128 128 128
128 128 128
128 128 128
128 128 128
128 128 128
128 128 128
128 128 128
128 128 128
128 128 128
128 128 128
128 128 128
128 128 128
128 128 128
128 128 128
128 128 128
128 128 128
128 128 128
128 128 128
128 128 128
128 128 128
128 128 128
128 128 128
128 128 128
128 128 128
128 128 128
128 128 128
128 128 128
128 128 128
128 128 128
128 128 128
128 128 128
128 128 128
128 128 128
128 128 128
128 128 128
128 128 128
128 128 128
128 128 128
128 128 128
128 128 128
128 128 128
128 128 128
128 128 128
128 128 128
128 128 128
128 128 128
128 128 128
128 128 128
128 128 128
128 128 128
128 128 128
128 128 128
128 128 128
128 128 128
128 128 128
128 128 128
128 128 128
128 128 128
128 128 128
128 128 128
128 128 128
128 128 128
128 128 128
128 128 128
128 128 128
128 128 128
128 128 128
128 128 128
128 128 128
128 128 128
128 128 128
128 128 128
128 128 128
128 128 128
128 128 128
128 128 128
128 128 128
128 128 128
128 128 128
128 128 128
128 128 128
128 128 128
128 128 128
128 128 128
128 128 128
0 0 0
0 0 0
0 0 0
0 0 0
0 0 0
0 0 0
0 0 0
0 0 0
0 0 0
0 0 0
0 0 0
0 0 0
0 0 0
0 0 0
128 128 128
128 128 128
0 0 0
0 0 0
0 0 0
0 0 0
0 0 0
0 0 0
0 0 0
0 0 0
0 0 0
0 0 0
0 0 0
0 0 0
0 0 0
0 0 0
0 0 0
0 0 0
0 0 0
0 0 0
0 0 0
0 0 0
0 0 0
0 0 0
0 0 0
0 0 0
0 0 0
0 0 0
0 0 0
0 0 0
0 0 0
0 0 0
0 0 0
0 0 0
0 0 0
0 0 0
0 0 0
0 0 0
0 0 0
0 0 0
0 0 0
0 0 0
0 0 0
0 0 0
0 0 0
0 0 0
0 0 0
0 0 0
0 0 0
0 0 0
0 0 0
0 0 0
0 0 0
0 0 0
0 0 0
0 0 0
0 0 0
0 0 0
0 0 0
0 0 0
0 0 0
0 0 0
0 0 0
0 0 0
0 0 0
0 0 0
0 0 0
128 128 128
128 128 128
128 128 128
128 128 128
128 128 128
128 128 128
128 128 128
128 128 128
128 128 128
128 128 128
128 128 128
128 128 128
128 128 128
128 128 128
128 128 128
128 128 128
128 128 128
128 128 128
128 128 128
128 128 128
128 128 128
128 128 128
128 128 128
128 128 128
128 128 128
128 128 128
128 128 128
128 128 128
128 128 128
128 128 128
128 128 128
128 128 128
128 128 128
128 128 128
128 128 128
128 128 128
128 128 128
128 128 128
128 128 128
128 128 128
128 128 128
128 128 128
128 128 128
128 128 128
128 128 128
128 128 128
128 128 128
128 128 128
128 128 128
128 128 128
128 128 128
128 128 128
128 128 128
128 128 128
128 128 128
128 128 128
128 128 128
128 128 128
128 128 128
128 128 128
128 128 128
128 128 128
128 128 128
128 128 128
128 128 128
128 128 128
128 128 128
128 128 128
128 128 128
128 128 128
128 128 128
128 128 128
128 128 128
128 128 128
128 128 128
128 128 128
128 128 128
128 128 128
128 128 128
128 128 128
128 128 128
128 128 128
128 128 128
128 128 128
128 128 128
128 128 128
128 128 128
128 128 128
128 128 128
128 128 128
128 128 128
128 128 128
128 128 128
128 128 128
128 128 128
128 128 128
128 128 128
128 128 128
128 128 128
128 128 128
128 128 128
128 128 128
128 128 128
128 128 128
128 128 128
128 128 128
128 128 128
128 128 128
128 128 128
128 128 128
128 128 128
128 128 128
128 128 128
128 128 128
128 128 128
128 128 128
128 128 128
128 128 128
128 128 128
0 0 0
0 0 0
0 0 0
0 0 0
0 0 0
0 0 0
0 0 0
0 0 0
0 0 0
0 0 0
0 0 0
0 0 0
0 0 0
0 0 0
128 128 128
128 128 128
0 0 0
0 0 0
0 0 0
0 0 0
0 0 0
0 0 0
0 0 0
0 0 0
0 0 0
0 0 0
0 0 0
0 0 0
0 0 0
0 0 0
0 0 0
0 0 0
0 0 0
0 0 0
0 0 0
0 0 0
0 0 0
0 0 0
0 0 0
0 0 0
0 0 0
0 0 0
0 0 0
0 0 0
0 0 0
0 0 0
0 0 0
0 0 0
0 0 0
0 0 0
0 0 0
0 0 0
0 0 0
0 0 0
0 0 0
0 0 0
0 0 0
0 0 0
0 0 0
0 0 0
0 0 0
0 0 0
0 0 0
0 0 0
0 0 0
0 0 0
0 0 0
0 0 0
0 0 0
0 0 0
0 0 0
0 0 0
0 0 0
0 0 0
0 0 0
0 0 0
0 0 0
0 0 0
0 0 0
0 0 0
0 0 0
128 128 128
128 128 128
128 128 128
128 128 128
128 128 128
128 128 128
128 128 128
128 128 128
128 128 128
128 128 128
128 128 128
128 128 128
128 128 128
128 128 128
128 128 128
128 128 128
128 128 128
128 128 128
128 128 128
128 128 128
128 128 128
128 128 128
128 128 128
128 128 128
128 128 128
128 128 128
128 128 128
128 128 128
128 128 128
128 128 128
128 128 128
128 128 128
128 128 128
128 128 128
128 128 128
128 128 128
128 128 128
128 128 128
128 128 128
128 128 128
128 128 128
128 128 128
128 128 128
128 128 128
128 128 128
128 128 128
128 128 128
128 128 128
128 128 128
128 128 128
128 128 128
128 128 128
128 128 128
128 128 128
128 128 128
128 128 128
128 128 128
128 128 128
128 128 128
128 128 128
128 128 128
128 128 128
128 128 128
128 128 128
128 128 128
128 128 128
128 128 128
128 128 128
128 128 128
128 128 128
128 128 128
128 128 128
128 128 128
128 128 128
128 128 128
128 128 128
128 128 128
128 128 128
128 128 128
128 128 128
128 128 128
128 128 128
128 128 128
128 128 128
128 128 128
128 128 128
128 128 128
128 128 128
128 128 128
128 128 128
128 128 128
128 128 128
128 128 128
128 128 128
128 128 128
128 128 128
128 128 128
128 128 128
128 128 128
128 128 128
128 128 128
128 128 128
128 128 128
128 128 128
128 128 128
128 128 128
128 128 128
128 128 128
128 128 128
128 128 128
128 128 128
128 128 128
128 128 128
128 128 128
128 128 128
128 128 128
128 128 128
128 128 128
128 128 128
0 0 0
0 0 0
0 0 0
0 0 0
0 0 0
0 0 0
0 0 0
0 0 0
0 0 0
0 0 0
0 0 0
0 0 0
0 0 0
0 0 0
0 0 0
0 0 0
0 0 0
0 0 0
0 0 0
0 0 0
0 0 0
0 0 0
0 0 0
0 0 0
0 0 0
0 0 0
0 0 0
0 0 0
0 0 0
0 0 0
0 0 0
0 0 0
0 0 0
0 0 0
0 0 0
0 0 0
0 0 0
0 0 0
0 0 0
0 0 0
0 0 0
0 0 0
0 0 0
0 0 0
0 0 0
0 0 0
0 0 0
0 0 0
0 0 0
0 0 0
0 0 0
0 0 0
0 0 0
0 0 0
0 0 0
0 0 0
0 0 0
0 0 0
0 0 0
0 0 0
0 0 0
0 0 0
0 0 0
0 0 0
0 0 0
0 0 0
0 0 0
0 0 0
0 0 0
0 0 0
0 0 0
0 0 0
0 0 0
0 0 0
0 0 0
0 0 0
0 0 0
0 0 0
0 0 0
0 0 0
0 0 0
0 0 0
128 128 128
128 128 128
128 128 128
128 128 128
128 128 128
128 128 128
128 128 128
128 128 128
128 128 128
128 128 128
128 128 128
128 128 128
128 128 128
128 128 128
128 128 128
128 128 128
128 128 128
128 128 128
128 128 128
128 128 128
128 128 128
128 128 128
128 128 128
128 128 128
128 128 128
128 128 128
128 128 128
128 128 128
128 128 128
128 128 128
128 128 128
128 128 128
128 128 128
128 128 128
128 128 128
128 128 128
128 128 128
128 128 128
128 128 128
128 128 128
128 128 128
128 128 128
128 128 128
128 128 128
128 128 128
128 128 128
128 128 128
128 128 128
128 128 128
128 128 128
128 128 128
128 128 128
128 128 128
128 128 128
128 128 128
128 128 128
128 128 128
128 128 128
128 128 128
128 128 128
128 128 128
128 128 128
128 128 128
128 128 128
128 128 128
128 128 128
128 128 128
128 128 128
128 128 128
128 128 128
128 128 128
128 128 128
128 128 128
128 128 128
128 128 128
128 128 128
128 128 128
128 128 128
128 128 128
128 128 128
128 128 128
128 128 128
128 128 128
128 128 128
128 128 128
128 128 128
128 128 128
128 128 128
128 128 128
128 128 128
128 128 128
128 128 128
128 128 128
128 128 128
128 128 128
128 128 128
128 128 128
128 128 128
128 128 128
128 128 128
128 128 128
128 128 128
128 128 128
128 128 128
128 128 128
128 128 128
128 128 128
128 128 128
128 128 128
128 128 128
128 128 128
128 128 128
128 128 128
128 128 128
128 128 128
128 128 128
128 128 128
128 128 128
0 0 0
0 0 0
0 0 0
0 0 0
0 0 0
128 128 128
128 128 128
0 0 0
0 0 0
0 0 0
0 0 0
0 0 0
0 0 0
0 0 0
128 128 128
0 0 0
0 0 0
0 0 0
0 0 0
0 0 0
0 0 0
0 0 0
0 0 0
0 0 0
0 0 0
0 0 0
0 0 0
0 0 0
0 0 0
0 0 0
0 0 0
0 0 0
0 0 0
0 0 0
0 0 0
0 0 0
0 0 0
0 0 0
0 0 0
0 0 0
0 0 0
0 0 0
0 0 0
0 0 0
0 0 0
0 0 0
0 0 0
0 0 0
0 0 0
0 0 0
0 0 0
0 0 0
0 0 0
0 0 0
0 0 0
0 0 0
0 0 0
0 0 0
0 0 0
0 0 0
0 0 0
0 0 0
0 0 0
0 0 0
0 0 0
0 0 0
0 0 0
0 0 0
0 0 0
0 0 0
0 0 0
0 0 0
0 0 0
0 0 0
0 0 0
0 0 0
0 0 0
0 0 0
0 0 0
0 0 0
0 0 0
0 0 0
128 128 128
128 128 128
128 128 128
128 128 128
128 128 128
128 128 128
128 128 128
128 128 128
128 128 128
128 128 128
128 128 128
128 128 128
128 128 128
128 128 128
128 128 128
128 128 128
128 128 128
128 128 128
128 128 128
128 128 128
128 128 128
128 128 128
128 128 128
128 128 128
128 128 128
128 128 128
128 128 128
128 128 128
128 128 128
128 128 128
128 128 128
128 128 128
128 128 128
128 128 128
128 128 128
128 128 128
128 128 128
128 128 128
128 128 128
128 128 128
128 128 128
128 128 128
128 128 128
128 128 128
128 128 128
128 128 128
128 128 128
128 128 128
128 128 128
128 128 128
128 128 128
128 128 128
128 128 128
128 128 128
128 128 128
128 128 128
128 128 128
128 128 128
128 128 128
128 128 128
128 128 128
128 128 128
128 128 128
128 128 128
128 128 128
128 128 128
128 128 128
128 128 128
128 128 128
128 128 128
128 128 128
128 128 128
128 128 128
128 128 128
128 128 128
128 128 128
128 128 128
128 128 128
128 128 128
128 128 128
128 128 128
128 128 128
128 128 128
128 128 128
128 128 128
128 128 128
128 128 128
128 128 128
128 128 128
128 128 128
128 128 128
128 128 128
128 128 128
128 128 128
128 128 128
128 128 128
128 128 128
128 128 128
128 128 128
128 128 128
128 128 128
128 128 128
128 128 128
128 128 128
128 128 128
128 128 128
128 128 128
128 128 128
128 128 128
128 128 128
128 128 128
128 128 128
128 128 128
128 128 128
128 128 128
128 128 128
128 128 128
128 128 128
0 0 0
0 0 0
0 0 0
0 0 0
0 0 0
0 0 0
128 128 128
0 0 0
0 0 0
0 0 0
0 0 0
0 0 0
0 0 0
0 0 0
0 0 0
0 0 0
0 0 0
0 0 0
0 0 0
0 0 0
0 0 0
0 0 0
0 0 0
0 0 0
0 0 0
0 0 0
0 0 0
0 0 0
0 0 0
0 0 0
0 0 0
0 0 0
0 0 0
0 0 0
0 0 0
0 0 0
0 0 0
0 0 0
0 0 0
128 128 128
128 128 128
128 128 128
0 0 0
128 128 128
128 128 128
128 128 128
0 0 0
0 0 0
0 0 0
0 0 0
0 0 0
0 0 0
0 0 0
0 0 0
0 0 0
0 0 0
0 0 0
0 0 0
0 0 0
0 0 0
0 0 0
0 0 0
0 0 0
0 0 0
0 0 0
0 0 0
0 0 0
0 0 0
0 0 0
0 0 0
0 0 0
0 0 0
0 0 0
0 0 0
0 0 0
0 0 0
0 0 0
0 0 0
0 0 0
0 0 0
0 0 0
0 0 0
0 0 0
128 128 128
128 128 128
128 128 128
128 128 128
128 128 128
128 128 128
128 128 128
128 128 128
128 128 128
128 128 128
128 128 128
128 128 128
128 128 128
128 128 128
128 128 128
128 128 128
128 128 128
128 128 128
128 128 128
128 128 128
128 128 128
128 128 128
128 128 128
128 128 128
128 128 128
128 128 128
128 128 128
128 128 128
128 128 128
128 128 128
128 128 128
128 128 128
128 128 128
128 128 128
128 128 128
128 128 128
128 128 128
128 128 128
128 128 128
128 128 128
128 128 128
128 128 128
128 128 128
128 128 128
128 128 128
128 128 128
128 128 128
128 128 128
128 128 128
128 128 128
128 128 128
128 128 128
128 128 128
128 128 128
128 128 128
128 128 128
128 128 128
128 128 128
128 128 128
128 128 128
128 128 128
128 128 128
128 128 128
128 128 128
128 128 128
128 128 128
128 128 128
128 128 128
128 128 128
128 128 128
128 128 128
128 128 128
128 128 128
128 128 128
128 128 128
128 128 128
128 128 128
128 128 128
128 128 128
128 128 128
128 128 128
128 128 128
128 128 128
128 128 128
128 128 128
128 128 128
128 128 128
128 128 128
128 128 128
128 128 128
128 128 128
128 128 128
128 128 128
128 128 128
128 128 128
128 128 128
128 128 128
128 128 128
128 128 128
128 128 128
128 128 128
128 128 128
128 128 128
128 128 128
128 128 128
128 128 128
128 128 128
128 128 128
128 128 128
128 128 128
128 128 128
128 128 128
128 128 128
128 128 128
128 128 128
128 128 128
128 128 128
0 0 0
0 0 0
0 0 0
0 0 0
0 0 0
0 0 0
0 0 0
0 0 0
0 0 0
0 0 0
0 0 0
0 0 0
0 0 0
0 0 0
0 0 0
0 0 0
0 0 0
0 0 0
0 0 0
0 0 0
0 0 0
0 0 0
0 0 0
0 0 0
0 0 0
0 0 0
0 0 0
0 0 0
0 0 0
0 0 0
0 0 0
0 0 0
0 0 0
0 0 0
0 0 0
0 0 0
0 0 0
0 0 0
0 0 0
128 128 128
128 128 128
128 128 128
0 0 0
0 0 0
128 128 128
128 128 128
0 0 0
0 0 0
0 0 0
0 0 0
0 0 0
0 0 0
0 0 0
0 0 0
0 0 0
0 0 0
0 0 0
0 0 0
0 0 0
0 0 0
0 0 0
0 0 0
0 0 0
0 0 0
0 0 0
0 0 0
0 0 0
0 0 0
0 0 0
0 0 0
0 0 0
0 0 0
0 0 0
0 0 0
0 0 0
0 0 0
0 0 0
0 0 0
0 0 0
0 0 0
0 0 0
0 0 0
0 0 0
128 128 128
128 128 128
128 128 128
128 128 128
128 128 128
128 128 128
128 128 128
128 128 128
128 128 128
128 128 128
128 128 128
128 128 128
128 128 128
128 128 128
128 128 128
128 128 128
128 128 128
128 128 128
128 128 128
128 128 128
128 128 128
128 128 128
128 128 128
128 128 128
128 128 128
128 128 128
128 128 128
128 128 128
128 128 128
128 128 128
128 128 128
128 128 128
128 128 128
128 128 128
128 128 128
128 128 128
128 128 128
128 128 128
128 128 128
128 128 128
128 128 128
128 128 128
128 128 128
128 128 128
128 128 128
128 128 128
128 128 128
128 128 128
128 128 128
128 128 128
128 128 128
128 128 128
128 128 128
128 128 128
128 128 128
128 128 128
128 128 128
128 128 128
128 128 128
128 128 128
128 128 128
128 128 128
128 128 128
128 128 128
128 128 128
128 128 128
128 128 128
128 128 128
128 128 128
128 128 128
128 128 128
128 128 128
128 128 128
128 128 128
128 128 128
128 128 128
128 128 128
128 128 128
128 128 128
128 128 128
128 128 128
128 128 128
128 128 128
128 128 128
128 128 128
128 128 128
128 128 128
128 128 128
128 128 128
128 128 128
128 128 128
128 128 128
128 128 128
128 128 128
128 128 128
128 128 128
128 128 128
128 128 128
128 128 128
128 128 128
128 128 128
128 128 128
128 128 128
128 128 128
128 128 128
128 128 128
128 128 128
128 128 128
128 128 128
128 128 128
128 128 128
128 128 128
128 128 128
128 128 128
128 128 128
128 128 128
0 0 0
0 0 0
0 0 0
0 0 0
0 0 0
0 0 0
0 0 0
0 0 0
0 0 0
0 0 0
0 0 0
0 0 0
0 0 0
0 0 0
0 0 0
0 0 0
0 0 0
0 0 0
0 0 0
0 0 0
0 0 0
0 0 0
0 0 0
0 0 0
0 0 0
0 0 0
0 0 0
0 0 0
0 0 0
0 0 0
0 0 0
0 0 0
0 0 0
0 0 0
0 0 0
0 0 0
0 0 0
0 0 0
0 0 0
0 0 0
128 128 128
128 128 128
128 128 128
0 0 0
0 0 0
0 0 0
128 128 128
0 0 0
0 0 0
0 0 0
0 0 0
0 0 0
0 0 0
0 0 0
0 0 0
0 0 0
0 0 0
0 0 0
0 0 0
0 0 0
0 0 0
0 0 0
0 0 0
0 0 0
0 0 0
0 0 0
0 0 0
0 0 0
0 0 0
0 0 0
0 0 0
0 0 0
0 0 0
0 0 0
0 0 0
0 0 0
0 0 0
0 0 0
0 0 0
0 0 0
0 0 0
0 0 0
0 0 0
0 0 0
0 0 0
128 128 128
128 128 128
128 128 128
128 128 128
128 128 128
128 128 128
128 128 128
128 128 128
128 128 128
128 128 128
128 128 128
128 128 128
128 128 128
128 128 128
128 128 128
128 128 128
128 128 128
128 128 128
128 128 128
128 128 128
128 128 128
128 128 128
128 128 128
128 128 128
128 128 128
128 128 128
128 128 128
128 128 128
128 128 128
128 128 128
128 128 128
128 128 128
128 128 128
128 128 128
128 128 128
128 128 128
128 128 128
128 128 128
128 128 128
128 128 128
128 128 128
128 128 128
128 128 128
128 128 128
128 128 128
128 128 128
128 128 128
128 128 128
128 128 128
128 128 128
128 128 128
128 128 128
128 128 128
128 128 128
128 128 128
128 128 128
128 128 128
128 128 128
128 128 128
128 128 128
128 128 128
128 128 128
128 128 128
128 128 128
128 128 128
128 128 128
128 128 128
128 128 128
128 128 128
128 128 128
128 128 128
128 128 128
128 128 128
128 128 128
128 128 128
128 128 128
128 128 128
128 128 128
128 128 128
128 128 128
128 128 128
128 128 128
128 128 128
128 128 128
128 128 128
128 128 128
128 128 128
128 128 128
128 128 128
128 128 128
128 128 128
128 128 128
128 128 128
128 128 128
128 128 128
128 128 128
128 128 128
128 128 128
128 128 128
128 128 128
128 128 128
128 128 128
128 128 128
128 128 128
128 128 128
128 128 128
128 128 128
128 128 128
128 128 128
128 128 128
128 128 128
128 128 128
128 128 128
128 128 128
128 128 128
0 0 0
0 0 0
0 0 0
128 128 128
0 0 0
0 0 0
0 0 0
0 0 0
0 0 0
0 0 0
0 0 0
0 0 0
0 0 0
0 0 0
0 0 0
0 0 0
0 0 0
0 0 0
0 0 0
0 0 0
0 0 0
0 0 0
0 0 0
0 0 0
0 0 0
0 0 0
0 0 0
0 0 0
0 0 0
0 0 0
0 0 0
0 0 0
0 0 0
0 0 0
0 0 0
0 0 0
0 0 0
0 0 0
0 0 0
0 0 0
128 128 128
128 128 128
128 128 128
0 0 0
128 128 128
0 0 0
128 128 128
0 0 0
0 0 0
0 0 0
0 0 0
0 0 0
0 0 0
0 0 0
0 0 0
0 0 0
0 0 0
0 0 0
0 0 0
0 0 0
0 0 0
0 0 0
0 0 0
0 0 0
0 0 0
0 0 0
0 0 0
0 0 0
0 0 0
0 0 0
0 0 0
0 0 0
0 0 0
0 0 0
0 0 0
0 0 0
0 0 0
0 0 0
0 0 0
0 0 0
0 0 0
0 0 0
0 0 0
0 0 0
0 0 0
0 0 0
128 128 128
128 128 128
128 128 128
128 128 128
128 128 128
128 128 128
128 128 128
128 128 128
128 128 128
128 128 128
128 128 128
128 128 128
128 128 128
128 128 128
128 128 128
128 128 128
128 128 128
128 128 128
128 128 128
128 128 128
128 128 128
128 128 128
128 128 128
128 128 128
128 128 128
128 128 128
128 128 128
128 128 128
128 128 128
128 128 128
128 128 128
128 128 128
128 128 128
128 128 128
128 128 128
128 128 128
128 128 128
128 128 128
128 128 128
128 128 128
128 128 128
128 128 128
128 128 128
128 128 128
128 128 128
128 128 128
128 128 128
128 128 128
128 128 128
128 128 128
128 128 128
128 128 128
128 128 128
128 128 128
128 128 128
128 128 128
128 128 128
128 128 128
128 128 128
128 128 128
128 128 128
128 128 128
128 128 128
128 128 128
128 128 128
128 128 128
128 128 128
128 128 128
128 128 128
128 128 128
128 128 128
128 128 128
128 128 128
128 128 128
128 128 128
128 128 128
128 128 128
128 128 128
128 128 128
128 128 128
128 128 128
128 128 128
128 128 128
128 128 128
128 128 128
128 128 128
128 128 128
128 128 128
128 128 128
128 128 128
128 128 128
128 128 128
128 128 128
128 128 128
128 128 128
128 128 128
128 128 128
128 128 128
128 128 128
128 128 128
128 128 128
128 128 128
128 128 128
128 128 128
128 128 128
128 128 128
128 128 128
128 128 128
128 128 128
128 128 128
128 128 128
128 128 128
128 128 128
0 0 0
0 0 0
0 0 0
0 0 0
0 0 0
0 0 0
0 0 0
0 0 0
0 0 0
0 0 0
0 0 0
0 0 0
0 0 0
0 0 0
0 0 0
0 0 0
0 0 0
0 0 0
0 0 0
0 0 0
0 0 0
0 0 0
0 0 0
0 0 0
0 0 0
0 0 0
0 0 0
0 0 0
0 0 0
0 0 0
0 0 0
0 0 0
0 0 0
0 0 0
0 0 0
0 0 0
0 0 0
0 0 0
0 0 0
0 0 0
0 0 0
128 128 128
128 128 128
128 128 128
0 0 0
0 0 0
0 0 0
0 0 0
0 0 0
0 0 0
0 0 0
0 0 0
0 0 0
0 0 0
0 0 0
0 0 0
0 0 0
0 0 0
0 0 0
0 0 0
0 0 0
0 0 0
0 0 0
0 0 0
0 0 0
0 0 0
0 0 0
0 0 0
0 0 0
0 0 0
0 0 0
0 0 0
0 0 0
0 0 0
0 0 0
0 0 0
0 0 0
0 0 0
0 0 0
0 0 0
0 0 0
0 0 0
0 0 0
0 0 0
0 0 0
0 0 0
0 0 0
128 128 128
128 128 128
128 128 128
128 128 128
128 128 128
128 128 128
128 128 128
128 128 128
128 128 128
128 128 128
128 128 128
128 128 128
128 128 128
128 128 128
128 128 128
128 128 128
128 128 128
128 128 128
128 128 128
128 128 128
128 128 128
128 128 128
128 128 128
128 128 128
128 128 128
128 128 128
128 128 128
128 128 128
128 128 128
128 128 128
128 128 128
128 128 128
128 128 128
128 128 128
128 128 128
128 128 128
128 128 128
128 128 128
128 128 128
128 128 128
128 128 128
128 128 128
128 128 128
128 128 128
128 128 128
128 128 128
128 128 128
128 128 128
128 128 128
128 128 128
128 128 128
128 128 128
128 128 128
128 128 128
128 128 128
128 128 128
128 128 128
128 128 128
128 128 128
128 128 128
128 128 128
128 128 128
128 128 128
128 128 128
128 128 128
128 128 128
128 128 128
128 128 128
128 128 128
128 128 128
128 128 128
128 128 128
128 128 128
128 128 128
128 128 128
128 128 128
128 128 128
128 128 128
128 128 128
128 128 128
128 128 128
128 128 128
128 128 128
128 128 128
128 128 128
128 128 128
128 128 128
128 128 128
128 128 128
128 128 128
128 128 128
128 128 128
128 128 128
128 128 128
128 128 128
128 128 128
128 128 128
128 128 128
128 128 128
128 128 128
128 128 128
128 128 128
128 128 128
128 128 128
128 128 128
128 128 128
128 128 128
128 128 128
128 128 128
128 128 128
128 128 128
128 128 128
128 128 128
0 0 0
0 0 0
0 0 0
0 0 0
0 0 0
0 0 0
0 0 0
0 0 0
0 0 0
0 0 0
0 0 0
0 0 0
0 0 0
0 0 0
0 0 0
0 0 0
128 128 128
128 128 128
0 0 0
0 0 0
0 0 0
0 0 0
0 0 0
0 0 0
0 0 0
0 0 0
0 0 0
0 0 0
0 0 0
0 0 0
0 0 0
0 0 0
0 0 0
0 0 0
0 0 0
0 0 0
0 0 0
0 0 0
0 0 0
0 0 0
0 0 0
128 128 128
128 128 128
128 128 128
128 128 128
128 128 128
0 0 0
0 0 0
0 0 0
0 0 0
0 0 0
0 0 0
0 0 0
0 0 0
0 0 0
0 0 0
0 0 0
0 0 0
0 0 0
0 0 0
0 0 0
0 0 0
0 0 0
0 0 0
0 0 0
0 0 0
0 0 0
0 0 0
0 0 0
0 0 0
0 0 0
0 0 0
0 0 0
0 0 0
0 0 0
0 0 0
0 0 0
0 0 0
0 0 0
0 0 0
0 0 0
0 0 0
0 0 0
0 0 0
0 0 0
0 0 0
0 0 0
0 0 0
128 128 128
128 128 128
128 128 128
128 128 128
128 128 128
128 128 128
128 128 128
128 128 128
128 128 128
128 128 128
128 128 128
128 128 128
128 128 128
128 128 128
128 128 128
128 128 128
128 128 128
128 128 128
128 128 128
128 128 128
128 128 128
128 128 128
128 128 128
128 128 128
128 128 128
128 128 128
128 128 128
128 128 128
128 128 128
128 128 128
128 128 128
128 128 128
128 128 128
128 128 128
128 128 128
128 128 128
128 128 128
128 128 128
128 128 128
128 128 128
128 128 128
128 128 128
128 128 128
128 128 128
128 128 128
128 128 128
128 128 128
128 128 128
128 128 128
128 128 128
128 128 128
128 128 128
128 128 128
128 128 128
128 128 128
128 128 128
128 128 128
128 128 128
128 128 128
128 128 128
128 128 128
128 128 128
128 128 128
128 128 128
128 128 128
128 128 128
128 128 128
128 128 128
128 128 128
128 128 128
128 128 128
128 128 128
128 128 128
128 128 128
128 128 128
128 128 128
128 128 128
128 128 128
128 128 128
128 128 128
128 128 128
128 128 128
128 128 128
128 128 128
128 128 128
128 128 128
128 128 128
128 128 128
128 128 128
128 128 128
128 128 128
128 128 128
128 128 128
128 128 128
128 128 128
128 128 128
128 128 128
128 128 128
128 128 128
128 128 128
128 128 128
128 128 128
128 128 128
128 128 128
128 128 128
128 128 128
128 128 128
128 128 128
128 128 128
128 128 128
128 128 128
0 0 0
0 0 0
0 0 0
0 0 0
0 0 0
0 0 0
0 0 0
0 0 0
0 0 0
0 0 0
0 0 0
0 0 0
0 0 0
0 0 0
0 0 0
0 0 0
0 0 0
128 128 128
0 0 0
0 0 0
0 0 0
0 0 0
0 0 0
0 0 0
0 0 0
0 0 0
0 0 0
0 0 0
0 0 0
0 0 0
0 0 0
0 0 0
0 0 0
0 0 0
0 0 0
0 0 0
0 0 0
0 0 0
0 0 0
0 0 0
0 0 0
0 0 0
0 0 0
0 0 0
0 0 0
0 0 0
0 0 0
0 0 0
0 0 0
0 0 0
0 0 0
0 0 0
0 0 0
128 128 128
0 0 0
0 0 0
0 0 0
0 0 0
0 0 0
0 0 0
0 0 0
0 0 0
0 0 0
0 0 0
0 0 0
0 0 0
0 0 0
0 0 0
0 0 0
0 0 0
0 0 0
0 0 0
0 0 0
0 0 0
0 0 0
0 0 0
0 0 0
0 0 0
0 0 0
0 0 0
0 0 0
0 0 0
0 0 0
0 0 0
0 0 0
0 0 0
0 0 0
0 0 0
0 0 0
0 0 0
128 128 128
128 128 128
128 128 128
128 128 128
128 128 128
128 128 128
128 128 128
128 128 128
128 128 128
128 128 128
128 128 128
128 128 128
128 128 128
128 128 128
128 128 128
128 128 128
128 128 128
128 128 128
128 128 128
128 128 128
128 128 128
128 128 128
128 128 128
128 128 128
128 128 128
128 128 128
128 128 128
128 128 128
128 128 128
128 128 128
128 128 128
128 128 128
128 128 128
128 128 128
128 128 128
128 128 128
128 128 128
128 128 128
128 128 128
128 128 128
128 128 128
128 128 128
128 128 128
128 128 128
128 128 128
128 128 128
128 128 128
128 128 128
128 128 128
128 128 128
128 128 128
128 128 128
128 128 128
128 128 128
128 128 128
128 128 128
128 128 128
128 128 128
128 128 128
128 128 128
128 128 128
128 128 128
128 128 128
128 128 128
128 128 128
128 128 128
128 128 128
128 128 128
128 128 128
128 128 128
128 128 128
128 128 128
128 128 128
128 128 128
128 128 128
128 128 128
128 128 128
128 128 128
128 128 128
128 128 128
128 128 128
128 128 128
128 128 128
128 128 128
128 128 128
128 128 128
128 128 128
128 128 128
128 128 128
128 128 128
128 128 128
128 128 128
128 128 128
128 128 128
128 128 128
128 128 128
128 128 128
128 128 128
128 128 128
128 128 128
128 128 128
128 128 128
128 128 128
128 128 128
128 128 128
128 128 128
128 128 128
128 128 128
128 128 128
0 0 0
0 0 0
0 0 0
0 0 0
0 0 0
0 0 0
0 0 0
0 0 0
0 0 0
0 0 0
0 0 0
0 0 0
0 0 0
128 128 128
128 128 128
0 0 0
0 0 0
128 128 128
128 128 128
0 0 0
0 0 0
0 0 0
0 0 0
0 0 0
0 0 0
0 0 0
0 0 0
0 0 0
0 0 0
0 0 0
0 0 0
0 0 0
0 0 0
0 0 0
0 0 0
0 0 0
0 0 0
0 0 0
0 0 0
0 0 0
0 0 0
0 0 0
0 0 0
0 0 0
0 0 0
0 0 0
0 0 0
0 0 0
0 0 0
0 0 0
0 0 0
0 0 0
0 0 0
0 0 0
0 0 0
0 0 0
0 0 0
0 0 0
0 0 0
0 0 0
0 0 0
0 0 0
0 0 0
0 0 0
0 0 0
0 0 0
0 0 0
0 0 0
0 0 0
0 0 0
0 0 0
0 0 0
0 0 0
0 0 0
0 0 0
0 0 0
0 0 0
0 0 0
0 0 0
0 0 0
0 0 0
0 0 0
0 0 0
0 0 0
0 0 0
0 0 0
0 0 0
0 0 0
0 0 0
0 0 0
0 0 0
128 128 128
128 128 128
128 128 128
128 128 128
128 128 128
128 128 128
128 128 128
128 128 128
128 128 128
128 128 128
128 128 128
128 128 128
128 128 128
128 128 128
128 128 128
128 128 128
128 128 128
128 128 128
128 128 128
128 128 128
128 128 128
128 128 128
128 128 128
128 128 128
128 128 128
128 128 128
128 128 128
128 128 128
128 128 128
128 128 128
128 128 128
128 128 128
128 128 128
128 128 128
128 128 128
128 128 128
128 128 128
128 128 128
128 128 128
128 128 128
128 128 128
128 128 128
128 128 128
128 128 128
128 128 128
128 128 128
128 128 128
128 128 128
128 128 128
128 128 128
128 128 128
128 128 128
128 128 128
128 128 128
128 128 128
128 128 128
128 128 128
128 128 128
128 128 128
128 128 128
128 128 128
128 128 128
128 128 128
128 128 128
128 128 128
128 128 128
128 128 128
128 128 128
128 128 128
128 128 128
128 128 128
128 128 128
128 128 128
128 128 128
128 128 128
128 128 128
128 128 128
128 128 128
128 128 128
128 128 128
128 128 128
128 128 128
128 128 128
128 128 128
128 128 128
128 128 128
128 128 128
128 128 128
128 128 128
128 128 128
128 128 128
128 128 128
128 128 128
128 128 128
128 128 128
128 128 128
128 128 128
128 128 128
128 128 128
128 128 128
128 128 128
128 128 128
128 128 128
128 128 128
128 128 128
128 128 128
128 128 128
128 128 128
0 0 0
0 0 0
0 0 0
0 0 0
0 0 0
0 0 0
0 0 0
0 0 0
0 0 0
0 0 0
0 0 0
0 0 0
0 0 0
0 0 0
0 0 0
128 128 128
0 0 0
0 0 0
0 0 0
0 0 0
0 0 0
0 0 0
0 0 0
0 0 0
0 0 0
0 0 0
0 0 0
0 0 0
0 0 0
0 0 0
0 0 0
0 0 0
0 0 0
0 0 0
0 0 0
0 0 0
0 0 0
0 0 0
0 0 0
0 0 0
0 0 0
0 0 0
0 0 0
0 0 0
0 0 0
0 0 0
0 0 0
0 0 0
0 0 0
0 0 0
0 0 0
0 0 0
0 0 0
0 0 0
0 0 0
0 0 0
0 0 0
0 0 0
0 0 0
0 0 0
0 0 0
0 0 0
0 0 0
0 0 0
0 0 0
0 0 0
0 0 0
0 0 0
0 0 0
0 0 0
0 0 0
0 0 0
0 0 0
0 0 0
0 0 0
0 0 0
0 0 0
0 0 0
0 0 0
0 0 0
0 0 0
0 0 0
0 0 0
0 0 0
0 0 0
0 0 0
0 0 0
0 0 0
0 0 0
0 0 0
0 0 0
0 0 0
0 0 0
128 128 128
128 128 128
128 128 128
128 128 128
128 128 128
128 128 128
128 128 128
128 128 128
128 128 128
128 128 128
128 128 128
128 128 128
128 128 128
128 128 128
128 128 128
128 128 128
128 128 128
128 128 128
128 128 128
128 128 128
128 128 128
128 128 128
128 128 128
128 128 128
128 128 128
128 128 128
128 128 128
128 128 128
128 128 128
128 128 128
128 128 128
128 128 128
128 128 128
128 128 128
128 128 128
128 128 128
128 128 128
128 128 128
128 128 128
128 128 128
128 128 128
128 128 128
128 128 128
128 128 128
128 128 128
128 128 128
128 128 128
128 128 128
128 128 128
128 128 128
128 128 128
128 128 128
128 128 128
128 128 128
128 128 128
128 128 128
128 128 128
128 128 128
128 128 128
128 128 128
128 128 128
128 128 128
128 128 128
128 128 128
128 128 128
128 128 128
128 128 128
128 128 128
128 128 128
128 128 128
128 128 128
128 128 128
128 128 128
128 128 128
128 128 128
128 128 128
128 128 128
128 128 128
128 128 128
128 128 128
128 128 128
128 128 128
128 128 128
128 128 128
128 128 128
128 128 128
128 128 128
128 128 128
128 128 128
128 128 128
128 128 128
128 128 128
128 128 128
128 128 128
128 128 128
128 128 128
128 128 128
128 128 128
128 128 128
128 128 128
128 128 128
128 128 128
128 128 128
128 128 128
128 128 128
128 128 128
128 128 128
0 0 0
0 0 0
0 0 0
0 0 0
0 0 0
0 0 0
0 0 0
0 0 0
0 0 0
0 0 0
0 0 0
0 0 0
0 0 0
0 0 0
0 0 0
128 128 128
0 0 0
0 0 0
0 0 0
0 0 0
0 0 0
0 0 0
0 0 0
0 0 0
0 0 0
0 0 0
0 0 0
0 0 0
0 0 0
0 0 0
0 0 0
0 0 0
0 0 0
0 0 0
0 0 0
0 0 0
0 0 0
0 0 0
0 0 0
0 0 0
0 0 0
0 0 0
0 0 0
0 0 0
0 0 0
0 0 0
0 0 0
0 0 0
0 0 0
0 0 0
0 0 0
0 0 0
0 0 0
0 0 0
0 0 0
0 0 0
0 0 0
0 0 0
0 0 0
0 0 0
0 0 0
0 0 0
0 0 0
0 0 0
0 0 0
0 0 0
0 0 0
0 0 0
0 0 0
0 0 0
0 0 0
0 0 0
0 0 0
0 0 0
0 0 0
0 0 0
0 0 0
0 0 0
0 0 0
0 0 0
0 0 0
0 0 0
0 0 0
0 0 0
0 0 0
0 0 0
0 0 0
0 0 0
0 0 0
0 0 0
0 0 0
0 0 0
0 0 0
0 0 0
128 128 128
128 128 128
128 128 128
128 128 128
128 128 128
128 128 128
128 128 128
128 128 128
128 128 128
128 128 128
128 128 128
128 128 128
128 128 128
128 128 128
128 128 128
128 128 128
128 128 128
128 128 128
128 128 128
128 128 128
128 128 128
128 128 128
128 128 128
128 128 128
128 128 128
128 128 128
128 128 128
128 128 128
128 128 128
128 128 128
128 128 128
128 128 128
128 128 128
128 128 128
128 128 128
128 128 128
128 128 128
128 128 128
128 128 128
128 128 128
128 128 128
128 128 128
128 128 128
128 128 128
128 128 128
128 128 128
128 128 128
128 128 128
128 128 128
128 128 128
128 128 128
128 128 128
128 128 128
128 128 128
128 128 128
128 128 128
128 128 128
128 128 128
128 128 128
128 128 128
128 128 128
128 128 128
128 128 128
128 128 128
128 128 128
128 128 128
128 128 128
128 128 128
128 128 128
128 128 128
128 128 128
128 128 128
128 128 128
128 128 128
128 128 128
128 128 128
128 128 128
128 128 128
128 128 128
128 128 128
128 128 128
128 128 128
128 128 128
128 128 128
128 128 128
128 128 128
128 128 128
128 128 128
128 128 128
128 128 128
128 128 128
128 128 128
128 128 128
128 128 128
128 128 128
128 128 128
128 128 128
128 128 128
128 128 128
128 128 128
128 128 128
128 128 128
128 128 128
128 128 128
128 128 128
0 0 0
0 0 0
0 0 0
0 0 0
0 0 0
0 0 0
0 0 0
0 0 0
0 0 0
0 0 0
0 0 0
0 0 0
0 0 0
0 0 0
0 0 0
0 0 0
0 0 0
0 0 0
0 0 0
0 0 0
0 0 0
0 0 0
0 0 0
0 0 0
0 0 0
0 0 0
0 0 0
0 0 0
0 0 0
0 0 0
0 0 0
0 0 0
0 0 0
0 0 0
0 0 0
0 0 0
0 0 0
0 0 0
0 0 0
0 0 0
0 0 0
0 0 0
0 0 0
0 0 0
0 0 0
0 0 0
0 0 0
0 0 0
0 0 0
0 0 0
0 0 0
0 0 0
0 0 0
0 0 0
0 0 0
0 0 0
0 0 0
0 0 0
0 0 0
0 0 0
0 0 0
0 0 0
0 0 0
0 0 0
0 0 0
0 0 0
0 0 0
0 0 0
0 0 0
0 0 0
0 0 0
0 0 0
0 0 0
0 0 0
0 0 0
0 0 0
0 0 0
0 0 0
0 0 0
0 0 0
0 0 0
0 0 0
0 0 0
0 0 0
0 0 0
0 0 0
0 0 0
0 0 0
0 0 0
0 0 0
0 0 0
0 0 0
0 0 0
0 0 0
0 0 0
0 0 0
128 128 128
128 128 128
128 128 128
128 128 128
128 128 128
128 128 128
128 128 128
128 128 128
128 128 128
128 128 128
128 128 128
128 128 128
128 128 128
128 128 128
128 128 128
128 128 128
128 128 128
128 128 128
128 128 128
128 128 128
128 128 128
128 128 128
128 128 128
128 128 128
128 128 128
128 128 128
128 128 128
128 128 128
128 128 128
128 128 128
128 128 128
128 128 128
128 128 128
128 128 128
128 128 128
128 128 128
128 128 128
128 128 128
128 128 128
128 128 128
128 128 128
128 128 128
128 128 128
128 128 128
128 128 128
128 128 128
128 128 128
128 128 128
128 128 128
128 128 128
128 128 128
128 128 128
128 128 128
128 128 128
128 128 128
128 128 128
128 128 128
128 128 128
128 128 128
128 128 128
128 128 128
128 128 128
128 128 128
128 128 128
128 128 128
128 128 128
128 128 128
128 128 128
128 128 128
128 128 128
128 128 128
128 128 128
128 128 128
128 128 128
128 128 128
128 128 128
128 128 128
128 128 128
128 128 128
128 128 128
128 128 128
128 128 128
128 128 128
128 128 128
128 128 128
128 128 128
128 128 128
128 128 128
128 128 128
128 128 128
128 128 128
128 128 128
128 128 128
128 128 128
128 128 128
128 128 128
128 128 128
128 128 128
128 128 128
128 128 128
128 128 128
128 128 128
128 128 128
0 0 0
0 0 0
0 0 0
0 0 0
0 0 0
0 0 0
0 0 0
0 0 0
0 0 0
0 0 0
0 0 0
0 0 0
0 0 0
0 0 0
0 0 0
0 0 0
0 0 0
0 0 0
0 0 0
0 0 0
0 0 0
0 0 0
0 0 0
0 0 0
0 0 0
0 0 0
0 0 0
0 0 0
0 0 0
0 0 0
0 0 0
0 0 0
0 0 0
0 0 0
0 0 0
0 0 0
0 0 0
0 0 0
0 0 0
0 0 0
0 0 0
0 0 0
0 0 0
0 0 0
0 0 0
0 0 0
0 0 0
0 0 0
0 0 0
0 0 0
0 0 0
0 0 0
0 0 0
0 0 0
0 0 0
0 0 0
0 0 0
0 0 0
0 0 0
0 0 0
0 0 0
0 0 0
0 0 0
0 0 0
0 0 0
0 0 0
0 0 0
0 0 0
0 0 0
0 0 0
0 0 0
0 0 0
0 0 0
0 0 0
0 0 0
0 0 0
0 0 0
0 0 0
0 0 0
0 0 0
0 0 0
0 0 0
0 0 0
0 0 0
0 0 0
0 0 0
0 0 0
0 0 0
0 0 0
0 0 0
0 0 0
0 0 0
0 0 0
0 0 0
0 0 0
0 0 0
0 0 0
128 128 128
128 128 128
128 128 128
128 128 128
128 128 128
128 128 128
128 128 128
128 128 128
128 128 128
128 128 128
128 128 128
128 128 128
128 128 128
128 128 128
128 128 128
128 128 128
128 128 128
128 128 128
128 128 128
128 128 128
128 128 128
128 128 128
128 128 128
128 128 128
128 128 128
128 128 128
128 128 128
128 128 128
128 128 128
128 128 128
128 128 128
128 128 128
128 128 128
128 128 128
128 128 128
128 128 128
128 128 128
128 128 128
128 128 128
128 128 128
128 128 128
128 128 128
128 128 128
128 128 128
128 128 128
128 128 128
128 128 128
128 128 128
128 128 128
128 128 128
128 128 128
128 128 128
128 128 128
128 128 128
128 128 128
128 128 128
128 128 128
128 128 128
128 128 128
128 128 128
128 128 128
128 128 128
128 128 128
128 128 128
128 128 128
128 128 128
128 128 128
128 128 128
128 128 128
128 128 128
128 128 128
128 128 128
128 128 128
128 128 128
128 128 128
128 128 128
128 128 128
128 128 128
128 128 128
128 128 128
128 128 128
128 128 128
128 128 128
128 128 128
128 128 128
128 128 128
128 128 128
128 128 128
128 128 128
128 128 128
128 128 128
128 128 128
128 128 128
128 128 128
128 128 128
128 128 128
128 128 128
128 128 128
128 128 128
128 128 128
128 128 128
128 128 128
128 128 128
0 0 0
0 0 0
0 0 0
0 0 0
0 0 0
0 0 0
0 0 0
0 0 0
0 0 0
0 0 0
0 0 0
0 0 0
0 0 0
0 0 0
0 0 0
0 0 0
0 0 0
0 0 0
0 0 0
0 0 0
0 0 0
0 0 0
0 0 0
0 0 0
0 0 0
0 0 0
0 0 0
0 0 0
0 0 0
0 0 0
0 0 0
0 0 0
0 0 0
0 0 0
0 0 0
0 0 0
0 0 0
0 0 0
0 0 0
0 0 0
0 0 0
0 0 0
0 0 0
0 0 0
0 0 0
0 0 0
0 0 0
0 0 0
0 0 0
0 0 0
0 0 0
0 0 0
0 0 0
0 0 0
0 0 0
0 0 0
0 0 0
0 0 0
0 0 0
0 0 0
0 0 0
0 0 0
0 0 0
0 0 0
0 0 0
0 0 0
0 0 0
0 0 0
0 0 0
0 0 0
0 0 0
0 0 0
0 0 0
0 0 0
0 0 0
0 0 0
0 0 0
0 0 0
0 0 0
0 0 0
0 0 0
0 0 0
0 0 0
0 0 0
0 0 0
0 0 0
0 0 0
0 0 0
0 0 0
0 0 0
0 0 0
0 0 0
0 0 0
0 0 0
0 0 0
0 0 0
0 0 0
0 0 0
128 128 128
128 128 128
128 128 128
128 128 128
128 128 128
128 128 128
128 128 128
128 128 128
128 128 128
128 128 128
128 128 128
128 128 128
128 128 128
128 128 128
128 128 128
128 128 128
128 128 128
128 128 128
128 128 128
128 128 128
128 128 128
128 128 128
128 128 128
128 128 128
128 128 128
128 128 128
128 128 128
128 128 128
128 128 128
128 128 128
128 128 128
128 128 128
128 128 128
128 128 128
128 128 128
128 128 128
128 128 128
128 128 128
128 128 128
128 128 128
128 128 128
128 128 128
128 128 128
128 128 128
128 128 128
128 128 128
128 128 128
128 128 128
128 128 128
128 128 128
128 128 128
128 128 128
128 128 128
128 128 128
128 128 128
128 128 128
128 128 128
128 128 128
128 128 128
128 128 128
128 128 128
128 128 128
128 128 128
128 128 128
128 128 128
128 128 128
128 128 128
128 128 128
128 128 128
128 128 128
128 128 128
128 128 128
128 128 128
128 128 128
128 128 128
128 128 128
128 128 128
128 128 128
128 128 128
128 128 128
128 128 128
128 128 128
128 128 128
128 128 128
128 128 128
128 128 128
128 128 128
128 128 128
128 128 128
128 128 128
128 128 128
128 128 128
128 128 128
128 128 128
128 128 128
128 128 128
128 128 128
128 128 128
128 128 128
128 128 128
128 128 128
0 0 0
0 0 0
0 0 0
0 0 0
0 0 0
0 0 0
0 0 0
0 0 0
0 0 0
0 0 0
0 0 0
0 0 0
0 0 0
0 0 0
0 0 0
0 0 0
0 0 0
0 0 0
0 0 0
0 0 0
0 0 0
0 0 0
0 0 0
0 0 0
0 0 0
0 0 0
0 0 0
0 0 0
0 0 0
0 0 0
0 0 0
0 0 0
0 0 0
0 0 0
0 0 0
0 0 0
0 0 0
0 0 0
0 0 0
0 0 0
0 0 0
0 0 0
0 0 0
0 0 0
0 0 0
0 0 0
0 0 0
0 0 0
0 0 0
0 0 0
0 0 0
0 0 0
0 0 0
0 0 0
0 0 0
0 0 0
0 0 0
0 0 0
0 0 0
0 0 0
0 0 0
0 0 0
0 0 0
0 0 0
0 0 0
0 0 0
0 0 0
0 0 0
0 0 0
0 0 0
0 0 0
0 0 0
0 0 0
0 0 0
0 0 0
0 0 0
0 0 0
0 0 0
0 0 0
0 0 0
0 0 0
0 0 0
0 0 0
0 0 0
0 0 0
0 0 0
0 0 0
0 0 0
0 0 0
0 0 0
0 0 0
0 0 0
0 0 0
0 0 0
0 0 0
0 0 0
0 0 0
0 0 0
0 0 0
0 0 0
128 128 128
128 128 128
128 128 128
128 128 128
128 128 128
128 128 128
128 128 128
128 128 128
128 128 128
128 128 128
128 128 128
128 128 128
128 128 128
128 128 128
128 128 128
128 128 128
128 128 128
128 128 128
128 128 128
128 128 128
128 128 128
128 128 128
128 128 128
128 128 128
128 128 128
128 128 128
128 128 128
128 128 128
128 128 128
128 128 128
128 128 128
128 128 128
128 128 128
128 128 128
128 128 128
128 128 128
128 128 128
128 128 128
128 128 128
128 128 128
128 128 128
128 128 128
128 128 128
128 128 128
128 128 128
128 128 128
128 128 128
128 128 128
128 128 128
128 128 128
128 128 128
128 128 128
128 128 128
128 128 128
128 128 128
128 128 128
128 128 128
128 128 128
128 128 128
128 128 128
128 128 128
128 128 128
128 128 128
128 128 128
128 128 128
128 128 128
128 128 128
128 128 128
128 128 128
128 128 128
128 128 128
128 128 128
128 128 128
128 128 128
128 128 128
128 128 128
128 128 128
128 128 128
128 128 128
128 128 128
128 128 128
128 128 128
128 128 128
128 128 128
128 128 128
128 128 128
128 128 128
128 128 128
128 128 128
128 128 128
128 128 128
128 128 128
128 128 128
128 128 128
128 128 128
128 128 128
128 128 128
128 128 128
128 128 128
0 0 0
0 0 0
0 0 0
0 0 0
0 0 0
0 0 0
0 0 0
0 0 0
0 0 0
0 0 0
0 0 0
0 0 0
0 0 0
0 0 0
0 0 0
0 0 0
0 0 0
0 0 0
0 0 0
0 0 0
0 0 0
0 0 0
0 0 0
0 0 0
0 0 0
0 0 0
0 0 0
0 0 0
0 0 0
0 0 0
0 0 0
0 0 0
0 0 0
0 0 0
0 0 0
0 0 0
0 0 0
0 0 0
0 0 0
0 0 0
0 0 0
0 0 0
0 0 0
0 0 0
0 0 0
0 0 0
0 0 0
0 0 0
0 0 0
0 0 0
0 0 0
0 0 0
0 0 0
0 0 0
0 0 0
0 0 0
0 0 0
0 0 0
0 0 0
0 0 0
0 0 0
0 0 0
0 0 0
0 0 0
0 0 0
0 0 0
0 0 0
0 0 0
0 0 0
0 0 0
0 0 0
0 0 0
0 0 0
0 0 0
0 0 0
0 0 0
0 0 0
0 0 0
0 0 0
0 0 0
0 0 0
0 0 0
0 0 0
0 0 0
0 0 0
0 0 0
0 0 0
0 0 0
0 0 0
0 0 0
0 0 0
0 0 0
0 0 0
0 0 0
0 0 0
0 0 0
0 0 0
0 0 0
0 0 0
0 0 0
0 0 0
0 0 0
128 128 128
128 128 128
128 128 128
128 128 128
128 128 128
128 128 128
128 128 128
128 128 128
128 128 128
128 128 128
128 128 128
128 128 128
128 128 128
128 128 128
128 128 128
128 128 128
128 128 128
128 128 128
128 128 128
128 128 128
128 128 128
128 128 128
128 128 128
128 128 128
128 128 128
128 128 128
128 128 128
128 128 128
128 128 128
128 128 128
128 128 128
128 128 128
128 128 128
128 128 128
128 128 128
128 128 128
128 128 128
128 128 128
128 128 128
128 128 128
128 128 128
128 128 128
128 128 128
128 128 128
128 128 128
128 128 128
128 128 128
128 128 128
128 128 128
128 128 128
128 128 128
128 128 128
128 128 128
128 128 128
128 128 128
128 128 128
128 128 128
128 128 128
128 128 128
128 128 128
128 128 128
128 128 128
128 128 128
128 128 128
128 128 128
128 128 128
128 128 128
128 128 128
128 128 128
128 128 128
128 128 128
128 128 128
128 128 128
128 128 128
128 128 128
128 128 128
128 128 128
128 128 128
128 128 128
128 128 128
128 128 128
128 128 128
128 128 128
128 128 128
128 128 128
128 128 128
128 128 128
128 128 128
128 128 128
128 128 128
128 128 128
128 128 128
128 128 128
128 128 128
128 128 128
128 128 128
128 128 128
0 0 0
0 0 0
0 0 0
0 0 0
0 0 0
0 0 0
0 0 0
0 0 0
0 0 0
0 0 0
0 0 0
0 0 0
0 0 0
0 0 0
0 0 0
0 0 0
0 0 0
0 0 0
0 0 0
0 0 0
0 0 0
0 0 0
0 0 0
0 0 0
0 0 0
0 0 0
0 0 0
0 0 0
0 0 0
0 0 0
0 0 0
0 0 0
0 0 0
0 0 0
0 0 0
0 0 0
0 0 0
0 0 0
0 0 0
0 0 0
0 0 0
0 0 0
0 0 0
0 0 0
0 0 0
0 0 0
0 0 0
0 0 0
0 0 0
0 0 0
0 0 0
0 0 0
0 0 0
0 0 0
0 0 0
0 0 0
0 0 0
0 0 0
0 0 0
0 0 0
0 0 0
0 0 0
0 0 0
0 0 0
0 0 0
0 0 0
0 0 0
0 0 0
0 0 0
0 0 0
0 0 0
0 0 0
0 0 0
0 0 0
0 0 0
0 0 0
0 0 0
0 0 0
0 0 0
0 0 0
0 0 0
0 0 0
0 0 0
0 0 0
0 0 0
0 0 0
0 0 0
0 0 0
0 0 0
0 0 0
0 0 0
0 0 0
0 0 0
0 0 0
0 0 0
0 0 0
0 0 0
0 0 0
0 0 0
0 0 0
0 0 0
0 0 0
0 0 0
0 0 0
128 128 128
128 128 128
128 128 128
128 128 128
128 128 128
128 128 128
128 128 128
128 128 128
128 128 128
128 128 128
128 128 128
128 128 128
128 128 128
128 128 128
128 128 128
128 128 128
128 128 128
128 128 128
128 128 128
128 128 128
128 128 128
128 128 128
128 128 128
128 128 128
128 128 128
128 128 128
128 128 128
128 128 128
128 128 128
128 128 128
128 128 128
128 128 128
128 128 128
128 128 128
128 128 128
128 128 128
128 128 128
128 128 128
128 128 128
128 128 128
128 128 128
128 128 128
128 128 128
128 128 128
128 128 128
128 128 128
128 128 128
128 128 128
128 128 128
128 128 128
128 128 128
128 128 128
128 128 128
128 128 128
128 128 128
128 128 128
128 128 128
128 128 128
128 128 128
128 128 128
128 128 128
128 128 128
128 128 128
128 128 128
128 128 128
128 128 128
128 128 128
128 128 128
128 128 128
128 128 128
128 128 128
128 128 128
128 128 128
128 128 128
128 128 128
128 128 128
128 128 128
128 128 128
128 128 128
128 128 128
128 128 128
128 128 128
128 128 128
128 128 128
128 128 128
128 128 128
128 128 128
128 128 128
128 128 128
128 128 128
128 128 128
128 128 128
128 128 128
128 128 128
128 128 128
0 0 0
0 0 0
0 0 0
0 0 0
0 0 0
0 0 0
0 0 0
0 0 0
0 0 0
0 0 0
0 0 0
0 0 0
0 0 0
0 0 0
0 0 0
0 0 0
0 0 0
0 0 0
0 0 0
0 0 0
0 0 0
0 0 0
0 0 0
0 0 0
0 0 0
0 0 0
0 0 0
0 0 0
0 0 0
0 0 0
0 0 0
0 0 0
0 0 0
0 0 0
0 0 0
0 0 0
0 0 0
0 0 0
0 0 0
0 0 0
0 0 0
0 0 0
0 0 0
0 0 0
0 0 0
0 0 0
0 0 0
0 0 0
0 0 0
0 0 0
0 0 0
0 0 0
0 0 0
0 0 0
0 0 0
0 0 0
0 0 0
0 0 0
0 0 0
0 0 0
0 0 0
0 0 0
0 0 0
0 0 0
0 0 0
0 0 0
0 0 0
0 0 0
0 0 0
0 0 0
0 0 0
0 0 0
0 0 0
0 0 0
0 0 0
0 0 0
0 0 0
0 0 0
0 0 0
0 0 0
0 0 0
0 0 0
0 0 0
0 0 0
0 0 0
0 0 0
0 0 0
0 0 0
0 0 0
0 0 0
0 0 0
0 0 0
0 0 0
0 0 0
0 0 0
0 0 0
0 0 0
0 0 0
0 0 0
0 0 0
0 0 0
0 0 0
0 0 0
0 0 0
0 0 0
0 0 0
128 128 128
128 128 128
128 128 128
128 128 128
128 128 128
128 128 128
128 128 128
128 128 128
128 128 128
128 128 128
128 128 128
128 128 128
128 128 128
128 128 128
128 128 128
128 128 128
128 128 128
128 128 128
128 128 128
128 128 128
128 128 128
128 128 128
128 128 128
128 128 128
128 128 128
128 128 128
128 128 128
128 128 128
128 128 128
128 128 128
128 128 128
128 128 128
128 128 128
128 128 128
128 128 128
128 128 128
128 128 128
128 128 128
128 128 128
128 128 128
128 128 128
128 128 128
128 128 128
128 128 128
128 128 128
128 128 128
128 128 128
128 128 128
128 128 128
128 128 128
128 128 128
128 128 128
128 128 128
128 128 128
128 128 128
128 128 128
128 128 128
128 128 128
128 128 128
128 128 128
128 128 128
128 128 128
128 128 128
128 128 128
128 128 128
128 128 128
128 128 128
128 128 128
128 128 128
128 128 128
128 128 128
128 128 128
128 128 128
128 128 128
128 128 128
128 128 128
128 128 128
128 128 128
128 128 128
128 128 128
128 128 128
128 128 128
128 128 128
128 128 128
128 128 128
128 128 128
128 128 128
128 128 128
128 128 128
128 128 128
128 128 128
128 128 128
128 128 128
0 0 0
0 0 0
0 0 0
0 0 0
0 0 0
0 0 0
0 0 0
0 0 0
0 0 0
0 0 0
0 0 0
0 0 0
0 0 0
0 0 0
0 0 0
0 0 0
0 0 0
0 0 0
0 0 0
0 0 0
0 0 0
0 0 0
0 0 0
0 0 0
0 0 0
0 0 0
0 0 0
0 0 0
0 0 0
0 0 0
0 0 0
0 0 0
0 0 0
0 0 0
0 0 0
0 0 0
0 0 0
0 0 0
0 0 0
0 0 0
0 0 0
0 0 0
0 0 0
0 0 0
0 0 0
0 0 0
0 0 0
0 0 0
0 0 0
0 0 0
0 0 0
0 0 0
0 0 0
0 0 0
0 0 0
0 0 0
0 0 0
0 0 0
0 0 0
0 0 0
0 0 0
0 0 0
0 0 0
0 0 0
0 0 0
0 0 0
0 0 0
0 0 0
0 0 0
0 0 0
0 0 0
0 0 0
0 0 0
0 0 0
0 0 0
0 0 0
0 0 0
0 0 0
0 0 0
0 0 0
0 0 0
0 0 0
0 0 0
0 0 0
0 0 0
0 0 0
0 0 0
0 0 0
0 0 0
0 0 0
0 0 0
0 0 0
0 0 0
0 0 0
0 0 0
0 0 0
0 0 0
0 0 0
0 0 0
0 0 0
0 0 0
0 0 0
0 0 0
0 0 0
0 0 0
0 0 0
0 0 0
0 0 0
128 128 128
128 128 128
128 128 128
128 128 128
128 128 128
128 128 128
128 128 128
128 128 128
128 128 128
128 128 128
128 128 128
128 128 128
128 128 128
128 128 128
128 128 128
128 128 128
128 128 128
128 128 128
128 128 128
128 128 128
128 128 128
128 128 128
128 128 128
128 128 128
128 128 128
128 128 128
128 128 128
128 128 128
128 128 128
128 128 128
128 128 128
128 128 128
128 128 128
128 128 128
128 128 128
128 128 128
128 128 128
128 128 128
128 128 128
128 128 128
128 128 128
128 128 128
128 128 128
128 128 128
128 128 128
128 128 128
128 128 128
128 128 128
128 128 128
128 128 128
128 128 128
128 128 128
128 128 128
128 128 128
128 128 128
128 128 128
128 128 128
128 128 128
128 128 128
128 128 128
128 128 128
128 128 128
128 128 128
128 128 128
128 128 128
128 128 128
128 128 128
128 128 128
128 128 128
128 128 128
128 128 128
128 128 128
128 128 128
128 128 128
128 128 128
128 128 128
128 128 128
128 128 128
128 128 128
128 128 128
128 128 128
128 128 128
128 128 128
128 128 128
128 128 128
128 128 128
128 128 128
128 128 128
128 128 128
128 128 128
128 128 128
0 0 0
0 0 0
0 0 0
0 0 0
0 0 0
0 0 0
0 0 0
0 0 0
0 0 0
0 0 0
0 0 0
0 0 0
0 0 0
0 0 0
0 0 0
0 0 0
0 0 0
0 0 0
0 0 0
0 0 0
0 0 0
0 0 0
0 0 0
0 0 0
0 0 0
0 0 0
0 0 0
0 0 0
0 0 0
0 0 0
0 0 0
0 0 0
0 0 0
0 0 0
0 0 0
0 0 0
0 0 0
0 0 0
0 0 0
0 0 0
0 0 0
0 0 0
0 0 0
0 0 0
0 0 0
0 0 0
0 0 0
0 0 0
0 0 0
0 0 0
0 0 0
0 0 0
0 0 0
0 0 0
0 0 0
0 0 0
0 0 0
0 0 0
0 0 0
0 0 0
0 0 0
0 0 0
0 0 0
0 0 0
0 0 0
0 0 0
0 0 0
0 0 0
0 0 0
0 0 0
0 0 0
0 0 0
0 0 0
0 0 0
0 0 0
0 0 0
0 0 0
0 0 0
0 0 0
0 0 0
0 0 0
0 0 0
0 0 0
0 0 0
0 0 0
0 0 0
0 0 0
0 0 0
0 0 0
0 0 0
0 0 0
0 0 0
0 0 0
0 0 0
0 0 0
0 0 0
0 0 0
0 0 0
0 0 0
0 0 0
0 0 0
0 0 0
0 0 0
0 0 0
0 0 0
0 0 0
0 0 0
0 0 0
0 0 0
0 0 0
128 128 128
128 128 128
128 128 128
128 128 128
128 128 128
128 128 128
128 128 128
128 128 128
128 128 128
128 128 128
128 128 128
128 128 128
128 128 128
128 128 128
128 128 128
128 128 128
128 128 128
128 128 128
128 128 128
128 128 128
128 128 128
128 128 128
128 128 128
128 128 128
128 128 128
128 128 128
128 128 128
128 128 128
128 128 128
128 128 128
128 128 128
128 128 128
128 128 128
128 128 128
128 128 128
128 128 128
128 128 128
128 128 128
128 128 128
128 128 128
128 128 128
128 128 128
128 128 128
128 128 128
128 128 128
128 128 128
128 128 128
128 128 128
128 128 128
128 128 128
128 128 128
128 128 128
128 128 128
128 128 128
128 128 128
128 128 128
128 128 128
128 128 128
128 128 128
128 128 128
128 128 128
128 128 128
128 128 128
128 128 128
128 128 128
128 128 128
128 128 128
128 128 128
128 128 128
128 128 128
128 128 128
128 128 128
128 128 128
128 128 128
128 128 128
128 128 128
128 128 128
128 128 128
128 128 128
128 128 128
128 128 128
128 128 128
128 128 128
128 128 128
128 128 128
128 128 128
128 128 128
128 128 128
128 128 128
0 0 0
0 0 0
0 0 0
0 0 0
0 0 0
0 0 0
0 0 0
0 0 0
0 0 0
0 0 0
0 0 0
0 0 0
0 0 0
0 0 0
0 0 0
0 0 0
0 0 0
0 0 0
0 0 0
0 0 0
0 0 0
0 0 0
0 0 0
0 0 0
0 0 0
0 0 0
0 0 0
0 0 0
0 0 0
0 0 0
0 0 0
0 0 0
0 0 0
0 0 0
0 0 0
0 0 0
0 0 0
0 0 0
0 0 0
0 0 0
0 0 0
0 0 0
0 0 0
0 0 0
0 0 0
0 0 0
0 0 0
0 0 0
0 0 0
0 0 0
0 0 0
0 0 0
0 0 0
0 0 0
0 0 0
0 0 0
0 0 0
0 0 0
0 0 0
0 0 0
0 0 0
0 0 0
0 0 0
0 0 0
0 0 0
0 0 0
0 0 0
0 0 0
0 0 0
0 0 0
0 0 0
0 0 0
0 0 0
0 0 0
0 0 0
0 0 0
0 0 0
0 0 0
0 0 0
0 0 0
0 0 0
0 0 0
0 0 0
0 0 0
0 0 0
0 0 0
0 0 0
0 0 0
0 0 0
0 0 0
0 0 0
0 0 0
0 0 0
0 0 0
0 0 0
0 0 0
0 0 0
0 0 0
0 0 0
0 0 0
0 0 0
0 0 0
0 0 0
0 0 0
0 0 0
0 0 0
0 0 0
0 0 0
0 0 0
0 0 0
0 0 0
0 0 0
128 128 128
128 128 128
128 128 128
128 128 128
128 128 128
128 128 128
128 128 128
128 128 128
128 128 128
128 128 128
128 128 128
128 128 128
128 128 128
128 128 128
128 128 128
128 128 128
128 128 128
128 128 128
128 128 128
128 128 128
128 128 128
128 128 128
128 128 128
128 128 128
128 128 128
128 128 128
128 128 128
128 128 128
128 128 128
128 128 128
128 128 128
128 128 128
128 128 128
128 128 128
128 128 128
128 128 128
128 128 128
128 128 128
128 128 128
128 128 128
128 128 128
128 128 128
128 128 128
128 128 128
128 128 128
128 128 128
128 128 128
128 128 128
128 128 128
128 128 128
128 128 128
128 128 128
128 128 128
128 128 128
128 128 128
128 128 128
128 128 128
128 128 128
128 128 128
128 128 128
128 128 128
128 128 128
128 128 128
128 128 128
128 128 128
128 128 128
128 128 128
128 128 128
128 128 128
128 128 128
128 128 128
128 128 128
128 128 128
128 128 128
128 128 128
128 128 128
128 128 128
128 128 128
128 128 128
128 128 128
128 128 128
128 128 128
128 128 128
128 128 128
128 128 128
128 128 128
128 128 128
0 0 0
0 0 0
0 0 0
0 0 0
0 0 0
0 0 0
0 0 0
0 0 0
0 0 0
0 0 0
0 0 0
0 0 0
0 0 0
0 0 0
0 0 0
0 0 0
0 0 0
0 0 0
0 0 0
0 0 0
0 0 0
0 0 0
0 0 0
0 0 0
0 0 0
0 0 0
0 0 0
0 0 0
0 0 0
0 0 0
0 0 0
0 0 0
0 0 0
0 0 0
0 0 0
0 0 0
0 0 0
0 0 0
0 0 0
0 0 0
0 0 0
0 0 0
0 0 0
0 0 0
0 0 0
0 0 0
0 0 0
0 0 0
0 0 0
0 0 0
0 0 0
0 0 0
0 0 0
0 0 0
0 0 0
0 0 0
0 0 0
0 0 0
0 0 0
0 0 0
0 0 0
0 0 0
0 0 0
0 0 0
0 0 0
0 0 0
0 0 0
0 0 0
0 0 0
0 0 0
0 0 0
0 0 0
0 0 0
0 0 0
0 0 0
0 0 0
0 0 0
0 0 0
0 0 0
0 0 0
0 0 0
0 0 0
0 0 0
0 0 0
0 0 0
0 0 0
0 0 0
0 0 0
0 0 0
0 0 0
0 0 0
0 0 0
0 0 0
0 0 0
0 0 0
0 0 0
0 0 0
0 0 0
0 0 0
0 0 0
0 0 0
0 0 0
0 0 0
0 0 0
0 0 0
0 0 0
0 0 0
0 0 0
0 0 0
0 0 0
0 0 0
0 0 0
0 0 0
0 0 0
128 128 128
128 128 128
128 128 128
128 128 128
128 128 128
128 128 128
128 128 128
128 128 128
128 128 128
128 128 128
128 128 128
128 128 128
128 128 128
128 128 128
128 128 128
128 128 128
128 128 128
128 128 128
128 128 128
128 128 128
128 128 128
128 128 128
128 128 128
128 128 128
128 128 128
128 128 128
128 128 128
128 128 128
128 128 128
128 128 128
128 128 128
128 128 128
128 128 128
128 128 128
128 128 128
128 128 128
128 128 128
128 128 128
128 128 128
128 128 128
128 128 128
128 128 128
128 128 128
128 128 128
128 128 128
128 128 128
128 128 128
128 128 128
128 128 128
128 128 128
128 128 128
128 128 128
128 128 128
128 128 128
128 128 128
128 128 128
128 128 128
128 128 128
128 128 128
128 128 128
128 128 128
128 128 128
128 128 128
128 128 128
128 128 128
128 128 128
128 128 128
128 128 128
128 128 128
128 128 128
128 128 128
128 128 128
128 128 128
128 128 128
128 128 128
128 128 128
128 128 128
128 128 128
128 128 128
128 128 128
128 128 128
128 128 128
128 128 128
128 128 128
128 128 128
0 0 0
0 0 0
0 0 0
0 0 0
0 0 0
0 0 0
0 0 0
0 0 0
0 0 0
0 0 0
0 0 0
0 0 0
0 0 0
0 0 0
0 0 0
0 0 0
0 0 0
0 0 0
0 0 0
0 0 0
0 0 0
0 0 0
0 0 0
0 0 0
0 0 0
0 0 0
0 0 0
0 0 0
0 0 0
0 0 0
0 0 0
0 0 0
0 0 0
0 0 0
0 0 0
0 0 0
0 0 0
0 0 0
0 0 0
0 0 0
128 128 128
0 0 0
0 0 0
0 0 0
0 0 0
0 0 0
0 0 0
0 0 0
0 0 0
0 0 0
0 0 0
0 0 0
0 0 0
0 0 0
0 0 0
0 0 0
0 0 0
0 0 0
0 0 0
0 0 0
0 0 0
0 0 0
0 0 0
0 0 0
0 0 0
0 0 0
0 0 0
0 0 0
0 0 0
0 0 0
0 0 0
0 0 0
0 0 0
0 0 0
0 0 0
0 0 0
0 0 0
0 0 0
0 0 0
0 0 0
0 0 0
0 0 0
0 0 0
0 0 0
0 0 0
0 0 0
0 0 0
0 0 0
0 0 0
0 0 0
0 0 0
0 0 0
0 0 0
0 0 0
0 0 0
0 0 0
0 0 0
0 0 0
0 0 0
0 0 0
0 0 0
0 0 0
0 0 0
0 0 0
0 0 0
0 0 0
0 0 0
0 0 0
0 0 0
0 0 0
0 0 0
0 0 0
0 0 0
0 0 0
0 0 0
0 0 0
128 128 128
128 128 128
128 128 128
128 128 128
128 128 128
128 128 128
128 128 128
128 128 128
128 128 128
128 128 128
128 128 128
128 128 128
128 128 128
128 128 128
128 128 128
128 128 128
128 128 128
128 128 128
128 128 128
128 128 128
128 128 128
128 128 128
128 128 128
128 128 128
128 128 128
128 128 128
128 128 128
128 128 128
128 128 128
128 128 128
128 128 128
128 128 128
128 128 128
128 128 128
128 128 128
128 128 128
128 128 128
128 128 128
128 128 128
128 128 128
128 128 128
128 128 128
128 128 128
128 128 128
128 128 128
128 128 128
128 128 128
128 128 128
128 128 128
128 128 128
128 128 128
128 128 128
128 128 128
128 128 128
128 128 128
128 128 128
128 128 128
128 128 128
128 128 128
128 128 128
128 128 128
128 128 128
128 128 128
128 128 128
128 128 128
128 128 128
128 128 128
128 128 128
128 128 128
128 128 128
128 128 128
128 128 128
128 128 128
128 128 128
128 128 128
128 128 128
128 128 128
128 128 128
128 128 128
128 128 128
128 128 128
128 128 128
128 128 128
0 0 0
0 0 0
0 0 0
0 0 0
0 0 0
0 0 0
0 0 0
0 0 0
0 0 0
0 0 0
0 0 0
0 0 0
0 0 0
0 0 0
0 0 0
0 0 0
0 0 0
0 0 0
0 0 0
0 0 0
0 0 0
0 0 0
0 0 0
0 0 0
0 0 0
0 0 0
0 0 0
0 0 0
0 0 0
0 0 0
0 0 0
0 0 0
0 0 0
0 0 0
0 0 0
0 0 0
0 0 0
0 0 0
0 0 0
0 0 0
128 128 128
128 128 128
0 0 0
0 0 0
0 0 0
0 0 0
0 0 0
0 0 0
0 0 0
0 0 0
0 0 0
0 0 0
0 0 0
0 0 0
0 0 0
0 0 0
0 0 0
0 0 0
0 0 0
0 0 0
0 0 0
0 0 0
0 0 0
0 0 0
0 0 0
0 0 0
0 0 0
0 0 0
0 0 0
0 0 0
0 0 0
0 0 0
0 0 0
0 0 0
0 0 0
0 0 0
0 0 0
0 0 0
0 0 0
0 0 0
0 0 0
0 0 0
0 0 0
0 0 0
0 0 0
0 0 0
0 0 0
0 0 0
0 0 0
0 0 0
0 0 0
0 0 0
0 0 0
0 0 0
0 0 0
0 0 0
0 0 0
0 0 0
0 0 0
0 0 0
0 0 0
0 0 0
0 0 0
0 0 0
0 0 0
0 0 0
0 0 0
0 0 0
0 0 0
0 0 0
0 0 0
0 0 0
0 0 0
0 0 0
0 0 0
0 0 0
0 0 0
0 0 0
128 128 128
128 128 128
128 128 128
128 128 128
128 128 128
128 128 128
128 128 128
128 128 128
128 128 128
128 128 128
128 128 128
128 128 128
128 128 128
128 128 128
128 128 128
128 128 128
128 128 128
128 128 128
128 128 128
128 128 128
128 128 128
128 128 128
128 128 128
128 128 128
128 128 128
128 128 128
128 128 128
128 128 128
128 128 128
128 128 128
128 128 128
128 128 128
128 128 128
128 128 128
128 128 128
128 128 128
128 128 128
128 128 128
128 128 128
128 128 128
128 128 128
128 128 128
128 128 128
128 128 128
128 128 128
128 128 128
128 128 128
128 128 128
128 128 128
128 128 128
128 128 128
128 128 128
128 128 128
128 128 128
128 128 128
128 128 128
128 128 128
128 128 128
128 128 128
128 128 128
128 128 128
128 128 128
128 128 128
128 128 128
128 128 128
128 128 128
128 128 128
128 128 128
128 128 128
128 128 128
128 128 128
128 128 128
128 128 128
128 128 128
128 128 128
128 128 128
128 128 128
128 128 128
128 128 128
128 128 128
128 128 128
0 0 0
0 0 0
0 0 0
0 0 0
0 0 0
0 0 0
0 0 0
0 0 0
0 0 0
0 0 0
0 0 0
0 0 0
0 0 0
0 0 0
0 0 0
0 0 0
0 0 0
0 0 0
0 0 0
0 0 0
0 0 0
0 0 0
0 0 0
0 0 0
0 0 0
0 0 0
0 0 0
0 0 0
0 0 0
0 0 0
0 0 0
0 0 0
0 0 0
0 0 0
0 0 0
0 0 0
128 128 128
128 128 128
0 0 0
0 0 0
128 128 128
128 128 128
0 0 0
0 0 0
0 0 0
0 0 0
0 0 0
0 0 0
0 0 0
0 0 0
0 0 0
0 0 0
0 0 0
0 0 0
0 0 0
0 0 0
0 0 0
0 0 0
0 0 0
0 0 0
0 0 0
0 0 0
0 0 0
0 0 0
0 0 0
0 0 0
0 0 0
0 0 0
0 0 0
0 0 0
0 0 0
0 0 0
0 0 0
0 0 0
0 0 0
0 0 0
0 0 0
0 0 0
0 0 0
0 0 0
0 0 0
0 0 0
0 0 0
0 0 0
0 0 0
0 0 0
0 0 0
0 0 0
0 0 0
0 0 0
0 0 0
0 0 0
0 0 0
0 0 0
0 0 0
0 0 0
0 0 0
0 0 0
0 0 0
0 0 0
0 0 0
0 0 0
0 0 0
0 0 0
0 0 0
0 0 0
0 0 0
0 0 0
0 0 0
0 0 0
0 0 0
0 0 0
0 0 0
0 0 0
0 0 0
0 0 0
0 0 0
0 0 0
0 0 0
0 0 0
0 0 0
128 128 128
128 128 128
128 128 128
128 128 128
128 128 128
128 128 128
128 128 128
128 128 128
128 128 128
128 128 128
128 128 128
128 128 128
128 128 128
128 128 128
128 128 128
128 128 128
128 128 128
128 128 128
128 128 128
128 128 128
128 128 128
128 128 128
128 128 128
128 128 128
128 128 128
128 128 128
128 128 128
128 128 128
128 128 128
128 128 128
128 128 128
128 128 128
128 128 128
128 128 128
128 128 128
128 128 128
128 128 128
128 128 128
128 128 128
128 128 128
128 128 128
128 128 128
128 128 128
128 128 128
128 128 128
128 128 128
128 128 128
128 128 128
128 128 128
128 128 128
128 128 128
128 128 128
128 128 128
128 128 128
128 128 128
128 128 128
128 128 128
128 128 128
128 128 128
128 128 128
128 128 128
128 128 128
128 128 128
128 128 128
128 128 128
128 128 128
128 128 128
128 128 128
128 128 128
128 128 128
128 128 128
128 128 128
128 128 128
128 128 128
128 128 128
128 128 128
128 128 128
0 0 0
0 0 0
0 0 0
0 0 0
0 0 0
0 0 0
0 0 0
0 0 0
0 0 0
0 0 0
0 0 0
0 0 0
0 0 0
0 0 0
0 0 0
0 0 0
0 0 0
0 0 0
0 0 0
0 0 0
0 0 0
0 0 0
0 0 0
0 0 0
0 0 0
0 0 0
0 0 0
0 0 0
0 0 0
0 0 0
0 0 0
0 0 0
0 0 0
0 0 0
128 128 128
128 128 128
0 0 0
0 0 0
128 128 128
128 128 128
0 0 0
0 0 0
0 0 0
128 128 128
128 128 128
0 0 0
0 0 0
0 0 0
0 0 0
0 0 0
0 0 0
0 0 0
0 0 0
0 0 0
0 0 0
0 0 0
0 0 0
0 0 0
0 0 0
0 0 0
0 0 0
0 0 0
0 0 0
0 0 0
0 0 0
0 0 0
0 0 0
0 0 0
0 0 0
0 0 0
0 0 0
0 0 0
0 0 0
0 0 0
0 0 0
0 0 0
0 0 0
0 0 0
0 0 0
0 0 0
0 0 0
0 0 0
0 0 0
0 0 0
0 0 0
0 0 0
0 0 0
0 0 0
0 0 0
0 0 0
0 0 0
0 0 0
0 0 0
0 0 0
0 0 0
0 0 0
0 0 0
0 0 0
0 0 0
0 0 0
0 0 0
0 0 0
0 0 0
0 0 0
0 0 0
0 0 0
0 0 0
0 0 0
0 0 0
0 0 0
0 0 0
0 0 0
0 0 0
0 0 0
0 0 0
0 0 0
0 0 0
0 0 0
0 0 0
0 0 0
0 0 0
0 0 0
0 0 0
0 0 0
128 128 128
128 128 128
128 128 128
128 128 128
128 128 128
128 128 128
128 128 128
128 128 128
128 128 128
128 128 128
128 128 128
128 128 128
128 128 128
128 128 128
128 128 128
128 128 128
128 128 128
128 128 128
128 128 128
128 128 128
128 128 128
128 128 128
128 128 128
128 128 128
128 128 128
128 128 128
128 128 128
128 128 128
128 128 128
128 128 128
128 128 128
128 128 128
128 128 128
128 128 128
128 128 128
128 128 128
128 128 128
128 128 128
128 128 128
128 128 128
128 128 128
128 128 128
128 128 128
128 128 128
128 128 128
128 128 128
128 128 128
128 128 128
128 128 128
128 128 128
128 128 128
128 128 128
128 128 128
128 128 128
128 128 128
128 128 128
128 128 128
128 128 128
128 128 128
128 128 128
128 128 128
128 128 128
128 128 128
128 128 128
128 128 128
128 128 128
128 128 128
128 128 128
128 128 128
128 128 128
128 128 128
128 128 128
128 128 128
128 128 128
128 128 128
0 0 0
0 0 0
0 0 0
0 0 0
0 0 0
0 0 0
0 0 0
0 0 0
0 0 0
0 0 0
0 0 0
0 0 0
0 0 0
0 0 0
0 0 0
0 0 0
0 0 0
0 0 0
0 0 0
0 0 0
0 0 0
0 0 0
0 0 0
0 0 0
0 0 0
0 0 0
0 0 0
0 0 0
0 0 0
0 0 0
0 0 0
0 0 0
0 0 0
0 0 0
0 0 0
128 128 128
0 0 0
0 0 0
0 0 0
128 128 128
128 128 128
0 0 0
0 0 0
128 128 128
128 128 128
128 128 128
0 0 0
0 0 0
0 0 0
0 0 0
0 0 0
0 0 0
0 0 0
0 0 0
0 0 0
0 0 0
0 0 0
0 0 0
0 0 0
0 0 0
0 0 0
0 0 0
0 0 0
0 0 0
0 0 0
0 0 0
0 0 0
0 0 0
0 0 0
0 0 0
0 0 0
0 0 0
0 0 0
0 0 0
0 0 0
0 0 0
0 0 0
0 0 0
0 0 0
0 0 0
0 0 0
0 0 0
0 0 0
0 0 0
0 0 0
0 0 0
0 0 0
0 0 0
0 0 0
0 0 0
0 0 0
0 0 0
0 0 0
0 0 0
0 0 0
0 0 0
0 0 0
0 0 0
0 0 0
0 0 0
0 0 0
0 0 0
0 0 0
0 0 0
0 0 0
0 0 0
0 0 0
0 0 0
0 0 0
0 0 0
0 0 0
0 0 0
0 0 0
0 0 0
0 0 0
0 0 0
0 0 0
0 0 0
0 0 0
0 0 0
0 0 0
0 0 0
0 0 0
0 0 0
0 0 0
0 0 0
0 0 0
128 128 128
128 128 128
128 128 128
128 128 128
128 128 128
128 128 128
128 128 128
128 128 128
128 128 128
128 128 128
128 128 128
128 128 128
128 128 128
128 128 128
128 128 128
128 128 128
128 128 128
128 128 128
128 128 128
128 128 128
128 128 128
128 128 128
128 128 128
128 128 128
128 128 128
128 128 128
128 128 128
128 128 128
128 128 128
128 128 128
128 128 128
128 128 128
128 128 128
128 128 128
128 128 128
128 128 128
128 128 128
128 128 128
128 128 128
128 128 128
128 128 128
128 128 128
128 128 128
128 128 128
128 128 128
128 128 128
128 128 128
128 128 128
128 128 128
128 128 128
128 128 128
128 128 128
128 128 128
128 128 128
128 128 128
128 128 128
128 128 128
128 128 128
128 128 128
128 128 128
128 128 128
128 128 128
128 128 128
128 128 128
128 128 128
128 128 128
128 128 128
128 128 128
128 128 128
128 128 128
128 128 128
0 0 0
0 0 0
0 0 0
0 0 0
0 0 0
0 0 0
0 0 0
0 0 0
0 0 0
0 0 0
0 0 0
0 0 0
0 0 0
0 0 0
0 0 0
0 0 0
0 0 0
0 0 0
0 0 0
0 0 0
0 0 0
0 0 0
0 0 0
0 0 0
0 0 0
0 0 0
0 0 0
0 0 0
0 0 0
0 0 0
0 0 0
0 0 0
0 0 0
128 128 128
0 0 0
0 0 0
0 0 0
128 128 128
128 128 128
0 0 0
0 0 0
128 128 128
0 0 0
0 0 0
0 0 0
0 0 0
0 0 0
0 0 0
0 0 0
0 0 0
0 0 0
0 0 0
0 0 0
0 0 0
0 0 0
0 0 0
0 0 0
0 0 0
0 0 0
0 0 0
0 0 0
0 0 0
0 0 0
0 0 0
0 0 0
0 0 0
0 0 0
0 0 0
0 0 0
0 0 0
0 0 0
0 0 0
0 0 0
0 0 0
0 0 0
0 0 0
0 0 0
0 0 0
0 0 0
0 0 0
0 0 0
0 0 0
0 0 0
0 0 0
0 0 0
0 0 0
0 0 0
0 0 0
0 0 0
0 0 0
0 0 0
0 0 0
0 0 0
0 0 0
0 0 0
0 0 0
0 0 0
0 0 0
0 0 0
0 0 0
0 0 0
0 0 0
0 0 0
0 0 0
0 0 0
0 0 0
0 0 0
0 0 0
0 0 0
0 0 0
0 0 0
0 0 0
0 0 0
0 0 0
0 0 0
0 0 0
0 0 0
0 0 0
0 0 0
0 0 0
0 0 0
0 0 0
0 0 0
0 0 0
0 0 0
0 0 0
0 0 0
0 0 0
0 0 0
0 0 0
0 0 0
128 128 128
128 128 128
128 128 128
128 128 128
128 128 128
128 128 128
128 128 128
128 128 128
128 128 128
128 128 128
128 128 128
128 128 128
128 128 128
128 128 128
128 128 128
128 128 128
128 128 128
128 128 128
128 128 128
128 128 128
128 128 128
128 128 128
128 128 128
128 128 128
128 128 128
128 128 128
128 128 128
128 128 128
128 128 128
128 128 128
128 128 128
128 128 128
128 128 128
128 128 128
128 128 128
128 128 128
128 128 128
128 128 128
128 128 128
128 128 128
128 128 128
128 128 128
128 128 128
128 128 128
128 128 128
128 128 128
128 128 128
128 128 128
128 128 128
128 128 128
128 128 128
128 128 128
128 128 128
128 128 128
128 128 128
128 128 128
128 128 128
128 128 128
128 128 128
128 128 128
128 128 128
128 128 128
128 128 128
128 128 128
128 128 128
128 128 128
128 128 128
128 128 128
0 0 0
0 0 0
0 0 0
0 0 0
0 0 0
0 0 0
0 0 0
0 0 0
0 0 0
0 0 0
0 0 0
0 0 0
0 0 0
0 0 0
0 0 0
0 0 0
0 0 0
0 0 0
0 0 0
0 0 0
0 0 0
0 0 0
0 0 0
0 0 0
0 0 0
0 0 0
0 0 0
0 0 0
0 0 0
0 0 0
128 128 128
0 0 0
0 0 0
0 0 0
0 0 0
0 0 0
0 0 0
0 0 0
128 128 128
128 128 128
0 0 0
0 0 0
128 128 128
0 0 0
0 0 0
0 0 0
0 0 0
0 0 0
0 0 0
0 0 0
0 0 0
0 0 0
0 0 0
0 0 0
0 0 0
0 0 0
0 0 0
0 0 0
0 0 0
0 0 0
0 0 0
0 0 0
0 0 0
0 0 0
0 0 0
0 0 0
0 0 0
0 0 0
0 0 0
0 0 0
0 0 0
0 0 0
0 0 0
0 0 0
0 0 0
0 0 0
0 0 0
0 0 0
0 0 0
0 0 0
0 0 0
0 0 0
0 0 0
0 0 0
0 0 0
0 0 0
0 0 0
0 0 0
0 0 0
0 0 0
0 0 0
0 0 0
0 0 0
0 0 0
0 0 0
0 0 0
0 0 0
0 0 0
0 0 0
0 0 0
0 0 0
0 0 0
0 0 0
0 0 0
0 0 0
0 0 0
0 0 0
0 0 0
0 0 0
0 0 0
0 0 0
0 0 0
0 0 0
0 0 0
0 0 0
0 0 0
0 0 0
0 0 0
0 0 0
0 0 0
0 0 0
0 0 0
0 0 0
0 0 0
0 0 0
0 0 0
0 0 0
0 0 0
0 0 0
0 0 0
0 0 0
0 0 0
0 0 0
128 128 128
128 128 128
128 128 128
128 128 128
128 128 128
128 128 128
128 128 128
128 128 128
128 128 128
128 128 128
128 128 128
128 128 128
128 128 128
128 128 128
128 128 128
128 128 128
128 128 128
128 128 128
128 128 128
128 128 128
128 128 128
128 128 128
128 128 128
128 128 128
128 128 128
128 128 128
128 128 128
128 128 128
128 128 128
128 128 128
128 128 128
128 128 128
128 128 128
128 128 128
128 128 128
128 128 128
128 128 128
128 128 128
128 128 128
128 128 128
128 128 128
128 128 128
128 128 128
128 128 128
128 128 128
128 128 128
128 128 128
128 128 128
128 128 128
128 128 128
128 128 128
128 128 128
128 128 128
128 128 128
128 128 128
128 128 128
128 128 128
128 128 128
128 128 128
128 128 128
128 128 128
128 128 128
128 128 128
128 128 128
128 128 128
0 0 0
0 0 0
0 0 0
0 0 0
0 0 0
0 0 0
0 0 0
0 0 0
0 0 0
0 0 0
0 0 0
0 0 0
0 0 0
0 0 0
0 0 0
0 0 0
0 0 0
0 0 0
0 0 0
0 0 0
0 0 0
0 0 0
0 0 0
0 0 0
0 0 0
0 0 0
0 0 0
0 0 0
0 0 0
0 0 0
0 0 0
128 128 128
128 128 128
0 0 0
0 0 0
0 0 0
128 128 128
0 0 0
0 0 0
0 0 0
128 128 128
128 128 128
0 0 0
0 0 0
0 0 0
0 0 0
0 0 0
0 0 0
0 0 0
0 0 0
0 0 0
0 0 0
0 0 0
0 0 0
0 0 0
0 0 0
0 0 0
0 0 0
0 0 0
0 0 0
0 0 0
0 0 0
0 0 0
0 0 0
0 0 0
0 0 0
0 0 0
0 0 0
0 0 0
0 0 0
0 0 0
0 0 0
0 0 0
0 0 0
0 0 0
0 0 0
0 0 0
0 0 0
0 0 0
0 0 0
0 0 0
0 0 0
0 0 0
0 0 0
0 0 0
0 0 0
0 0 0
0 0 0
0 0 0
0 0 0
0 0 0
0 0 0
0 0 0
0 0 0
0 0 0
0 0 0
0 0 0
0 0 0
0 0 0
0 0 0
0 0 0
0 0 0
0 0 0
0 0 0
0 0 0
0 0 0
0 0 0
0 0 0
0 0 0
0 0 0
0 0 0
0 0 0
0 0 0
0 0 0
0 0 0
0 0 0
0 0 0
0 0 0
0 0 0
0 0 0
0 0 0
0 0 0
0 0 0
0 0 0
0 0 0
0 0 0
0 0 0
0 0 0
0 0 0
0 0 0
0 0 0
0 0 0
0 0 0
0 0 0
0 0 0
0 0 0
0 0 0
128 128 128
128 128 128
128 128 128
128 128 128
128 128 128
128 128 128
128 128 128
128 128 128
128 128 128
128 128 128
128 128 128
128 128 128
128 128 128
128 128 128
128 128 128
128 128 128
128 128 128
128 128 128
128 128 128
128 128 128
128 128 128
128 128 128
128 128 128
128 128 128
128 128 128
128 128 128
128 128 128
128 128 128
128 128 128
128 128 128
128 128 128
128 128 128
128 128 128
128 128 128
128 128 128
128 128 128
128 128 128
128 128 128
128 128 128
128 128 128
128 128 128
128 128 128
128 128 128
128 128 128
128 128 128
128 128 128
128 128 128
128 128 128
128 128 128
128 128 128
128 128 128
128 128 128
128 128 128
128 128 128
128 128 128
128 128 128
128 128 128
128 128 128
128 128 128
128 128 128
128 128 128
0 0 0
0 0 0
0 0 0
0 0 0
0 0 0
0 0 0
0 0 0
0 0 0
0 0 0
0 0 0
0 0 0
0 0 0
0 0 0
0 0 0
0 0 0
0 0 0
0 0 0
0 0 0
0 0 0
0 0 0
0 0 0
0 0 0
0 0 0
0 0 0
0 0 0
0 0 0
0 0 0
0 0 0
0 0 0
0 0 0
0 0 0
0 0 0
0 0 0
0 0 0
128 128 128
0 0 0
0 0 0
0 0 0
0 0 0
0 0 0
0 0 0
0 0 0
0 0 0
0 0 0
0 0 0
0 0 0
0 0 0
0 0 0
0 0 0
0 0 0
0 0 0
0 0 0
0 0 0
0 0 0
0 0 0
0 0 0
0 0 0
0 0 0
0 0 0
0 0 0
0 0 0
0 0 0
0 0 0
0 0 0
0 0 0
0 0 0
0 0 0
0 0 0
0 0 0
0 0 0
0 0 0
0 0 0
0 0 0
0 0 0
0 0 0
0 0 0
0 0 0
0 0 0
0 0 0
0 0 0
0 0 0
0 0 0
0 0 0
0 0 0
0 0 0
0 0 0
0 0 0
0 0 0
0 0 0
0 0 0
0 0 0
0 0 0
0 0 0
0 0 0
0 0 0
0 0 0
0 0 0
0 0 0
0 0 0
0 0 0
0 0 0
0 0 0
0 0 0
0 0 0
0 0 0
0 0 0
0 0 0
0 0 0
0 0 0
0 0 0
0 0 0
0 0 0
0 0 0
0 0 0
0 0 0
0 0 0
0 0 0
0 0 0
0 0 0
0 0 0
0 0 0
0 0 0
0 0 0
0 0 0
0 0 0
0 0 0
0 0 0
0 0 0
0 0 0
0 0 0
0 0 0
0 0 0
0 0 0
0 0 0
0 0 0
0 0 0
0 0 0
0 0 0
0 0 0
0 0 0
0 0 0
128 128 128
128 128 128
128 128 128
128 128 128
128 128 128
128 128 128
128 128 128
128 128 128
128 128 128
128 128 128
128 128 128
128 128 128
128 128 128
128 128 128
128 128 128
128 128 128
128 128 128
128 128 128
128 128 128
128 128 128
128 128 128
128 128 128
128 128 128
128 128 128
128 128 128
128 128 128
128 128 128
128 128 128
128 128 128
128 128 128
128 128 128
128 128 128
128 128 128
128 128 128
128 128 128
128 128 128
128 128 128
128 128 128
128 128 128
128 128 128
128 128 128
128 128 128
128 128 128
128 128 128
128 128 128
128 128 128
128 128 128
128 128 128
128 128 128
128 128 128
128 128 128
128 128 128
128 128 128
128 128 128
128 128 128
128 128 128
128 128 128
0 0 0
0 0 0
0 0 0
0 0 0
0 0 0
0 0 0
0 0 0
0 0 0
0 0 0
0 0 0
0 0 0
0 0 0
0 0 0
0 0 0
0 0 0
0 0 0
0 0 0
0 0 0
0 0 0
0 0 0
0 0 0
0 0 0
0 0 0
0 0 0
0 0 0
0 0 0
0 0 0
0 0 0
0 0 0
0 0 0
0 0 0
0 0 0
0 0 0
0 0 0
0 0 0
128 128 128
0 0 0
0 0 0
0 0 0
0 0 0
0 0 0
0 0 0
0 0 0
0 0 0
0 0 0
0 0 0
0 0 0
0 0 0
0 0 0
0 0 0
0 0 0
0 0 0
0 0 0
0 0 0
0 0 0
0 0 0
0 0 0
0 0 0
0 0 0
0 0 0
0 0 0
0 0 0
0 0 0
0 0 0
0 0 0
0 0 0
0 0 0
0 0 0
0 0 0
0 0 0
0 0 0
0 0 0
0 0 0
0 0 0
0 0 0
0 0 0
0 0 0
0 0 0
0 0 0
0 0 0
0 0 0
0 0 0
0 0 0
0 0 0
0 0 0
0 0 0
0 0 0
0 0 0
0 0 0
0 0 0
0 0 0
0 0 0
0 0 0
0 0 0
0 0 0
0 0 0
0 0 0
0 0 0
0 0 0
0 0 0
0 0 0
0 0 0
0 0 0
0 0 0
0 0 0
0 0 0
0 0 0
0 0 0
0 0 0
0 0 0
0 0 0
0 0 0
0 0 0
0 0 0
0 0 0
0 0 0
0 0 0
0 0 0
0 0 0
0 0 0
0 0 0
0 0 0
0 0 0
0 0 0
0 0 0
0 0 0
0 0 0
0 0 0
0 0 0
0 0 0
0 0 0
0 0 0
0 0 0
0 0 0
0 0 0
0 0 0
0 0 0
0 0 0
0 0 0
0 0 0
0 0 0
0 0 0
0 0 0
0 0 0
0 0 0
128 128 128
128 128 128
128 128 128
128 128 128
128 128 128
128 128 128
128 128 128
128 128 128
128 128 128
128 128 128
128 128 128
128 128 128
128 128 128
128 128 128
128 128 128
128 128 128
128 128 128
128 128 128
128 128 128
128 128 128
128 128 128
128 128 128
128 128 128
128 128 128
128 128 128
128 128 128
128 128 128
128 128 128
128 128 128
128 128 128
128 128 128
128 128 128
128 128 128
128 128 128
128 128 128
128 128 128
128 128 128
128 128 128
128 128 128
128 128 128
128 128 128
128 128 128
128 128 128
128 128 128
128 128 128
128 128 128
128 128 128
128 128 128
128 128 128
128 128 128
128 128 128
128 128 128
128 128 128
0 0 0
0 0 0
0 0 0
0 0 0
0 0 0
0 0 0
0 0 0
0 0 0
0 0 0
0 0 0
0 0 0
0 0 0
0 0 0
0 0 0
0 0 0
0 0 0
0 0 0
0 0 0
0 0 0
0 0 0
0 0 0
0 0 0
0 0 0
0 0 0
0 0 0
0 0 0
0 0 0
0 0 0
0 0 0
0 0 0
0 0 0
0 0 0
0 0 0
0 0 0
0 0 0
0 0 0
0 0 0
128 128 128
0 0 0
0 0 0
0 0 0
0 0 0
0 0 0
0 0 0
0 0 0
0 0 0
0 0 0
0 0 0
0 0 0
0 0 0
0 0 0
0 0 0
0 0 0
0 0 0
0 0 0
0 0 0
0 0 0
0 0 0
0 0 0
0 0 0
0 0 0
0 0 0
0 0 0
0 0 0
0 0 0
0 0 0
0 0 0
0 0 0
0 0 0
0 0 0
0 0 0
0 0 0
0 0 0
0 0 0
0 0 0
0 0 0
0 0 0
0 0 0
0 0 0
0 0 0
0 0 0
0 0 0
0 0 0
0 0 0
0 0 0
0 0 0
0 0 0
0 0 0
0 0 0
0 0 0
0 0 0
0 0 0
0 0 0
0 0 0
0 0 0
0 0 0
0 0 0
0 0 0
0 0 0
0 0 0
0 0 0
0 0 0
0 0 0
0 0 0
0 0 0
0 0 0
0 0 0
0 0 0
0 0 0
0 0 0
0 0 0
0 0 0
0 0 0
0 0 0
0 0 0
0 0 0
0 0 0
0 0 0
0 0 0
0 0 0
0 0 0
0 0 0
0 0 0
0 0 0
0 0 0
0 0 0
0 0 0
0 0 0
0 0 0
0 0 0
0 0 0
0 0 0
0 0 0
0 0 0
0 0 0
0 0 0
0 0 0
0 0 0
0 0 0
0 0 0
0 0 0
0 0 0
0 0 0
0 0 0
0 0 0
0 0 0
0 0 0
0 0 0
0 0 0
0 0 0
128 128 128
128 128 128
128 128 128
128 128 128
128 128 128
128 128 128
128 128 128
128 128 128
128 128 128
128 128 128
128 128 128
128 128 128
128 128 128
128 128 128
128 128 128
128 128 128
128 128 128
128 128 128
128 128 128
128 128 128
128 128 128
128 128 128
128 128 128
128 128 128
128 128 128
128 128 128
128 128 128
128 128 128
128 128 128
128 128 128
128 128 128
128 128 128
128 128 128
128 128 128
128 128 128
128 128 128
128 128 128
128 128 128
128 128 128
128 128 128
128 128 128
128 128 128
128 128 128
128 128 128
128 128 128
128 128 128
128 128 128
128 128 128
0 0 0
0 0 0
0 0 0
0 0 0
0 0 0
0 0 0
0 0 0
0 0 0
0 0 0
0 0 0
0 0 0
0 0 0
0 0 0
0 0 0
0 0 0
0 0 0
0 0 0
0 0 0
0 0 0
0 0 0
0 0 0
0 0 0
0 0 0
0 0 0
0 0 0
0 0 0
0 0 0
0 0 0
0 0 0
0 0 0
0 0 0
0 0 0
0 0 0
0 0 0
0 0 0
0 0 0
0 0 0
0 0 0
0 0 0
0 0 0
0 0 0
0 0 0
0 0 0
0 0 0
0 0 0
0 0 0
0 0 0
0 0 0
0 0 0
0 0 0
0 0 0
0 0 0
0 0 0
0 0 0
0 0 0
0 0 0
0 0 0
0 0 0
0 0 0
0 0 0
0 0 0
0 0 0
0 0 0
0 0 0
0 0 0
0 0 0
0 0 0
0 0 0
0 0 0
0 0 0
0 0 0
0 0 0
0 0 0
0 0 0
0 0 0
0 0 0
0 0 0
0 0 0
0 0 0
0 0 0
0 0 0
0 0 0
0 0 0
0 0 0
0 0 0
0 0 0
0 0 0
0 0 0
0 0 0
0 0 0
0 0 0
0 0 0
0 0 0
0 0 0
0 0 0
0 0 0
0 0 0
0 0 0
0 0 0
0 0 0
0 0 0
0 0 0
0 0 0
0 0 0
0 0 0
0 0 0
0 0 0
0 0 0
0 0 0
0 0 0
0 0 0
0 0 0
0 0 0
0 0 0
0 0 0
0 0 0
0 0 0
0 0 0
0 0 0
0 0 0
0 0 0
0 0 0
0 0 0
0 0 0
0 0 0
0 0 0
0 0 0
0 0 0
0 0 0
0 0 0
0 0 0
0 0 0
0 0 0
0 0 0
0 0 0
0 0 0
0 0 0
0 0 0
0 0 0
0 0 0
0 0 0
0 0 0
0 0 0
0 0 0
0 0 0
0 0 0
0 0 0
0 0 0
0 0 0
0 0 0
0 0 0
0 0 0
0 0 0
0 0 0
128 128 128
128 128 128
128 128 128
128 128 128
128 128 128
128 128 128
128 128 128
128 128 128
128 128 128
128 128 128
128 128 128
128 128 128
128 128 128
128 128 128
128 128 128
128 128 128
128 128 128
128 128 128
128 128 128
128 128 128
128 128 128
128 128 128
128 128 128
128 128 128
128 128 128
128 128 128
128 128 128
128 128 128
128 128 128
128 128 128
128 128 128
128 128 128
128 128 128
128 128 128
128 128 128
128 128 128
128 128 128
128 128 128
128 128 128
128 128 128
128 128 128
128 128 128
128 128 128
0 0 0
0 0 0
0 0 0
0 0 0
0 0 0
0 0 0
0 0 0
0 0 0
0 0 0
0 0 0
0 0 0
0 0 0
0 0 0
0 0 0
0 0 0
0 0 0
0 0 0
0 0 0
0 0 0
0 0 0
0 0 0
0 0 0
0 0 0
0 0 0
0 0 0
0 0 0
0 0 0
0 0 0
0 0 0
0 0 0
0 0 0
0 0 0
0 0 0
0 0 0
0 0 0
0 0 0
0 0 0
0 0 0
0 0 0
0 0 0
0 0 0
0 0 0
0 0 0
0 0 0
0 0 0
0 0 0
0 0 0
0 0 0
0 0 0
0 0 0
0 0 0
0 0 0
0 0 0
0 0 0
0 0 0
0 0 0
0 0 0
0 0 0
0 0 0
0 0 0
0 0 0
0 0 0
0 0 0
0 0 0
0 0 0
0 0 0
0 0 0
0 0 0
0 0 0
0 0 0
0 0 0
0 0 0
0 0 0
0 0 0
0 0 0
0 0 0
0 0 0
0 0 0
0 0 0
0 0 0
0 0 0
0 0 0
0 0 0
0 0 0
0 0 0
0 0 0
0 0 0
0 0 0
0 0 0
0 0 0
0 0 0
0 0 0
0 0 0
0 0 0
0 0 0
0 0 0
0 0 0
0 0 0
0 0 0
0 0 0
0 0 0
0 0 0
0 0 0
0 0 0
0 0 0
0 0 0
0 0 0
0 0 0
0 0 0
0 0 0
0 0 0
0 0 0
0 0 0
0 0 0
0 0 0
0 0 0
0 0 0
0 0 0
0 0 0
0 0 0
0 0 0
0 0 0
0 0 0
0 0 0
0 0 0
0 0 0
0 0 0
0 0 0
0 0 0
0 0 0
0 0 0
0 0 0
0 0 0
0 0 0
0 0 0
0 0 0
0 0 0
0 0 0
0 0 0
0 0 0
0 0 0
0 0 0
0 0 0
0 0 0
0 0 0
0 0 0
0 0 0
0 0 0
0 0 0
0 0 0
0 0 0
0 0 0
0 0 0
0 0 0
0 0 0
0 0 0
0 0 0
0 0 0
0 0 0
0 0 0
0 0 0
128 128 128
128 128 128
128 128 128
128 128 128
128 128 128
128 128 128
128 128 128
128 128 128
128 128 128
128 128 128
128 128 128
128 128 128
128 128 128
128 128 128
128 128 128
128 128 128
128 128 128
128 128 128
128 128 128
128 128 128
128 128 128
128 128 128
128 128 128
128 128 128
128 128 128
128 128 128
128 128 128
128 128 128
128 128 128
128 128 128
128 128 128
128 128 128
128 128 128
128 128 128
128 128 128
128 128 128
0 0 0
0 0 0
0 0 0
0 0 0
0 0 0
0 0 0
0 0 0
0 0 0
0 0 0
0 0 0
0 0 0
0 0 0
0 0 0
0 0 0
0 0 0
0 0 0
0 0 0
0 0 0
0 0 0
0 0 0
0 0 0
0 0 0
0 0 0
0 0 0
0 0 0
0 0 0
0 0 0
0 0 0
0 0 0
0 0 0
0 0 0
0 0 0
0 0 0
0 0 0
0 0 0
0 0 0
0 0 0
0 0 0
0 0 0
0 0 0
0 0 0
0 0 0
0 0 0
0 0 0
0 0 0
0 0 0
0 0 0
0 0 0
0 0 0
0 0 0
0 0 0
0 0 0
0 0 0
0 0 0
0 0 0
0 0 0
0 0 0
0 0 0
0 0 0
0 0 0
0 0 0
0 0 0
0 0 0
0 0 0
0 0 0
0 0 0
0 0 0
0 0 0
0 0 0
0 0 0
0 0 0
0 0 0
0 0 0
0 0 0
0 0 0
0 0 0
0 0 0
0 0 0
0 0 0
0 0 0
0 0 0
0 0 0
0 0 0
0 0 0
0 0 0
0 0 0
0 0 0
0 0 0
0 0 0
0 0 0
0 0 0
0 0 0
0 0 0
0 0 0
0 0 0
0 0 0
0 0 0
0 0 0
0 0 0
0 0 0
0 0 0
0 0 0
0 0 0
0 0 0
0 0 0
0 0 0
0 0 0
0 0 0
0 0 0
0 0 0
0 0 0
0 0 0
0 0 0
0 0 0
0 0 0
0 0 0
0 0 0
0 0 0
0 0 0
0 0 0
0 0 0
0 0 0
0 0 0
0 0 0
0 0 0
0 0 0
0 0 0
0 0 0
0 0 0
0 0 0
0 0 0
0 0 0
0 0 0
0 0 0
0 0 0
0 0 0
0 0 0
0 0 0
0 0 0
0 0 0
0 0 0
0 0 0
0 0 0
0 0 0
0 0 0
0 0 0
0 0 0
0 0 0
0 0 0
0 0 0
0 0 0
0 0 0
0 0 0
0 0 0
0 0 0
0 0 0
0 0 0
0 0 0
0 0 0
0 0 0
0 0 0
0 0 0
0 0 0
0 0 0
0 0 0
0 0 0
0 0 0
0 0 0
128 128 128
128 128 128
128 128 128
128 128 128
128 128 128
128 128 128
128 128 128
128 128 128
128 128 128
128 128 128
128 128 128
128 128 128
128 128 128
128 128 128
128 128 128
128 128 128
128 128 128
128 128 128
128 128 128
128 128 128
128 128 128
128 128 128
128 128 128
128 128 128
128 128 128
128 128 128
128 128 128
0 0 0
0 0 0
0 0 0
0 0 0
0 0 0
0 0 0
0 0 0
0 0 0
0 0 0
0 0 0
0 0 0
0 0 0
0 0 0
0 0 0
0 0 0
0 0 0
0 0 0
0 0 0
0 0 0
0 0 0
0 0 0
0 0 0
0 0 0
0 0 0
0 0 0
0 0 0
0 0 0
0 0 0
0 0 0
0 0 0
0 0 0
0 0 0
0 0 0
0 0 0
0 0 0
0 0 0
0 0 0
0 0 0
0 0 0
0 0 0
0 0 0
0 0 0
0 0 0
0 0 0
0 0 0
0 0 0
0 0 0
0 0 0
0 0 0
0 0 0
0 0 0
0 0 0
0 0 0
0 0 0
0 0 0
0 0 0
0 0 0
0 0 0
0 0 0
0 0 0
0 0 0
0 0 0
0 0 0
0 0 0
0 0 0
0 0 0
0 0 0
0 0 0
0 0 0
0 0 0
0 0 0
0 0 0
0 0 0
0 0 0
0 0 0
0 0 0
0 0 0
0 0 0
0 0 0
0 0 0
0 0 0
0 0 0
0 0 0
0 0 0
0 0 0
0 0 0
0 0 0
0 0 0
0 0 0
0 0 0
0 0 0
0 0 0
0 0 0
0 0 0
0 0 0
0 0 0
0 0 0
0 0 0
0 0 0
0 0 0
0 0 0
0 0 0
0 0 0
0 0 0
0 0 0
0 0 0
0 0 0
0 0 0
0 0 0
0 0 0
0 0 0
0 0 0
0 0 0
0 0 0
0 0 0
0 0 0
0 0 0
0 0 0
0 0 0
0 0 0
0 0 0
0 0 0
0 0 0
0 0 0
0 0 0
0 0 0
0 0 0
0 0 0
0 0 0
0 0 0
0 0 0
0 0 0
0 0 0
0 0 0
0 0 0
0 0 0
0 0 0
0 0 0
0 0 0
0 0 0
0 0 0
0 0 0
0 0 0
0 0 0
0 0 0
0 0 0
0 0 0
0 0 0
0 0 0
0 0 0
0 0 0
0 0 0
0 0 0
0 0 0
0 0 0
0 0 0
0 0 0
0 0 0
0 0 0
0 0 0
0 0 0
0 0 0
0 0 0
0 0 0
0 0 0
0 0 0
0 0 0
0 0 0
0 0 0
0 0 0
0 0 0
0 0 0
0 0 0
0 0 0
0 0 0
0 0 0
0 0 0
0 0 0
128 128 128
128 128 128
128 128 128
128 128 128
128 128 128
128 128 128
128 128 128
128 128 128
128 128 128
128 128 128
128 128 128
128 128 128
128 128 128
128 128 128
128 128 128
128 128 128
0 0 0
0 0 0
0 0 0
0 0 0
0 0 0
0 0 0
0 0 0
0 0 0
0 0 0
0 0 0
0 0 0
0 0 0
0 0 0
0 0 0
0 0 0
0 0 0
0 0 0
0 0 0
0 0 0
0 0 0
0 0 0
0 0 0
0 0 0
0 0 0
0 0 0
0 0 0
0 0 0
0 0 0
0 0 0
0 0 0
0 0 0
0 0 0
0 0 0
0 0 0
0 0 0
0 0 0
0 0 0
0 0 0
0 0 0
0 0 0
0 0 0
0 0 0
0 0 0
0 0 0
0 0 0
0 0 0
0 0 0
0 0 0
0 0 0
0 0 0
0 0 0
0 0 0
0 0 0
0 0 0
0 0 0
0 0 0
0 0 0
0 0 0
0 0 0
0 0 0
0 0 0
0 0 0
0 0 0
0 0 0
0 0 0
0 0 0
0 0 0
0 0 0
0 0 0
0 0 0
0 0 0
0 0 0
0 0 0
0 0 0
0 0 0
0 0 0
0 0 0
0 0 0
0 0 0
0 0 0
0 0 0
0 0 0
0 0 0
0 0 0
0 0 0
0 0 0
0 0 0
0 0 0
0 0 0
0 0 0
0 0 0
0 0 0
0 0 0
0 0 0
0 0 0
0 0 0
0 0 0
0 0 0
0 0 0
0 0 0
0 0 0
0 0 0
0 0 0
0 0 0
0 0 0
0 0 0
0 0 0
0 0 0
0 0 0
0 0 0
0 0 0
0 0 0
0 0 0
0 0 0
0 0 0
0 0 0
0 0 0
0 0 0
0 0 0
0 0 0
0 0 0
0 0 0
0 0 0
0 0 0
0 0 0
0 0 0
0 0 0
0 0 0
0 0 0
0 0 0
0 0 0
0 0 0
0 0 0
0 0 0
0 0 0
0 0 0
0 0 0
0 0 0
0 0 0
0 0 0
0 0 0
0 0 0
0 0 0
0 0 0
0 0 0
0 0 0
0 0 0
0 0 0
0 0 0
0 0 0
0 0 0
0 0 0
0 0 0
0 0 0
0 0 0
0 0 0
0 0 0
0 0 0
0 0 0
0 0 0
0 0 0
0 0 0
0 0 0
0 0 0
0 0 0
0 0 0
0 0 0
0 0 0
0 0 0
0 0 0
0 0 0
0 0 0
0 0 0
0 0 0
0 0 0
0 0 0
0 0 0
0 0 0
0 0 0
0 0 0
0 0 0
0 0 0
0 0 0
0 0 0
0 0 0
0 0 0
0 0 0
0 0 0
0 0 0
0 0 0
0 0 0
0 0 0
0 0 0
0 0 0
0 0 0
0 0 0
0 0 0
0 0 0
0 0 0
0 0 0
0 0 0
0 0 0
0 0 0
0 0 0
0 0 0
0 0 0
0 0 0
0 0 0
0 0 0
0 0 0
0 0 0
0 0 0
0 0 0
0 0 0
0 0 0
0 0 0
0 0 0
0 0 0
0 0 0
0 0 0
0 0 0
0 0 0
0 0 0
0 0 0
0 0 0
0 0 0
0 0 0
0 0 0
0 0 0
0 0 0
0 0 0
0 0 0
0 0 0
0 0 0
0 0 0
0 0 0
0 0 0
0 0 0
0 0 0
0 0 0
0 0 0
0 0 0
0 0 0
0 0 0
0 0 0
0 0 0
0 0 0
0 0 0
0 0 0
0 0 0
0 0 0
0 0 0
0 0 0
0 0 0
0 0 0
0 0 0
0 0 0
0 0 0
0 0 0
0 0 0
0 0 0
0 0 0
0 0 0
0 0 0
0 0 0
0 0 0
0 0 0
0 0 0
0 0 0
0 0 0
0 0 0
0 0 0
0 0 0
0 0 0
0 0 0
0 0 0
0 0 0
0 0 0
0 0 0
0 0 0
0 0 0
0 0 0
0 0 0
0 0 0
0 0 0
0 0 0
0 0 0
0 0 0
0 0 0
0 0 0
0 0 0
0 0 0
0 0 0
0 0 0
0 0 0
0 0 0
0 0 0
0 0 0
0 0 0
0 0 0
0 0 0
0 0 0
0 0 0
0 0 0
0 0 0
0 0 0
0 0 0
0 0 0
0 0 0
0 0 0
0 0 0
0 0 0
0 0 0
0 0 0
0 0 0
0 0 0
0 0 0
0 0 0
0 0 0
0 0 0
0 0 0
0 0 0
0 0 0
0 0 0
0 0 0
0 0 0
0 0 0
0 0 0
0 0 0
0 0 0
0 0 0
0 0 0
0 0 0
0 0 0
0 0 0
0 0 0
0 0 0
0 0 0
0 0 0
0 0 0
0 0 0
0 0 0
0 0 0
0 0 0
0 0 0
0 0 0
0 0 0
0 0 0
0 0 0
0 0 0
0 0 0
0 0 0
0 0 0
0 0 0
0 0 0
0 0 0
0 0 0
0 0 0
0 0 0
0 0 0
0 0 0
0 0 0
0 0 0
0 0 0
0 0 0
0 0 0
0 0 0
0 0 0
0 0 0
0 0 0
0 0 0
0 0 0
0 0 0
0 0 0
0 0 0
0 0 0
0 0 0
0 0 0
0 0 0
0 0 0
0 0 0
0 0 0
0 0 0
0 0 0
0 0 0
0 0 0
0 0 0
0 0 0
0 0 0
0 0 0
0 0 0
0 0 0
0 0 0
0 0 0
0 0 0
0 0 0
0 0 0
0 0 0
0 0 0
0 0 0
0 0 0
0 0 0
0 0 0
0 0 0
0 0 0
0 0 0
0 0 0
0 0 0
0 0 0
0 0 0
0 0 0
0 0 0
0 0 0
0 0 0
0 0 0
0 0 0
0 0 0
0 0 0
0 0 0
0 0 0
0 0 0
0 0 0
0 0 0
0 0 0
0 0 0
0 0 0
0 0 0
0 0 0
0 0 0
0 0 0
0 0 0
0 0 0
0 0 0
0 0 0
0 0 0
0 0 0
0 0 0
0 0 0
0 0 0
0 0 0
0 0 0
0 0 0
0 0 0
0 0 0
0 0 0
0 0 0
0 0 0
0 0 0
0 0 0
0 0 0
0 0 0
0 0 0
0 0 0
0 0 0
0 0 0
0 0 0
0 0 0
0 0 0
0 0 0
0 0 0
0 0 0
0 0 0
0 0 0
0 0 0
0 0 0
0 0 0
0 0 0
0 0 0
0 0 0
0 0 0
0 0 0
0 0 0
0 0 0
0 0 0
0 0 0
0 0 0
0 0 0
0 0 0
0 0 0
0 0 0
0 0 0
0 0 0
0 0 0
0 0 0
0 0 0
0 0 0
0 0 0
0 0 0
0 0 0
0 0 0
0 0 0
0 0 0
0 0 0
0 0 0
0 0 0
0 0 0
0 0 0
0 0 0
0 0 0
0 0 0
0 0 0
0 0 0
0 0 0
0 0 0
0 0 0
0 0 0
0 0 0
0 0 0
0 0 0
0 0 0
0 0 0
0 0 0
0 0 0
0 0 0
0 0 0
0 0 0
0 0 0
0 0 0
0 0 0
0 0 0
0 0 0
0 0 0
0 0 0
0 0 0
0 0 0
0 0 0
0 0 0
0 0 0
0 0 0
0 0 0
0 0 0
0 0 0
0 0 0
0 0 0
0 0 0
0 0 0
0 0 0
0 0 0
0 0 0
0 0 0
0 0 0
0 0 0
0 0 0
0 0 0
0 0 0
0 0 0
0 0 0
0 0 0
0 0 0
0 0 0
0 0 0
0 0 0
0 0 0
0 0 0
0 0 0
0 0 0
0 0 0
0 0 0
0 0 0
0 0 0
0 0 0
0 0 0
0 0 0
0 0 0
0 0 0
0 0 0
0 0 0
0 0 0
0 0 0
0 0 0
0 0 0
0 0 0
0 0 0
0 0 0
0 0 0
0 0 0
0 0 0
0 0 0
0 0 0
0 0 0
0 0 0
0 0 0
0 0 0
0 0 0
0 0 0
0 0 0
0 0 0
0 0 0
0 0 0
0 0 0
0 0 0
0 0 0
0 0 0
0 0 0
0 0 0
0 0 0
0 0 0
0 0 0
0 0 0
0 0 0
0 0 0
0 0 0
0 0 0
0 0 0
0 0 0
0 0 0
0 0 0
0 0 0
0 0 0
0 0 0
0 0 0
0 0 0
0 0 0
0 0 0
0 0 0
0 0 0
0 0 0
0 0 0
0 0 0
0 0 0
0 0 0
0 0 0
0 0 0
0 0 0
0 0 0
0 0 0
0 0 0
0 0 0
0 0 0
0 0 0
0 0 0
0 0 0
0 0 0
0 0 0
0 0 0
0 0 0
0 0 0
0 0 0
0 0 0
0 0 0
0 0 0
0 0 0
0 0 0
0 0 0
0 0 0
0 0 0
0 0 0
0 0 0
0 0 0
0 0 0
0 0 0
0 0 0
0 0 0
0 0 0
0 0 0
0 0 0
0 0 0
0 0 0
0 0 0
0 0 0
0 0 0
0 0 0
0 0 0
0 0 0
0 0 0
0 0 0
0 0 0
0 0 0
0 0 0
0 0 0
0 0 0
0 0 0
0 0 0
0 0 0
0 0 0
0 0 0
0 0 0
0 0 0
0 0 0
0 0 0
0 0 0
0 0 0
0 0 0
0 0 0
0 0 0
0 0 0
0 0 0
0 0 0
0 0 0
0 0 0
0 0 0
0 0 0
0 0 0
0 0 0
0 0 0
0 0 0
0 0 0
0 0 0
0 0 0
0 0 0
0 0 0
0 0 0
0 0 0
0 0 0
0 0 0
0 0 0
0 0 0
0 0 0
0 0 0
0 0 0
0 0 0
0 0 0
0 0 0
0 0 0
0 0 0
0 0 0
0 0 0
0 0 0
0 0 0
0 0 0
0 0 0
0 0 0
0 0 0
0 0 0
0 0 0
0 0 0
0 0 0
0 0 0
0 0 0
0 0 0
0 0 0
0 0 0
0 0 0
0 0 0
0 0 0
0 0 0
0 0 0
0 0 0
0 0 0
0 0 0
0 0 0
0 0 0
0 0 0
0 0 0
0 0 0
0 0 0
0 0 0
0 0 0
0 0 0
0 0 0
0 0 0
0 0 0
0 0 0
0 0 0
0 0 0
0 0 0
0 0 0
0 0 0
0 0 0
0 0 0
0 0 0
0 0 0
0 0 0
0 0 0
0 0 0
0 0 0
0 0 0
0 0 0
0 0 0
0 0 0
0 0 0
0 0 0
0 0 0
0 0 0
0 0 0
0 0 0
0 0 0
0 0 0
0 0 0
0 0 0
0 0 0
0 0 0
0 0 0
0 0 0
0 0 0
0 0 0
0 0 0
0 0 0
0 0 0
0 0 0
0 0 0
0 0 0
0 0 0
0 0 0
0 0 0
0 0 0
0 0 0
0 0 0
0 0 0
0 0 0
0 0 0
0 0 0
0 0 0
0 0 0
0 0 0
0 0 0
0 0 0
0 0 0
0 0 0
0 0 0
0 0 0
0 0 0
0 0 0
0 0 0
0 0 0
0 0 0
0 0 0
0 0 0
0 0 0
0 0 0
0 0 0
0 0 0
0 0 0
0 0 0
0 0 0
0 0 0
0 0 0
0 0 0
0 0 0
0 0 0
0 0 0
0 0 0
0 0 0
0 0 0
0 0 0
0 0 0
0 0 0
0 0 0
0 0 0
0 0 0
0 0 0
0 0 0
0 0 0
0 0 0
0 0 0
0 0 0
0 0 0
0 0 0
0 0 0
0 0 0
0 0 0
0 0 0
0 0 0
0 0 0
0 0 0
0 0 0
0 0 0
0 0 0
0 0 0
0 0 0
0 0 0
0 0 0
0 0 0
0 0 0
0 0 0
0 0 0
0 0 0
0 0 0
0 0 0
0 0 0
0 0 0
0 0 0
0 0 0
0 0 0
0 0 0
0 0 0
0 0 0
0 0 0
0 0 0
0 0 0
0 0 0
0 0 0
0 0 0
0 0 0
0 0 0
0 0 0
0 0 0
0 0 0
0 0 0
0 0 0
0 0 0
0 0 0
0 0 0
0 0 0
0 0 0
0 0 0
0 0 0
0 0 0
0 0 0
0 0 0
0 0 0
0 0 0
0 0 0
0 0 0
0 0 0
0 0 0
0 0 0
0 0 0
0 0 0
0 0 0
0 0 0
0 0 0
0 0 0
0 0 0
0 0 0
0 0 0
0 0 0
0 0 0
0 0 0
0 0 0
0 0 0
0 0 0
0 0 0
0 0 0
0 0 0
0 0 0
0 0 0
0 0 0
0 0 0
0 0 0
0 0 0
0 0 0
0 0 0
0 0 0
0 0 0
0 0 0
0 0 0
0 0 0
0 0 0
0 0 0
0 0 0
0 0 0
0 0 0
0 0 0
0 0 0
0 0 0
0 0 0
0 0 0
0 0 0
0 0 0
0 0 0
0 0 0
0 0 0
0 0 0
0 0 0
0 0 0
0 0 0
0 0 0
0 0 0
0 0 0
0 0 0
0 0 0
0 0 0
0 0 0
0 0 0
0 0 0
0 0 0
0 0 0
0 0 0
0 0 0
0 0 0
0 0 0
0 0 0
0 0 0
0 0 0
0 0 0
0 0 0
0 0 0
0 0 0
0 0 0
0 0 0
0 0 0
0 0 0
0 0 0
0 0 0
0 0 0
0 0 0
0 0 0
0 0 0
0 0 0
0 0 0
0 0 0
0 0 0
0 0 0
0 0 0
0 0 0
0 0 0
0 0 0
0 0 0
0 0 0
0 0 0
0 0 0
0 0 0
0 0 0
0 0 0
0 0 0
0 0 0
0 0 0
0 0 0
0 0 0
0 0 0
0 0 0
0 0 0
0 0 0
0 0 0
0 0 0
0 0 0
0 0 0
0 0 0
0 0 0
0 0 0
0 0 0
0 0 0
0 0 0
0 0 0
0 0 0
0 0 0
0 0 0
0 0 0
0 0 0
0 0 0
0 0 0
0 0 0
0 0 0
0 0 0
0 0 0
0 0 0
0 0 0
0 0 0
0 0 0
0 0 0
0 0 0
0 0 0
0 0 0
0 0 0
0 0 0
0 0 0
0 0 0
0 0 0
0 0 0
0 0 0
0 0 0
0 0 0
0 0 0
0 0 0
0 0 0
0 0 0
0 0 0
0 0 0
0 0 0
0 0 0
0 0 0
0 0 0
0 0 0
0 0 0
0 0 0
0 0 0
0 0 0
0 0 0
0 0 0
0 0 0
0 0 0
0 0 0
0 0 0
0 0 0
0 0 0
0 0 0
0 0 0
0 0 0
0 0 0
0 0 0
0 0 0
0 0 0
0 0 0
0 0 0
0 0 0
0 0 0
0 0 0
0 0 0
0 0 0
0 0 0
0 0 0
0 0 0
0 0 0
0 0 0
0 0 0
0 0 0
0 0 0
0 0 0
0 0 0
0 0 0
0 0 0
0 0 0
0 0 0
0 0 0
0 0 0
0 0 0
0 0 0
0 0 0
0 0 0
0 0 0
0 0 0
0 0 0
0 0 0
0 0 0
0 0 0
0 0 0
0 0 0
0 0 0
0 0 0
0 0 0
0 0 0
0 0 0
0 0 0
0 0 0
0 0 0
0 0 0
0 0 0
0 0 0
0 0 0
0 0 0
0 0 0
0 0 0
0 0 0
0 0 0
0 0 0
0 0 0
0 0 0
0 0 0
0 0 0
0 0 0
0 0 0
0 0 0
0 0 0
0 0 0
0 0 0
0 0 0
0 0 0
0 0 0
0 0 0
0 0 0
0 0 0
0 0 0
0 0 0
0 0 0
0 0 0
0 0 0
0 0 0
0 0 0
0 0 0
0 0 0
0 0 0
0 0 0
0 0 0
0 0 0
0 0 0
0 0 0
0 0 0
0 0 0
0 0 0
0 0 0
0 0 0
0 0 0
0 0 0
0 0 0
0 0 0
0 0 0
0 0 0
0 0 0
0 0 0
0 0 0
0 0 0
0 0 0
0 0 0
0 0 0
0 0 0
0 0 0
0 0 0
0 0 0
0 0 0
0 0 0
0 0 0
0 0 0
0 0 0
0 0 0
0 0 0
0 0 0
0 0 0
0 0 0
0 0 0
0 0 0
0 0 0
0 0 0
0 0 0
0 0 0
0 0 0
0 0 0
0 0 0
0 0 0
0 0 0
0 0 0
0 0 0
0 0 0
0 0 0
0 0 0
0 0 0
0 0 0
0 0 0
0 0 0
0 0 0
0 0 0
0 0 0
0 0 0
0 0 0
0 0 0
0 0 0
0 0 0
0 0 0
0 0 0
0 0 0
0 0 0
0 0 0
0 0 0
0 0 0
0 0 0
0 0 0
0 0 0
0 0 0
0 0 0
0 0 0
0 0 0
0 0 0
0 0 0
0 0 0
0 0 0
0 0 0
0 0 0
0 0 0
0 0 0
0 0 0
0 0 0
0 0 0
0 0 0
0 0 0
0 0 0
0 0 0
0 0 0
0 0 0
0 0 0
0 0 0
0 0 0
0 0 0
0 0 0
0 0 0
0 0 0
0 0 0
0 0 0
0 0 0
0 0 0
0 0 0
0 0 0
0 0 0
0 0 0
0 0 0
0 0 0
0 0 0
0 0 0
0 0 0
0 0 0
0 0 0
0 0 0
0 0 0
0 0 0
0 0 0
0 0 0
0 0 0
0 0 0
0 0 0
0 0 0
0 0 0
0 0 0
0 0 0
0 0 0
0 0 0
0 0 0
0 0 0
0 0 0
0 0 0
0 0 0
0 0 0
0 0 0
0 0 0
0 0 0
0 0 0
0 0 0
0 0 0
0 0 0
0 0 0
0 0 0
0 0 0
0 0 0
0 0 0
0 0 0
0 0 0
0 0 0
0 0 0
0 0 0
0 0 0
0 0 0
0 0 0
0 0 0
0 0 0
0 0 0
0 0 0
0 0 0
0 0 0
0 0 0
0 0 0
0 0 0
0 0 0
0 0 0
0 0 0
0 0 0
0 0 0
0 0 0
0 0 0
0 0 0
0 0 0
0 0 0
0 0 0
0 0 0
0 0 0
0 0 0
0 0 0
0 0 0
0 0 0
0 0 0
0 0 0
0 0 0
0 0 0
0 0 0
0 0 0
0 0 0
0 0 0
0 0 0
0 0 0
0 0 0
0 0 0
0 0 0
0 0 0
0 0 0
0 0 0
0 0 0
0 0 0
0 0 0
0 0 0
0 0 0
0 0 0
0 0 0
0 0 0
0 0 0
0 0 0
0 0 0
0 0 0
0 0 0
0 0 0
0 0 0
0 0 0
0 0 0
0 0 0
0 0 0
0 0 0
0 0 0
0 0 0
0 0 0
0 0 0
0 0 0
0 0 0
0 0 0
0 0 0
0 0 0
0 0 0
0 0 0
0 0 0
0 0 0
0 0 0
0 0 0
0 0 0
0 0 0
0 0 0
0 0 0
0 0 0
0 0 0
0 0 0
0 0 0
0 0 0
0 0 0
0 0 0
0 0 0
0 0 0
0 0 0
0 0 0
0 0 0
0 0 0
0 0 0
0 0 0
0 0 0
0 0 0
0 0 0
0 0 0
0 0 0
0 0 0
0 0 0
0 0 0
0 0 0
0 0 0
0 0 0
0 0 0
0 0 0
0 0 0
0 0 0
0 0 0
0 0 0
0 0 0
0 0 0
0 0 0
0 0 0
0 0 0
0 0 0
0 0 0
0 0 0
0 0 0
0 0 0
0 0 0
0 0 0
0 0 0
0 0 0
0 0 0
0 0 0
0 0 0
0 0 0
0 0 0
0 0 0
0 0 0
0 0 0
0 0 0
0 0 0
0 0 0
0 0 0
0 0 0
0 0 0
0 0 0
0 0 0
0 0 0
0 0 0
0 0 0
0 0 0
0 0 0
0 0 0
0 0 0
0 0 0
0 0 0
0 0 0
0 0 0
0 0 0
0 0 0
0 0 0
0 0 0
0 0 0
0 0 0
0 0 0
0 0 0
0 0 0
0 0 0
0 0 0
0 0 0
0 0 0
0 0 0
0 0 0
0 0 0
0 0 0
0 0 0
0 0 0
0 0 0
0 0 0
0 0 0
0 0 0
0 0 0
0 0 0
0 0 0
0 0 0
0 0 0
0 0 0
0 0 0
0 0 0
0 0 0
0 0 0
0 0 0
0 0 0
0 0 0
0 0 0
0 0 0
0 0 0
0 0 0
0 0 0
0 0 0
0 0 0
0 0 0
0 0 0
0 0 0
0 0 0
0 0 0
0 0 0
0 0 0
0 0 0
0 0 0
0 0 0
0 0 0
0 0 0
0 0 0
0 0 0
0 0 0
0 0 0
0 0 0
0 0 0
0 0 0
0 0 0
0 0 0
0 0 0
0 0 0
0 0 0
0 0 0
0 0 0
0 0 0
0 0 0
0 0 0
0 0 0
0 0 0
0 0 0
0 0 0
0 0 0
0 0 0
0 0 0
0 0 0
0 0 0
0 0 0
0 0 0
0 0 0
0 0 0
0 0 0
0 0 0
0 0 0
0 0 0
0 0 0
0 0 0
0 0 0
0 0 0
0 0 0
0 0 0
0 0 0
0 0 0
0 0 0
0 0 0
0 0 0
0 0 0
0 0 0
0 0 0
0 0 0
0 0 0
0 0 0
0 0 0
0 0 0
0 0 0
0 0 0
0 0 0
0 0 0
0 0 0
0 0 0
0 0 0
0 0 0
0 0 0
0 0 0
0 0 0
0 0 0
0 0 0
0 0 0
0 0 0
0 0 0
0 0 0
0 0 0
0 0 0
0 0 0
0 0 0
0 0 0
0 0 0
0 0 0
0 0 0
0 0 0
0 0 0
0 0 0
0 0 0
0 0 0
0 0 0
0 0 0
0 0 0
0 0 0
0 0 0
0 0 0
0 0 0
0 0 0
0 0 0
0 0 0
0 0 0
0 0 0
0 0 0
0 0 0
0 0 0
0 0 0
0 0 0
0 0 0
0 0 0
0 0 0
0 0 0
0 0 0
0 0 0
0 0 0
0 0 0
0 0 0
0 0 0
0 0 0
0 0 0
0 0 0
0 0 0
0 0 0
0 0 0
0 0 0
0 0 0
0 0 0
0 0 0
0 0 0
0 0 0
0 0 0
0 0 0
0 0 0
0 0 0
0 0 0
0 0 0
0 0 0
0 0 0
0 0 0
0 0 0
0 0 0
0 0 0
0 0 0
0 0 0
0 0 0
0 0 0
0 0 0
0 0 0
0 0 0
0 0 0
0 0 0
0 0 0
0 0 0
0 0 0
0 0 0
0 0 0
0 0 0
0 0 0
0 0 0
0 0 0
0 0 0
0 0 0
0 0 0
0 0 0
0 0 0
0 0 0
0 0 0
0 0 0
0 0 0
0 0 0
0 0 0
0 0 0
0 0 0
0 0 0
0 0 0
0 0 0
0 0 0
0 0 0
0 0 0
0 0 0
0 0 0
0 0 0
0 0 0
0 0 0
0 0 0
0 0 0
0 0 0
0 0 0
0 0 0
0 0 0
0 0 0
0 0 0
0 0 0
0 0 0
0 0 0
0 0 0
0 0 0
0 0 0
0 0 0
0 0 0
0 0 0
0 0 0
0 0 0
0 0 0
0 0 0
0 0 0
0 0 0
0 0 0
0 0 0
0 0 0
0 0 0
0 0 0
0 0 0
0 0 0
0 0 0
0 0 0
0 0 0
0 0 0
0 0 0
0 0 0
0 0 0
0 0 0
0 0 0
0 0 0
0 0 0
0 0 0
0 0 0
0 0 0
0 0 0
0 0 0
0 0 0
0 0 0
0 0 0
0 0 0
0 0 0
0 0 0
0 0 0
0 0 0
0 0 0
0 0 0
0 0 0
0 0 0
0 0 0
0 0 0
0 0 0
0 0 0
0 0 0
0 0 0
0 0 0
0 0 0
0 0 0
0 0 0
0 0 0
0 0 0
0 0 0
0 0 0
0 0 0
0 0 0
0 0 0
0 0 0
0 0 0
0 0 0
0 0 0
0 0 0
0 0 0
0 0 0
0 0 0
0 0 0
0 0 0
0 0 0
0 0 0
0 0 0
0 0 0
0 0 0
0 0 0
0 0 0
0 0 0
0 0 0
0 0 0
0 0 0
0 0 0
0 0 0
0 0 0
0 0 0
0 0 0
0 0 0
0 0 0
0 0 0
0 0 0
0 0 0
0 0 0
0 0 0
0 0 0
0 0 0
0 0 0
0 0 0
0 0 0
0 0 0
0 0 0
0 0 0
0 0 0
0 0 0
0 0 0
0 0 0
0 0 0
0 0 0
0 0 0
0 0 0
0 0 0
0 0 0
0 0 0
0 0 0
0 0 0
0 0 0
0 0 0
0 0 0
0 0 0
0 0 0
0 0 0
0 0 0
0 0 0
0 0 0
0 0 0
0 0 0
0 0 0
0 0 0
0 0 0
0 0 0
0 0 0
0 0 0
0 0 0
0 0 0
0 0 0
0 0 0
0 0 0
0 0 0
0 0 0
0 0 0
0 0 0
0 0 0
0 0 0
0 0 0
0 0 0
0 0 0
0 0 0
0 0 0
0 0 0
0 0 0
0 0 0
0 0 0
0 0 0
0 0 0
0 0 0
0 0 0
0 0 0
0 0 0
0 0 0
0 0 0
0 0 0
0 0 0
0 0 0
0 0 0
0 0 0
0 0 0
0 0 0
0 0 0
0 0 0
0 0 0
0 0 0
0 0 0
0 0 0
0 0 0
0 0 0
0 0 0
0 0 0
0 0 0
0 0 0
0 0 0
0 0 0
0 0 0
0 0 0
0 0 0
0 0 0
0 0 0
0 0 0
0 0 0
0 0 0
0 0 0
0 0 0
0 0 0
0 0 0
0 0 0
0 0 0
0 0 0
0 0 0
0 0 0
0 0 0
0 0 0
0 0 0
0 0 0
0 0 0
0 0 0
0 0 0
0 0 0
0 0 0
0 0 0
0 0 0
0 0 0
0 0 0
0 0 0
0 0 0
0 0 0
0 0 0
0 0 0
0 0 0
0 0 0
0 0 0
0 0 0
0 0 0
0 0 0
0 0 0
0 0 0
0 0 0
0 0 0
0 0 0
0 0 0
0 0 0
0 0 0
0 0 0
0 0 0
0 0 0
0 0 0
0 0 0
0 0 0
0 0 0
0 0 0
0 0 0
0 0 0
0 0 0
0 0 0
0 0 0
0 0 0
0 0 0
0 0 0
0 0 0
0 0 0
0 0 0
0 0 0
0 0 0
0 0 0
0 0 0
0 0 0
0 0 0
0 0 0
0 0 0
0 0 0
0 0 0
0 0 0
0 0 0
0 0 0
0 0 0
0 0 0
0 0 0
0 0 0
0 0 0
0 0 0
0 0 0
0 0 0
0 0 0
0 0 0
0 0 0
0 0 0
0 0 0
0 0 0
0 0 0
0 0 0
0 0 0
0 0 0
0 0 0
0 0 0
0 0 0
0 0 0
0 0 0
0 0 0
0 0 0
0 0 0
0 0 0
0 0 0
0 0 0
0 0 0
0 0 0
0 0 0
0 0 0
0 0 0
0 0 0
0 0 0
0 0 0
0 0 0
0 0 0
0 0 0
0 0 0
0 0 0
0 0 0
0 0 0
0 0 0
0 0 0
0 0 0
0 0 0
0 0 0
0 0 0
0 0 0
0 0 0
0 0 0
0 0 0
0 0 0
0 0 0
0 0 0
0 0 0
0 0 0
0 0 0
0 0 0
0 0 0
0 0 0
0 0 0
0 0 0
0 0 0
0 0 0
0 0 0
0 0 0
0 0 0
0 0 0
0 0 0
0 0 0
0 0 0
0 0 0
0 0 0
0 0 0
0 0 0
0 0 0
0 0 0
0 0 0
0 0 0
0 0 0
0 0 0
0 0 0
0 0 0
0 0 0
0 0 0
0 0 0
0 0 0
0 0 0
0 0 0
0 0 0
0 0 0
0 0 0
0 0 0
0 0 0
0 0 0
0 0 0
0 0 0
0 0 0
0 0 0
0 0 0
0 0 0
0 0 0
0 0 0
0 0 0
0 0 0
0 0 0
0 0 0
0 0 0
0 0 0
0 0 0
0 0 0
0 0 0
0 0 0
0 0 0
0 0 0
0 0 0
0 0 0
0 0 0
0 0 0
0 0 0
0 0 0
0 0 0
0 0 0
0 0 0
0 0 0
0 0 0
0 0 0
0 0 0
0 0 0
0 0 0
0 0 0
0 0 0
0 0 0
0 0 0
0 0 0
0 0 0
0 0 0
0 0 0
0 0 0
0 0 0
0 0 0
0 0 0
0 0 0
0 0 0
0 0 0
0 0 0
0 0 0
0 0 0
0 0 0
0 0 0
0 0 0
0 0 0
0 0 0
0 0 0
0 0 0
0 0 0
0 0 0
0 0 0
0 0 0
0 0 0
0 0 0
0 0 0
0 0 0
0 0 0
0 0 0
0 0 0
0 0 0
0 0 0
0 0 0
0 0 0
0 0 0
0 0 0
0 0 0
0 0 0
0 0 0
0 0 0
0 0 0
0 0 0
0 0 0
0 0 0
0 0 0
0 0 0
0 0 0
0 0 0
0 0 0
0 0 0
0 0 0
0 0 0
0 0 0
0 0 0
0 0 0
0 0 0
0 0 0
0 0 0
0 0 0
0 0 0
0 0 0
0 0 0
0 0 0
0 0 0
0 0 0
0 0 0
0 0 0
0 0 0
0 0 0
0 0 0
0 0 0
0 0 0
0 0 0
0 0 0
0 0 0
0 0 0
0 0 0
0 0 0
0 0 0
0 0 0
0 0 0
0 0 0
0 0 0
0 0 0
0 0 0
0 0 0
0 0 0
0 0 0
0 0 0
0 0 0
0 0 0
0 0 0
0 0 0
0 0 0
0 0 0
0 0 0
0 0 0
0 0 0
0 0 0
0 0 0
0 0 0
0 0 0
0 0 0
0 0 0
0 0 0
0 0 0
0 0 0
0 0 0
0 0 0
0 0 0
0 0 0
0 0 0
0 0 0
0 0 0
0 0 0
0 0 0
0 0 0
0 0 0
0 0 0
0 0 0
0 0 0
0 0 0
0 0 0
0 0 0
0 0 0
0 0 0
0 0 0
0 0 0
0 0 0
0 0 0
0 0 0
0 0 0
0 0 0
0 0 0
0 0 0
0 0 0
0 0 0
0 0 0
0 0 0
0 0 0
0 0 0
0 0 0
0 0 0
0 0 0
0 0 0
0 0 0
0 0 0
0 0 0
0 0 0
0 0 0
0 0 0
0 0 0
0 0 0
0 0 0
0 0 0
0 0 0
0 0 0
0 0 0
0 0 0
0 0 0
0 0 0
0 0 0
0 0 0
0 0 0
0 0 0
0 0 0
0 0 0
0 0 0
0 0 0
0 0 0
0 0 0
0 0 0
0 0 0
0 0 0
0 0 0
0 0 0
0 0 0
0 0 0
0 0 0
0 0 0
0 0 0
0 0 0
0 0 0
0 0 0
0 0 0
0 0 0
0 0 0
0 0 0
0 0 0
0 0 0
0 0 0
0 0 0
0 0 0
0 0 0
0 0 0
0 0 0
0 0 0
0 0 0
0 0 0
0 0 0
0 0 0
0 0 0
0 0 0
0 0 0
0 0 0
0 0 0
0 0 0
0 0 0
0 0 0
0 0 0
0 0 0
0 0 0
0 0 0
0 0 0
0 0 0
0 0 0
0 0 0
0 0 0
0 0 0
0 0 0
0 0 0
0 0 0
0 0 0
0 0 0
0 0 0
0 0 0
0 0 0
0 0 0
0 0 0
0 0 0
0 0 0
0 0 0
0 0 0
0 0 0
0 0 0
0 0 0
0 0 0
0 0 0
0 0 0
0 0 0
0 0 0
0 0 0
0 0 0
0 0 0
0 0 0
0 0 0
0 0 0
0 0 0
0 0 0
0 0 0
0 0 0
0 0 0
0 0 0
0 0 0
0 0 0
0 0 0
0 0 0
0 0 0
0 0 0
0 0 0
0 0 0
0 0 0
0 0 0
0 0 0
0 0 0
0 0 0
0 0 0
0 0 0
0 0 0
0 0 0
0 0 0
0 0 0
0 0 0
0 0 0
0 0 0
0 0 0
0 0 0
0 0 0
0 0 0
0 0 0
0 0 0
0 0 0
0 0 0
0 0 0
0 0 0
0 0 0
0 0 0
0 0 0
0 0 0
0 0 0
0 0 0
0 0 0
0 0 0
0 0 0
0 0 0
0 0 0
0 0 0
0 0 0
0 0 0
0 0 0
0 0 0
0 0 0
0 0 0
0 0 0
0 0 0
0 0 0
0 0 0
0 0 0
0 0 0
0 0 0
0 0 0
0 0 0
0 0 0
0 0 0
0 0 0
0 0 0
0 0 0
0 0 0
0 0 0
0 0 0
0 0 0
0 0 0
0 0 0
0 0 0
0 0 0
0 0 0
0 0 0
0 0 0
0 0 0
0 0 0
0 0 0
0 0 0
0 0 0
0 0 0
0 0 0
0 0 0
0 0 0
0 0 0
0 0 0
0 0 0
0 0 0
0 0 0
0 0 0
0 0 0
0 0 0
0 0 0
0 0 0
0 0 0
0 0 0
0 0 0
0 0 0
0 0 0
0 0 0
0 0 0
0 0 0
0 0 0
0 0 0
0 0 0
0 0 0
0 0 0
0 0 0
0 0 0
0 0 0
0 0 0
0 0 0
0 0 0
0 0 0
0 0 0
0 0 0
0 0 0
0 0 0
0 0 0
0 0 0
0 0 0
0 0 0
0 0 0
0 0 0
0 0 0
0 0 0
0 0 0
0 0 0
0 0 0
0 0 0
0 0 0
0 0 0
0 0 0
0 0 0
0 0 0
0 0 0
0 0 0
0 0 0
0 0 0
0 0 0
0 0 0
0 0 0
0 0 0
0 0 0
0 0 0
0 0 0
0 0 0
0 0 0
0 0 0
0 0 0
0 0 0
0 0 0
0 0 0
0 0 0
0 0 0
0 0 0
0 0 0
0 0 0
0 0 0
0 0 0
0 0 0
0 0 0
0 0 0
0 0 0
0 0 0
0 0 0
0 0 0
0 0 0
0 0 0
0 0 0
0 0 0
0 0 0
0 0 0
0 0 0
0 0 0
0 0 0
0 0 0
0 0 0
0 0 0
0 0 0
0 0 0
0 0 0
0 0 0
0 0 0
0 0 0
0 0 0
0 0 0
0 0 0
0 0 0
0 0 0
0 0 0
0 0 0
0 0 0
0 0 0
0 0 0
0 0 0
0 0 0
0 0 0
0 0 0
0 0 0
0 0 0
0 0 0
0 0 0
0 0 0
0 0 0
0 0 0
0 0 0
0 0 0
0 0 0
0 0 0
0 0 0
0 0 0
0 0 0
0 0 0
0 0 0
0 0 0
0 0 0
0 0 0
0 0 0
0 0 0
0 0 0
0 0 0
0 0 0
0 0 0
0 0 0
0 0 0
0 0 0
0 0 0
0 0 0
0 0 0
0 0 0
0 0 0
0 0 0
0 0 0
0 0 0
0 0 0
0 0 0
0 0 0
0 0 0
0 0 0
0 0 0
0 0 0
0 0 0
0 0 0
0 0 0
0 0 0
0 0 0
0 0 0
0 0 0
0 0 0
0 0 0
0 0 0
0 0 0
0 0 0
0 0 0
0 0 0
0 0 0
0 0 0
0 0 0
0 0 0
0 0 0
0 0 0
0 0 0
0 0 0
0 0 0
0 0 0
0 0 0
0 0 0
0 0 0
0 0 0
0 0 0
0 0 0
0 0 0
0 0 0
0 0 0
0 0 0
0 0 0
0 0 0
0 0 0
0 0 0
0 0 0
0 0 0
0 0 0
0 0 0
0 0 0
0 0 0
0 0 0
0 0 0
0 0 0
0 0 0
0 0 0
0 0 0
0 0 0
0 0 0
0 0 0
0 0 0
0 0 0
0 0 0
0 0 0
0 0 0
0 0 0
0 0 0
0 0 0
0 0 0
0 0 0
0 0 0
0 0 0
0 0 0
0 0 0
0 0 0
0 0 0
0 0 0
0 0 0
0 0 0
0 0 0
0 0 0
0 0 0
0 0 0
0 0 0
0 0 0
0 0 0
0 0 0
0 0 0
0 0 0
0 0 0
0 0 0
0 0 0
0 0 0
0 0 0
0 0 0
0 0 0
0 0 0
0 0 0
0 0 0
0 0 0
0 0 0
0 0 0
0 0 0
0 0 0
0 0 0
0 0 0
0 0 0
0 0 0
0 0 0
0 0 0
0 0 0
0 0 0
0 0 0
0 0 0
0 0 0
0 0 0
0 0 0
0 0 0
0 0 0
0 0 0
0 0 0
0 0 0
0 0 0
0 0 0
0 0 0
0 0 0
0 0 0
0 0 0
0 0 0
0 0 0
0 0 0
0 0 0
0 0 0
0 0 0
0 0 0
0 0 0
0 0 0
0 0 0
0 0 0
0 0 0
0 0 0
0 0 0
0 0 0
0 0 0
0 0 0
0 0 0
0 0 0
0 0 0
0 0 0
0 0 0
0 0 0
0 0 0
0 0 0
0 0 0
0 0 0
0 0 0
0 0 0
0 0 0
0 0 0
0 0 0
0 0 0
0 0 0
0 0 0
0 0 0
0 0 0
0 0 0
0 0 0
0 0 0
0 0 0
0 0 0
0 0 0
0 0 0
0 0 0
0 0 0
0 0 0
0 0 0
0 0 0
0 0 0
0 0 0
0 0 0
0 0 0
0 0 0
0 0 0
0 0 0
0 0 0
0 0 0
0 0 0
0 0 0
0 0 0
0 0 0
0 0 0
0 0 0
0 0 0
0 0 0
0 0 0
0 0 0
0 0 0
0 0 0
0 0 0
0 0 0
0 0 0
0 0 0
0 0 0
0 0 0
0 0 0
0 0 0
0 0 0
0 0 0
0 0 0
0 0 0
0 0 0
0 0 0
0 0 0
0 0 0
0 0 0
0 0 0
0 0 0
0 0 0
0 0 0
0 0 0
0 0 0
0 0 0
0 0 0
0 0 0
0 0 0
0 0 0
0 0 0
0 0 0
0 0 0
0 0 0
0 0 0
0 0 0
0 0 0
0 0 0
0 0 0
0 0 0
0 0 0
0 0 0
0 0 0
0 0 0
0 0 0
0 0 0
0 0 0
0 0 0
0 0 0
0 0 0
0 0 0
0 0 0
0 0 0
0 0 0
0 0 0
0 0 0
0 0 0
0 0 0
0 0 0
0 0 0
0 0 0
0 0 0
0 0 0
0 0 0
0 0 0
0 0 0
0 0 0
0 0 0
0 0 0
0 0 0
0 0 0
0 0 0
0 0 0
0 0 0
0 0 0
0 0 0
0 0 0
0 0 0
0 0 0
0 0 0
0 0 0
0 0 0
0 0 0
0 0 0
0 0 0
0 0 0
0 0 0
0 0 0
0 0 0
0 0 0
0 0 0
0 0 0
0 0 0
0 0 0
0 0 0
0 0 0
0 0 0
0 0 0
0 0 0
0 0 0
0 0 0
0 0 0
0 0 0
0 0 0
0 0 0
0 0 0
0 0 0
0 0 0
0 0 0
0 0 0
0 0 0
0 0 0
0 0 0
0 0 0
0 0 0
0 0 0
0 0 0
0 0 0
0 0 0
0 0 0
0 0 0
0 0 0
0 0 0
0 0 0
0 0 0
0 0 0
0 0 0
0 0 0
0 0 0
0 0 0
0 0 0
0 0 0
0 0 0
0 0 0
0 0 0
0 0 0
0 0 0
0 0 0
0 0 0
0 0 0
0 0 0
0 0 0
0 0 0
0 0 0
0 0 0
0 0 0
0 0 0
0 0 0
0 0 0
0 0 0
0 0 0
0 0 0
0 0 0
0 0 0
0 0 0
0 0 0
0 0 0
0 0 0
0 0 0
0 0 0
0 0 0
0 0 0
0 0 0
0 0 0
0 0 0
0 0 0
0 0 0
0 0 0
0 0 0
0 0 0
0 0 0
0 0 0
0 0 0
0 0 0
0 0 0
0 0 0
0 0 0
0 0 0
0 0 0
0 0 0
0 0 0
0 0 0
0 0 0
0 0 0
0 0 0
0 0 0
0 0 0
0 0 0
0 0 0
0 0 0
0 0 0
0 0 0
0 0 0
0 0 0
0 0 0
0 0 0
0 0 0
0 0 0
0 0 0
0 0 0
0 0 0
0 0 0
0 0 0
0 0 0
0 0 0
0 0 0
0 0 0
0 0 0
0 0 0
0 0 0
0 0 0
0 0 0
0 0 0
0 0 0
0 0 0
0 0 0
0 0 0
0 0 0
0 0 0
0 0 0
0 0 0
0 0 0
0 0 0
0 0 0
0 0 0
0 0 0
0 0 0
0 0 0
0 0 0
0 0 0
0 0 0
0 0 0
0 0 0
0 0 0
0 0 0
0 0 0
0 0 0
0 0 0
0 0 0
0 0 0
0 0 0
0 0 0
0 0 0
0 0 0
0 0 0
0 0 0
0 0 0
0 0 0
0 0 0
0 0 0
0 0 0
0 0 0
0 0 0
0 0 0
0 0 0
0 0 0
0 0 0
0 0 0
0 0 0
0 0 0
0 0 0
0 0 0
0 0 0
0 0 0
0 0 0
0 0 0
0 0 0
0 0 0
0 0 0
0 0 0
0 0 0
0 0 0
0 0 0
0 0 0
0 0 0
0 0 0
0 0 0
0 0 0
0 0 0
0 0 0
0 0 0
0 0 0
0 0 0
0 0 0
0 0 0
0 0 0
0 0 0
0 0 0
0 0 0
0 0 0
0 0 0
0 0 0
0 0 0
0 0 0
0 0 0
0 0 0
0 0 0
0 0 0
0 0 0
0 0 0
0 0 0
0 0 0
0 0 0
0 0 0
0 0 0
0 0 0
0 0 0
0 0 0
0 0 0
0 0 0
0 0 0
0 0 0
0 0 0
0 0 0
0 0 0
0 0 0
0 0 0
0 0 0
0 0 0
0 0 0
0 0 0
0 0 0
0 0 0
0 0 0
0 0 0
0 0 0
0 0 0
0 0 0
0 0 0
0 0 0
0 0 0
0 0 0
0 0 0
0 0 0
0 0 0
0 0 0
0 0 0
0 0 0
0 0 0
0 0 0
0 0 0
0 0 0
0 0 0
0 0 0
0 0 0
0 0 0
0 0 0
0 0 0
0 0 0
0 0 0
0 0 0
0 0 0
0 0 0
0 0 0
0 0 0
0 0 0
0 0 0
0 0 0
0 0 0
0 0 0
0 0 0
0 0 0
0 0 0
0 0 0
0 0 0
0 0 0
0 0 0
0 0 0
0 0 0
0 0 0
0 0 0
0 0 0
0 0 0
0 0 0
0 0 0
0 0 0
0 0 0
0 0 0
0 0 0
0 0 0
0 0 0
0 0 0
0 0 0
0 0 0
0 0 0
0 0 0
0 0 0
0 0 0
0 0 0
0 0 0
0 0 0
0 0 0
0 0 0
0 0 0
0 0 0
0 0 0
0 0 0
0 0 0
0 0 0
0 0 0
0 0 0
0 0 0
0 0 0
0 0 0
0 0 0
0 0 0
0 0 0
0 0 0
0 0 0
0 0 0
0 0 0
0 0 0
0 0 0
0 0 0
0 0 0
0 0 0
0 0 0
0 0 0
0 0 0
0 0 0
0 0 0
0 0 0
0 0 0
0 0 0
0 0 0
0 0 0
0 0 0
0 0 0
0 0 0
0 0 0
0 0 0
0 0 0
0 0 0
0 0 0
0 0 0
0 0 0
0 0 0
0 0 0
0 0 0
0 0 0
0 0 0
0 0 0
0 0 0
0 0 0
0 0 0
0 0 0
0 0 0
0 0 0
0 0 0
0 0 0
0 0 0
0 0 0
0 0 0
0 0 0
0 0 0
0 0 0
0 0 0
0 0 0
0 0 0
0 0 0
0 0 0
0 0 0
0 0 0
0 0 0
0 0 0
0 0 0
0 0 0
0 0 0
0 0 0
0 0 0
0 0 0
0 0 0
0 0 0
0 0 0
0 0 0
0 0 0
0 0 0
0 0 0
0 0 0
0 0 0
0 0 0
0 0 0
0 0 0
0 0 0
0 0 0
0 0 0
0 0 0
0 0 0
0 0 0
0 0 0
0 0 0
0 0 0
0 0 0
0 0 0
0 0 0
0 0 0
0 0 0
0 0 0
0 0 0
0 0 0
0 0 0
0 0 0
0 0 0
0 0 0
0 0 0
0 0 0
0 0 0
0 0 0
0 0 0
0 0 0
0 0 0
0 0 0
0 0 0
0 0 0
0 0 0
0 0 0
0 0 0
0 0 0
0 0 0
0 0 0
0 0 0
0 0 0
0 0 0
0 0 0
0 0 0
0 0 0
0 0 0
0 0 0
0 0 0
0 0 0
0 0 0
0 0 0
0 0 0
0 0 0
0 0 0
0 0 0
0 0 0
0 0 0
0 0 0
0 0 0
0 0 0
0 0 0
0 0 0
0 0 0
0 0 0
0 0 0
0 0 0
0 0 0
0 0 0
0 0 0
0 0 0
0 0 0
0 0 0
0 0 0
0 0 0
0 0 0
0 0 0
0 0 0
0 0 0
0 0 0
0 0 0
0 0 0
0 0 0
0 0 0
0 0 0
0 0 0
0 0 0
0 0 0
0 0 0
0 0 0
0 0 0
0 0 0
0 0 0
0 0 0
0 0 0
0 0 0
0 0 0
0 0 0
0 0 0
0 0 0
0 0 0
0 0 0
0 0 0
0 0 0
0 0 0
0 0 0
0 0 0
0 0 0
0 0 0
0 0 0
0 0 0
0 0 0
0 0 0
0 0 0
0 0 0
0 0 0
0 0 0
0 0 0
0 0 0
0 0 0
0 0 0
0 0 0
0 0 0
0 0 0
0 0 0
0 0 0
0 0 0
0 0 0
0 0 0
0 0 0
0 0 0
0 0 0
0 0 0
0 0 0
0 0 0
0 0 0
0 0 0
0 0 0
0 0 0
0 0 0
0 0 0
0 0 0
0 0 0
0 0 0
0 0 0
0 0 0
0 0 0
0 0 0
0 0 0
0 0 0
0 0 0
0 0 0
0 0 0
0 0 0
0 0 0
0 0 0
0 0 0
0 0 0
0 0 0
0 0 0
0 0 0
0 0 0
0 0 0
0 0 0
0 0 0
0 0 0
0 0 0
0 0 0
0 0 0
0 0 0
0 0 0
0 0 0
0 0 0
0 0 0
0 0 0
0 0 0
0 0 0
0 0 0
0 0 0
0 0 0
0 0 0
0 0 0
0 0 0
0 0 0
0 0 0
0 0 0
0 0 0
0 0 0
0 0 0
0 0 0
0 0 0
0 0 0
0 0 0
0 0 0
0 0 0
0 0 0
0 0 0
0 0 0
0 0 0
0 0 0
0 0 0
0 0 0
0 0 0
0 0 0
0 0 0
0 0 0
0 0 0
0 0 0
0 0 0
0 0 0
0 0 0
0 0 0
0 0 0
0 0 0
0 0 0
0 0 0
0 0 0
0 0 0
0 0 0
0 0 0
0 0 0
0 0 0
0 0 0
0 0 0
0 0 0
0 0 0
0 0 0
0 0 0
0 0 0
0 0 0
0 0 0
0 0 0
0 0 0
0 0 0
0 0 0
0 0 0
0 0 0
0 0 0
0 0 0
0 0 0
0 0 0
0 0 0
0 0 0
0 0 0
0 0 0
0 0 0
0 0 0
0 0 0
0 0 0
0 0 0
0 0 0
0 0 0
0 0 0
0 0 0
0 0 0
0 0 0
0 0 0
0 0 0
0 0 0
0 0 0
0 0 0
0 0 0
0 0 0
0 0 0
0 0 0
0 0 0
0 0 0
0 0 0
0 0 0
0 0 0
0 0 0
0 0 0
0 0 0
0 0 0
0 0 0
0 0 0
0 0 0
0 0 0
0 0 0
0 0 0
0 0 0
0 0 0
0 0 0
0 0 0
0 0 0
0 0 0
0 0 0
0 0 0
0 0 0
0 0 0
0 0 0
0 0 0
0 0 0
0 0 0
0 0 0
0 0 0
0 0 0
0 0 0
0 0 0
0 0 0
0 0 0
0 0 0
0 0 0
0 0 0
0 0 0
0 0 0
0 0 0
0 0 0
0 0 0
0 0 0
0 0 0
0 0 0
0 0 0
0 0 0
0 0 0
0 0 0
0 0 0
0 0 0
0 0 0
0 0 0
0 0 0
0 0 0
0 0 0
0 0 0
0 0 0
0 0 0
0 0 0
0 0 0
0 0 0
0 0 0
0 0 0
0 0 0
0 0 0
0 0 0
0 0 0
0 0 0
0 0 0
0 0 0
0 0 0
0 0 0
0 0 0
0 0 0
0 0 0
0 0 0
0 0 0
0 0 0
0 0 0
0 0 0
0 0 0
0 0 0
0 0 0
0 0 0
0 0 0
0 0 0
0 0 0
0 0 0
0 0 0
0 0 0
0 0 0
0 0 0
0 0 0
0 0 0
0 0 0
0 0 0
0 0 0
0 0 0
0 0 0
0 0 0
0 0 0
0 0 0
0 0 0
0 0 0
0 0 0
0 0 0
0 0 0
0 0 0
0 0 0
0 0 0
0 0 0
0 0 0
0 0 0
0 0 0
0 0 0
0 0 0
0 0 0
0 0 0
0 0 0
0 0 0
0 0 0
0 0 0
0 0 0
0 0 0
0 0 0
0 0 0
0 0 0
0 0 0
0 0 0
0 0 0
0 0 0
0 0 0
0 0 0
0 0 0
0 0 0
0 0 0
0 0 0
0 0 0
0 0 0
0 0 0
0 0 0
0 0 0
0 0 0
0 0 0
0 0 0
0 0 0
0 0 0
0 0 0
0 0 0
0 0 0
0 0 0
0 0 0
0 0 0
0 0 0
0 0 0
0 0 0
0 0 0
0 0 0
0 0 0
0 0 0
0 0 0
0 0 0
0 0 0
0 0 0
0 0 0
0 0 0
0 0 0
0 0 0
0 0 0
0 0 0
0 0 0
0 0 0
0 0 0
0 0 0
0 0 0
0 0 0
0 0 0
0 0 0
0 0 0
0 0 0
0 0 0
0 0 0
0 0 0
0 0 0
0 0 0
0 0 0
0 0 0
0 0 0
0 0 0
0 0 0
0 0 0
0 0 0
0 0 0
0 0 0
0 0 0
0 0 0
0 0 0
0 0 0
0 0 0
0 0 0
0 0 0
0 0 0
0 0 0
0 0 0
0 0 0
0 0 0
0 0 0
0 0 0
0 0 0
0 0 0
0 0 0
0 0 0
0 0 0
0 0 0
0 0 0
0 0 0
0 0 0
0 0 0
0 0 0
0 0 0
0 0 0
0 0 0
0 0 0
0 0 0
0 0 0
0 0 0
0 0 0
0 0 0
0 0 0
0 0 0
0 0 0
0 0 0
0 0 0
0 0 0
0 0 0
0 0 0
0 0 0
0 0 0
0 0 0
0 0 0
0 0 0
0 0 0
0 0 0
0 0 0
0 0 0
0 0 0
0 0 0
0 0 0
0 0 0
0 0 0
0 0 0
0 0 0
0 0 0
0 0 0
0 0 0
0 0 0
0 0 0
0 0 0
0 0 0
0 0 0
0 0 0
0 0 0
0 0 0
0 0 0
0 0 0
0 0 0
0 0 0
0 0 0
0 0 0
0 0 0
0 0 0
0 0 0
0 0 0
0 0 0
0 0 0
0 0 0
0 0 0
0 0 0
0 0 0
0 0 0
0 0 0
0 0 0
0 0 0
0 0 0
0 0 0
0 0 0
0 0 0
0 0 0
0 0 0
0 0 0
0 0 0
0 0 0
0 0 0
0 0 0
0 0 0
0 0 0
0 0 0
0 0 0
0 0 0
0 0 0
0 0 0
0 0 0
0 0 0
0 0 0
0 0 0
128 128 128
0 0 0
0 0 0
0 0 0
0 0 0
0 0 0
0 0 0
0 0 0
0 0 0
0 0 0
0 0 0
0 0 0
0 0 0
0 0 0
0 0 0
0 0 0
0 0 0
0 0 0
0 0 0
0 0 0
0 0 0
0 0 0
0 0 0
0 0 0
0 0 0
0 0 0
0 0 0
0 0 0
0 0 0
0 0 0
0 0 0
0 0 0
0 0 0
0 0 0
0 0 0
0 0 0
0 0 0
0 0 0
0 0 0
0 0 0
0 0 0
0 0 0
0 0 0
0 0 0
0 0 0
0 0 0
0 0 0
0 0 0
0 0 0
0 0 0
0 0 0
0 0 0
0 0 0
0 0 0
0 0 0
0 0 0
0 0 0
0 0 0
0 0 0
0 0 0
0 0 0
0 0 0
0 0 0
0 0 0
0 0 0
0 0 0
0 0 0
0 0 0
0 0 0
0 0 0
0 0 0
0 0 0
0 0 0
0 0 0
0 0 0
0 0 0
0 0 0
0 0 0
0 0 0
0 0 0
0 0 0
0 0 0
0 0 0
0 0 0
0 0 0
0 0 0
0 0 0
0 0 0
0 0 0
0 0 0
0 0 0
0 0 0
0 0 0
0 0 0
0 0 0
0 0 0
0 0 0
0 0 0
0 0 0
0 0 0
0 0 0
0 0 0
0 0 0
0 0 0
0 0 0
0 0 0
0 0 0
0 0 0
0 0 0
0 0 0
0 0 0
0 0 0
0 0 0
0 0 0
0 0 0
0 0 0
0 0 0
0 0 0
0 0 0
0 0 0
0 0 0
0 0 0
0 0 0
0 0 0
0 0 0
0 0 0
0 0 0
0 0 0
0 0 0
0 0 0
0 0 0
0 0 0
0 0 0
0 0 0
0 0 0
0 0 0
0 0 0
0 0 0
0 0 0
0 0 0
0 0 0
0 0 0
0 0 0
0 0 0
0 0 0
0 0 0
0 0 0
0 0 0
0 0 0
0 0 0
0 0 0
0 0 0
0 0 0
0 0 0
0 0 0
0 0 0
0 0 0
0 0 0
0 0 0
0 0 0
0 0 0
0 0 0
0 0 0
0 0 0
0 0 0
0 0 0
0 0 0
0 0 0
0 0 0
0 0 0
0 0 0
0 0 0
0 0 0
0 0 0
0 0 0
0 0 0
0 0 0
0 0 0
0 0 0
0 0 0
0 0 0
0 0 0
0 0 0
0 0 0
0 0 0
0 0 0
0 0 0
0 0 0
0 0 0
0 0 0
0 0 0
0 0 0
0 0 0
0 0 0
0 0 0
0 0 0
0 0 0
0 0 0
0 0 0
0 0 0
128 128 128
128 128 128
0 0 0
0 0 0
0 0 0
0 0 0
0 0 0
0 0 0
0 0 0
0 0 0
0 0 0
0 0 0
0 0 0
0 0 0
0 0 0
0 0 0
0 0 0
0 0 0
0 0 0
0 0 0
0 0 0
0 0 0
0 0 0
0 0 0
0 0 0
0 0 0
0 0 0
0 0 0
0 0 0
0 0 0
0 0 0
0 0 0
0 0 0
0 0 0
0 0 0
0 0 0
0 0 0
0 0 0
0 0 0
0 0 0
0 0 0
0 0 0
0 0 0
0 0 0
0 0 0
0 0 0
0 0 0
0 0 0
0 0 0
0 0 0
0 0 0
0 0 0
0 0 0
0 0 0
0 0 0
0 0 0
0 0 0
0 0 0
0 0 0
0 0 0
0 0 0
0 0 0
0 0 0
0 0 0
0 0 0
0 0 0
0 0 0
0 0 0
0 0 0
0 0 0
0 0 0
0 0 0
0 0 0
0 0 0
0 0 0
0 0 0
0 0 0
0 0 0
0 0 0
0 0 0
0 0 0
0 0 0
0 0 0
0 0 0
0 0 0
0 0 0
0 0 0
0 0 0
0 0 0
0 0 0
0 0 0
0 0 0
0 0 0
0 0 0
0 0 0
0 0 0
0 0 0
0 0 0
0 0 0
0 0 0
0 0 0
0 0 0
0 0 0
0 0 0
0 0 0
0 0 0
0 0 0
0 0 0
0 0 0
0 0 0
0 0 0
0 0 0
0 0 0
0 0 0
0 0 0
0 0 0
0 0 0
0 0 0
0 0 0
0 0 0
0 0 0
0 0 0
0 0 0
0 0 0
0 0 0
0 0 0
0 0 0
0 0 0
0 0 0
0 0 0
0 0 0
0 0 0
0 0 0
0 0 0
0 0 0
0 0 0
0 0 0
0 0 0
0 0 0
0 0 0
0 0 0
0 0 0
0 0 0
0 0 0
0 0 0
0 0 0
0 0 0
0 0 0
0 0 0
0 0 0
0 0 0
0 0 0
0 0 0
0 0 0
0 0 0
0 0 0
0 0 0
0 0 0
0 0 0
0 0 0
0 0 0
0 0 0
0 0 0
0 0 0
0 0 0
0 0 0
0 0 0
0 0 0
0 0 0
0 0 0
0 0 0
0 0 0
0 0 0
0 0 0
0 0 0
0 0 0
0 0 0
0 0 0
0 0 0
0 0 0
0 0 0
0 0 0
0 0 0
0 0 0
0 0 0
0 0 0
0 0 0
0 0 0
0 0 0
0 0 0
0 0 0
0 0 0
0 0 0
0 0 0
0 0 0
0 0 0
0 0 0
0 0 0
0 0 0
0 0 0
128 128 128
0 0 0
0 0 0
0 0 0
0 0 0
0 0 0
0 0 0
0 0 0
0 0 0
0 0 0
0 0 0
0 0 0
0 0 0
0 0 0
0 0 0
0 0 0
0 0 0
0 0 0
0 0 0
0 0 0
0 0 0
0 0 0
0 0 0
0 0 0
0 0 0
0 0 0
0 0 0
0 0 0
0 0 0
0 0 0
0 0 0
0 0 0
0 0 0
0 0 0
0 0 0
0 0 0
0 0 0
128 128 128
0 0 0
0 0 0
0 0 0
0 0 0
0 0 0
0 0 0
0 0 0
0 0 0
0 0 0
0 0 0
0 0 0
0 0 0
0 0 0
0 0 0
0 0 0
0 0 0
0 0 0
0 0 0
0 0 0
0 0 0
0 0 0
0 0 0
0 0 0
0 0 0
0 0 0
0 0 0
0 0 0
0 0 0
0 0 0
0 0 0
0 0 0
0 0 0
0 0 0
0 0 0
0 0 0
0 0 0
0 0 0
0 0 0
0 0 0
0 0 0
0 0 0
0 0 0
0 0 0
0 0 0
0 0 0
0 0 0
0 0 0
0 0 0
0 0 0
0 0 0
0 0 0
0 0 0
0 0 0
0 0 0
0 0 0
0 0 0
0 0 0
0 0 0
0 0 0
0 0 0
0 0 0
0 0 0
0 0 0
0 0 0
0 0 0
0 0 0
0 0 0
0 0 0
0 0 0
0 0 0
0 0 0
0 0 0
0 0 0
0 0 0
0 0 0
0 0 0
0 0 0
0 0 0
0 0 0
0 0 0
0 0 0
0 0 0
0 0 0
0 0 0
0 0 0
0 0 0
0 0 0
0 0 0
0 0 0
0 0 0
0 0 0
0 0 0
0 0 0
0 0 0
0 0 0
0 0 0
0 0 0
0 0 0
0 0 0
0 0 0
0 0 0
0 0 0
0 0 0
0 0 0
0 0 0
0 0 0
0 0 0
0 0 0
0 0 0
0 0 0
0 0 0
0 0 0
0 0 0
0 0 0
0 0 0
0 0 0
0 0 0
0 0 0
0 0 0
0 0 0
0 0 0
0 0 0
0 0 0
0 0 0
0 0 0
0 0 0
0 0 0
0 0 0
0 0 0
0 0 0
0 0 0
0 0 0
0 0 0
0 0 0
0 0 0
0 0 0
0 0 0
0 0 0
0 0 0
0 0 0
0 0 0
0 0 0
0 0 0
0 0 0
0 0 0
0 0 0
0 0 0
0 0 0
0 0 0
0 0 0
0 0 0
0 0 0
0 0 0
0 0 0
0 0 0
0 0 0
0 0 0
0 0 0
0 0 0
0 0 0
0 0 0
0 0 0
0 0 0
0 0 0
0 0 0
0 0 0
0 0 0
0 0 0
0 0 0
0 0 0
0 0 0
0 0 0
0 0 0
0 0 0
0 0 0
0 0 0
0 0 0
0 0 0
0 0 0
0 0 0
0 0 0
0 0 0
0 0 0
0 0 0
0 0 0
0 0 0
0 0 0
0 0 0
0 0 0
0 0 0
0 0 0
0 0 0
0 0 0
0 0 0
0 0 0
0 0 0
0 0 0
0 0 0
0 0 0
128 128 128
128 128 128
0 0 0
0 0 0
0 0 0
0 0 0
0 0 0
0 0 0
0 0 0
0 0 0
0 0 0
0 0 0
0 0 0
0 0 0
0 0 0
0 0 0
0 0 0
0 0 0
0 0 0
0 0 0
0 0 0
