P3
154 200
255
128 128 128
128 128 128
128 128 128
128 128 128
128 128 128
128 128 128
128 128 128
128 128 128
128 128 128
128 128 128
128 128 128
128 128 128
128 128 128
128 128 128
128 128 128
128 128 128
128 128 128
128 128 128
128 128 128
128 128 128
128 128 128
128 128 128
128 128 128
128 128 128
128 128 128
128 128 128
128 128 128
128 128 128
128 128 128
128 128 128
128 128 128
128 128 128
128 128 128
128 128 128
128 128 128
128 128 128
128 128 128
128 128 128
128 128 128
128 128 128
128 128 128
128 128 128
128 128 128
128 128 128
128 128 128
128 128 128
128 128 128
128 128 128
128 128 128
128 128 128
128 128 128
128 128 128
128 128 128
128 128 128
128 128 128
128 128 128
128 128 128
128 128 128
128 128 128
128 128 128
128 128 128
128 128 128
128 128 128
128 128 128
128 128 128
128 128 128
128 128 128
128 128 128
128 128 128
128 128 128
128 128 128
128 128 128
128 128 128
128 128 128
128 128 128
128 128 128
128 128 128
128 128 128
128 128 128
128 128 128
128 128 128
128 128 128
128 128 128
128 128 128
128 128 128
128 128 128
128 128 128
128 128 128
128 128 128
128 128 128
128 128 128
128 128 128
128 128 128
128 128 128
128 128 128
128 128 128
128 128 128
128 128 128
128 128 128
128 128 128
128 128 128
128 128 128
128 128 128
128 128 128
128 128 128
128 128 128
128 128 128
128 128 128
128 128 128
128 128 128
128 128 128
128 128 128
128 128 128
128 128 128
128 128 128
128 128 128
128 128 128
128 128 128
128 128 128
128 128 128
128 128 128
128 128 128
128 128 128
128 128 128
128 128 128
128 128 128
128 128 128
128 128 128
128 128 128
128 128 128
128 128 128
128 128 128
128 128 128
128 128 128
128 128 128
128 128 128
128 128 128
128 128 128
128 128 128
128 128 128
128 128 128
128 128 128
128 128 128
128 128 128
128 128 128
128 128 128
128 128 128
128 128 128
128 128 128
128 128 128
128 128 128
128 128 128
128 128 128
128 128 128
128 128 128
128 128 128
128 128 128
128 128 128
128 128 128
128 128 128
128 128 128
128 128 128
128 128 128
128 128 128
128 128 128
128 128 128
128 128 128
128 128 128
128 128 128
128 128 128
128 128 128
128 128 128
128 128 128
128 128 128
128 128 128
128 128 128
128 128 128
128 128 128
128 128 128
128 128 128
128 128 128
128 128 128
128 128 128
128 128 128
128 128 128
128 128 128
128 128 128
128 128 128
128 128 128
128 128 128
128 128 128
128 128 128
128 128 128
128 128 128
128 128 128
128 128 128
128 128 128
128 128 128
128 128 128
128 128 128
128 128 128
128 128 128
128 128 128
128 128 128
128 128 128
128 128 128
128 128 128
128 128 128
128 128 128
128 128 128
128 128 128
128 128 128
128 128 128
128 128 128
128 128 128
128 128 128
128 128 128
128 128 128
128 128 128
128 128 128
128 128 128
128 128 128
128 128 128
128 128 128
128 128 128
128 128 128
128 128 128
128 128 128
128 128 128
128 128 128
128 128 128
128 128 128
128 128 128
128 128 128
128 128 128
128 128 128
128 128 128
128 128 128
128 128 128
128 128 128
128 128 128
128 128 128
128 128 128
128 128 128
128 128 128
128 128 128
128 128 128
128 128 128
128 128 128
128 128 128
128 128 128
128 128 128
128 128 128
128 128 128
128 128 128
128 128 128
128 128 128
128 128 128
128 128 128
128 128 128
128 128 128
128 128 128
128 128 128
128 128 128
128 128 128
128 128 128
128 128 128
128 128 128
128 128 128
128 128 128
128 128 128
128 128 128
128 128 128
128 128 128
128 128 128
128 128 128
128 128 128
128 128 128
128 128 128
128 128 128
128 128 128
128 128 128
128 128 128
128 128 128
128 128 128
128 128 128
128 128 128
128 128 128
128 128 128
128 128 128
128 128 128
128 128 128
128 128 128
128 128 128
128 128 128
128 128 128
128 128 128
128 128 128
128 128 128
128 128 128
128 128 128
128 128 128
128 128 128
128 128 128
128 128 128
128 128 128
128 128 128
128 128 128
128 128 128
128 128 128
128 128 128
128 128 128
128 128 128
128 128 128
128 128 128
128 128 128
128 128 128
128 128 128
128 128 128
128 128 128
128 128 128
128 128 128
128 128 128
128 128 128
128 128 128
128 128 128
128 128 128
128 128 128
128 128 128
128 128 128
128 128 128
128 128 128
128 128 128
128 128 128
128 128 128
128 128 128
128 128 128
128 128 128
128 128 128
128 128 128
128 128 128
128 128 128
128 128 128
128 128 128
128 128 128
128 128 128
128 128 128
128 128 128
128 128 128
128 128 128
128 128 128
128 128 128
128 128 128
128 128 128
128 128 128
128 128 128
128 128 128
128 128 128
128 128 128
128 128 128
128 128 128
128 128 128
128 128 128
128 128 128
128 128 128
128 128 128
128 128 128
128 128 128
128 128 128
128 128 128
128 128 128
128 128 128
128 128 128
128 128 128
128 128 128
128 128 128
128 128 128
128 128 128
128 128 128
128 128 128
128 128 128
128 128 128
128 128 128
128 128 128
128 128 128
128 128 128
128 128 128
128 128 128
128 128 128
128 128 128
128 128 128
128 128 128
128 128 128
128 128 128
128 128 128
128 128 128
128 128 128
128 128 128
128 128 128
128 128 128
128 128 128
128 128 128
128 128 128
128 128 128
128 128 128
128 128 128
128 128 128
128 128 128
128 128 128
128 128 128
128 128 128
128 128 128
128 128 128
128 128 128
128 128 128
128 128 128
128 128 128
128 128 128
128 128 128
128 128 128
128 128 128
128 128 128
128 128 128
128 128 128
128 128 128
128 128 128
128 128 128
128 128 128
128 128 128
128 128 128
128 128 128
128 128 128
128 128 128
128 128 128
128 128 128
128 128 128
128 128 128
128 128 128
128 128 128
128 128 128
128 128 128
128 128 128
128 128 128
128 128 128
128 128 128
128 128 128
128 128 128
128 128 128
128 128 128
128 128 128
128 128 128
128 128 128
128 128 128
128 128 128
128 128 128
128 128 128
128 128 128
128 128 128
128 128 128
128 128 128
128 128 128
128 128 128
128 128 128
128 128 128
128 128 128
128 128 128
128 128 128
128 128 128
128 128 128
128 128 128
128 128 128
128 128 128
128 128 128
128 128 128
128 128 128
128 128 128
128 128 128
128 128 128
128 128 128
128 128 128
128 128 128
128 128 128
128 128 128
128 128 128
128 128 128
128 128 128
128 128 128
128 128 128
128 128 128
128 128 128
128 128 128
128 128 128
128 128 128
128 128 128
128 128 128
128 128 128
128 128 128
128 128 128
128 128 128
128 128 128
128 128 128
128 128 128
128 128 128
128 128 128
128 128 128
128 128 128
128 128 128
128 128 128
128 128 128
128 128 128
128 128 128
128 128 128
128 128 128
128 128 128
128 128 128
128 128 128
128 128 128
128 128 128
128 128 128
128 128 128
128 128 128
128 128 128
128 128 128
128 128 128
128 128 128
128 128 128
128 128 128
128 128 128
128 128 128
128 128 128
128 128 128
128 128 128
128 128 128
128 128 128
128 128 128
128 128 128
128 128 128
128 128 128
128 128 128
128 128 128
128 128 128
128 128 128
128 128 128
128 128 128
128 128 128
128 128 128
128 128 128
128 128 128
128 128 128
128 128 128
128 128 128
128 128 128
128 128 128
128 128 128
128 128 128
128 128 128
128 128 128
128 128 128
128 128 128
128 128 128
128 128 128
128 128 128
128 128 128
128 128 128
128 128 128
128 128 128
128 128 128
128 128 128
128 128 128
128 128 128
128 128 128
128 128 128
128 128 128
128 128 128
128 128 128
128 128 128
128 128 128
128 128 128
128 128 128
128 128 128
128 128 128
128 128 128
128 128 128
128 128 128
128 128 128
128 128 128
128 128 128
128 128 128
128 128 128
128 128 128
128 128 128
128 128 128
128 128 128
128 128 128
128 128 128
128 128 128
128 128 128
128 128 128
128 128 128
128 128 128
128 128 128
128 128 128
128 128 128
128 128 128
128 128 128
128 128 128
128 128 128
128 128 128
128 128 128
128 128 128
128 128 128
128 128 128
128 128 128
128 128 128
128 128 128
128 128 128
128 128 128
128 128 128
128 128 128
128 128 128
128 128 128
128 128 128
128 128 128
128 128 128
128 128 128
128 128 128
128 128 128
128 128 128
128 128 128
128 128 128
128 128 128
128 128 128
128 128 128
128 128 128
128 128 128
128 128 128
128 128 128
128 128 128
128 128 128
128 128 128
128 128 128
128 128 128
128 128 128
128 128 128
128 128 128
128 128 128
128 128 128
128 128 128
128 128 128
128 128 128
128 128 128
128 128 128
128 128 128
128 128 128
128 128 128
128 128 128
128 128 128
128 128 128
128 128 128
128 128 128
128 128 128
128 128 128
128 128 128
128 128 128
128 128 128
128 128 128
128 128 128
128 128 128
128 128 128
128 128 128
128 128 128
128 128 128
128 128 128
128 128 128
128 128 128
128 128 128
128 128 128
128 128 128
128 128 128
128 128 128
128 128 128
128 128 128
128 128 128
128 128 128
128 128 128
128 128 128
128 128 128
128 128 128
128 128 128
128 128 128
128 128 128
128 128 128
128 128 128
128 128 128
128 128 128
128 128 128
128 128 128
128 128 128
128 128 128
128 128 128
128 128 128
128 128 128
128 128 128
128 128 128
128 128 128
128 128 128
128 128 128
128 128 128
128 128 128
128 128 128
128 128 128
128 128 128
128 128 128
128 128 128
128 128 128
128 128 128
128 128 128
128 128 128
128 128 128
128 128 128
128 128 128
128 128 128
128 128 128
128 128 128
128 128 128
128 128 128
128 128 128
128 128 128
128 128 128
128 128 128
128 128 128
128 128 128
128 128 128
128 128 128
128 128 128
128 128 128
128 128 128
128 128 128
128 128 128
128 128 128
128 128 128
128 128 128
128 128 128
128 128 128
128 128 128
128 128 128
128 128 128
128 128 128
128 128 128
128 128 128
128 128 128
128 128 128
128 128 128
128 128 128
128 128 128
128 128 128
128 128 128
128 128 128
128 128 128
128 128 128
128 128 128
128 128 128
128 128 128
128 128 128
128 128 128
128 128 128
128 128 128
128 128 128
128 128 128
128 128 128
128 128 128
128 128 128
128 128 128
128 128 128
128 128 128
128 128 128
128 128 128
128 128 128
128 128 128
128 128 128
128 128 128
128 128 128
128 128 128
128 128 128
128 128 128
128 128 128
128 128 128
128 128 128
128 128 128
128 128 128
128 128 128
128 128 128
128 128 128
128 128 128
128 128 128
128 128 128
128 128 128
128 128 128
128 128 128
128 128 128
128 128 128
128 128 128
128 128 128
128 128 128
128 128 128
128 128 128
128 128 128
128 128 128
128 128 128
128 128 128
128 128 128
128 128 128
128 128 128
128 128 128
128 128 128
128 128 128
128 128 128
128 128 128
128 128 128
128 128 128
128 128 128
128 128 128
128 128 128
128 128 128
128 128 128
128 128 128
128 128 128
128 128 128
128 128 128
128 128 128
128 128 128
128 128 128
128 128 128
128 128 128
128 128 128
128 128 128
128 128 128
128 128 128
128 128 128
128 128 128
128 128 128
128 128 128
128 128 128
128 128 128
128 128 128
128 128 128
128 128 128
128 128 128
128 128 128
128 128 128
128 128 128
128 128 128
128 128 128
128 128 128
128 128 128
128 128 128
128 128 128
128 128 128
128 128 128
128 128 128
128 128 128
128 128 128
128 128 128
128 128 128
128 128 128
128 128 128
128 128 128
128 128 128
128 128 128
128 128 128
128 128 128
128 128 128
128 128 128
128 128 128
128 128 128
128 128 128
128 128 128
128 128 128
128 128 128
128 128 128
128 128 128
128 128 128
128 128 128
128 128 128
128 128 128
128 128 128
128 128 128
128 128 128
128 128 128
128 128 128
128 128 128
128 128 128
128 128 128
128 128 128
128 128 128
128 128 128
128 128 128
128 128 128
128 128 128
128 128 128
128 128 128
128 128 128
128 128 128
128 128 128
128 128 128
128 128 128
128 128 128
128 128 128
128 128 128
128 128 128
128 128 128
128 128 128
128 128 128
128 128 128
128 128 128
128 128 128
128 128 128
128 128 128
128 128 128
128 128 128
128 128 128
128 128 128
128 128 128
128 128 128
128 128 128
128 128 128
128 128 128
128 128 128
128 128 128
128 128 128
128 128 128
128 128 128
128 128 128
128 128 128
128 128 128
128 128 128
128 128 128
128 128 128
128 128 128
128 128 128
128 128 128
128 128 128
128 128 128
128 128 128
128 128 128
128 128 128
128 128 128
128 128 128
128 128 128
128 128 128
128 128 128
128 128 128
128 128 128
128 128 128
128 128 128
128 128 128
128 128 128
128 128 128
128 128 128
128 128 128
128 128 128
128 128 128
128 128 128
128 128 128
128 128 128
128 128 128
128 128 128
128 128 128
128 128 128
128 128 128
128 128 128
128 128 128
128 128 128
128 128 128
128 128 128
128 128 128
128 128 128
128 128 128
128 128 128
128 128 128
128 128 128
128 128 128
128 128 128
128 128 128
128 128 128
128 128 128
128 128 128
128 128 128
128 128 128
128 128 128
128 128 128
128 128 128
128 128 128
128 128 128
128 128 128
128 128 128
128 128 128
128 128 128
128 128 128
128 128 128
128 128 128
128 128 128
128 128 128
128 128 128
128 128 128
128 128 128
128 128 128
128 128 128
128 128 128
128 128 128
128 128 128
128 128 128
128 128 128
128 128 128
128 128 128
128 128 128
128 128 128
128 128 128
128 128 128
128 128 128
128 128 128
128 128 128
128 128 128
128 128 128
128 128 128
128 128 128
128 128 128
128 128 128
128 128 128
128 128 128
128 128 128
128 128 128
128 128 128
128 128 128
128 128 128
128 128 128
128 128 128
128 128 128
128 128 128
128 128 128
128 128 128
128 128 128
128 128 128
128 128 128
128 128 128
128 128 128
128 128 128
128 128 128
128 128 128
128 128 128
128 128 128
128 128 128
128 128 128
128 128 128
128 128 128
128 128 128
128 128 128
128 128 128
128 128 128
128 128 128
128 128 128
128 128 128
128 128 128
128 128 128
128 128 128
128 128 128
128 128 128
128 128 128
128 128 128
128 128 128
128 128 128
128 128 128
128 128 128
128 128 128
128 128 128
128 128 128
128 128 128
128 128 128
128 128 128
128 128 128
128 128 128
128 128 128
128 128 128
128 128 128
128 128 128
128 128 128
128 128 128
128 128 128
128 128 128
128 128 128
128 128 128
128 128 128
128 128 128
128 128 128
128 128 128
128 128 128
128 128 128
128 128 128
128 128 128
128 128 128
128 128 128
128 128 128
128 128 128
128 128 128
128 128 128
128 128 128
128 128 128
128 128 128
128 128 128
128 128 128
128 128 128
128 128 128
128 128 128
128 128 128
128 128 128
128 128 128
128 128 128
128 128 128
128 128 128
128 128 128
128 128 128
128 128 128
128 128 128
128 128 128
128 128 128
128 128 128
128 128 128
128 128 128
128 128 128
128 128 128
128 128 128
128 128 128
128 128 128
128 128 128
128 128 128
128 128 128
128 128 128
128 128 128
128 128 128
128 128 128
128 128 128
128 128 128
128 128 128
128 128 128
128 128 128
128 128 128
128 128 128
128 128 128
128 128 128
128 128 128
128 128 128
128 128 128
128 128 128
128 128 128
128 128 128
128 128 128
128 128 128
128 128 128
128 128 128
128 128 128
128 128 128
128 128 128
128 128 128
128 128 128
128 128 128
128 128 128
128 128 128
128 128 128
128 128 128
128 128 128
128 128 128
128 128 128
128 128 128
128 128 128
128 128 128
128 128 128
128 128 128
128 128 128
128 128 128
128 128 128
128 128 128
128 128 128
128 128 128
128 128 128
128 128 128
128 128 128
128 128 128
128 128 128
128 128 128
128 128 128
128 128 128
128 128 128
128 128 128
128 128 128
128 128 128
128 128 128
128 128 128
128 128 128
128 128 128
128 128 128
128 128 128
128 128 128
128 128 128
128 128 128
128 128 128
128 128 128
128 128 128
128 128 128
128 128 128
128 128 128
128 128 128
128 128 128
128 128 128
128 128 128
128 128 128
128 128 128
128 128 128
128 128 128
128 128 128
128 128 128
128 128 128
128 128 128
128 128 128
128 128 128
128 128 128
128 128 128
128 128 128
128 128 128
128 128 128
128 128 128
128 128 128
128 128 128
128 128 128
128 128 128
128 128 128
128 128 128
128 128 128
128 128 128
128 128 128
128 128 128
128 128 128
128 128 128
128 128 128
128 128 128
128 128 128
128 128 128
128 128 128
128 128 128
128 128 128
128 128 128
128 128 128
128 128 128
128 128 128
128 128 128
128 128 128
128 128 128
128 128 128
128 128 128
128 128 128
128 128 128
128 128 128
128 128 128
128 128 128
128 128 128
128 128 128
128 128 128
128 128 128
128 128 128
128 128 128
128 128 128
128 128 128
128 128 128
128 128 128
128 128 128
128 128 128
128 128 128
128 128 128
128 128 128
128 128 128
128 128 128
128 128 128
128 128 128
128 128 128
128 128 128
128 128 128
128 128 128
128 128 128
128 128 128
128 128 128
128 128 128
128 128 128
128 128 128
128 128 128
128 128 128
128 128 128
128 128 128
128 128 128
128 128 128
128 128 128
128 128 128
128 128 128
128 128 128
128 128 128
128 128 128
128 128 128
128 128 128
128 128 128
128 128 128
128 128 128
128 128 128
128 128 128
128 128 128
128 128 128
128 128 128
128 128 128
128 128 128
128 128 128
128 128 128
128 128 128
128 128 128
128 128 128
128 128 128
128 128 128
128 128 128
128 128 128
128 128 128
128 128 128
128 128 128
128 128 128
128 128 128
128 128 128
128 128 128
128 128 128
128 128 128
128 128 128
128 128 128
128 128 128
128 128 128
128 128 128
128 128 128
128 128 128
128 128 128
128 128 128
128 128 128
128 128 128
128 128 128
128 128 128
128 128 128
128 128 128
128 128 128
128 128 128
128 128 128
128 128 128
128 128 128
128 128 128
128 128 128
128 128 128
128 128 128
128 128 128
128 128 128
128 128 128
128 128 128
128 128 128
128 128 128
128 128 128
128 128 128
128 128 128
128 128 128
128 128 128
128 128 128
128 128 128
128 128 128
128 128 128
128 128 128
128 128 128
128 128 128
128 128 128
128 128 128
128 128 128
128 128 128
128 128 128
128 128 128
128 128 128
128 128 128
128 128 128
128 128 128
128 128 128
128 128 128
128 128 128
128 128 128
128 128 128
128 128 128
128 128 128
128 128 128
128 128 128
128 128 128
128 128 128
128 128 128
128 128 128
128 128 128
128 128 128
128 128 128
128 128 128
128 128 128
128 128 128
128 128 128
128 128 128
128 128 128
128 128 128
128 128 128
128 128 128
128 128 128
128 128 128
128 128 128
128 128 128
128 128 128
128 128 128
128 128 128
128 128 128
128 128 128
128 128 128
128 128 128
128 128 128
128 128 128
128 128 128
128 128 128
128 128 128
128 128 128
128 128 128
128 128 128
128 128 128
128 128 128
128 128 128
128 128 128
128 128 128
128 128 128
128 128 128
128 128 128
128 128 128
128 128 128
128 128 128
128 128 128
128 128 128
128 128 128
128 128 128
128 128 128
128 128 128
128 128 128
128 128 128
128 128 128
128 128 128
128 128 128
128 128 128
128 128 128
128 128 128
128 128 128
128 128 128
128 128 128
128 128 128
128 128 128
128 128 128
128 128 128
128 128 128
128 128 128
128 128 128
128 128 128
128 128 128
128 128 128
128 128 128
128 128 128
128 128 128
128 128 128
128 128 128
128 128 128
128 128 128
128 128 128
128 128 128
128 128 128
128 128 128
128 128 128
128 128 128
128 128 128
128 128 128
128 128 128
128 128 128
128 128 128
128 128 128
128 128 128
128 128 128
128 128 128
128 128 128
128 128 128
128 128 128
128 128 128
128 128 128
128 128 128
128 128 128
128 128 128
128 128 128
128 128 128
128 128 128
128 128 128
128 128 128
128 128 128
128 128 128
128 128 128
128 128 128
128 128 128
128 128 128
128 128 128
128 128 128
128 128 128
128 128 128
128 128 128
128 128 128
128 128 128
128 128 128
128 128 128
128 128 128
128 128 128
128 128 128
128 128 128
128 128 128
128 128 128
128 128 128
128 128 128
128 128 128
128 128 128
128 128 128
128 128 128
128 128 128
128 128 128
128 128 128
128 128 128
128 128 128
128 128 128
128 128 128
128 128 128
128 128 128
128 128 128
128 128 128
128 128 128
128 128 128
128 128 128
128 128 128
128 128 128
128 128 128
128 128 128
128 128 128
128 128 128
128 128 128
128 128 128
128 128 128
128 128 128
128 128 128
128 128 128
128 128 128
128 128 128
128 128 128
128 128 128
128 128 128
128 128 128
128 128 128
128 128 128
128 128 128
128 128 128
128 128 128
128 128 128
128 128 128
128 128 128
128 128 128
128 128 128
128 128 128
128 128 128
128 128 128
128 128 128
128 128 128
128 128 128
128 128 128
128 128 128
128 128 128
128 128 128
128 128 128
128 128 128
128 128 128
128 128 128
128 128 128
128 128 128
128 128 128
128 128 128
128 128 128
128 128 128
128 128 128
128 128 128
128 128 128
128 128 128
128 128 128
128 128 128
128 128 128
128 128 128
128 128 128
128 128 128
128 128 128
128 128 128
128 128 128
128 128 128
128 128 128
128 128 128
128 128 128
128 128 128
128 128 128
128 128 128
128 128 128
128 128 128
128 128 128
128 128 128
128 128 128
128 128 128
128 128 128
128 128 128
128 128 128
128 128 128
128 128 128
128 128 128
128 128 128
128 128 128
128 128 128
128 128 128
128 128 128
128 128 128
128 128 128
128 128 128
128 128 128
128 128 128
128 128 128
128 128 128
128 128 128
128 128 128
128 128 128
128 128 128
128 128 128
128 128 128
128 128 128
128 128 128
128 128 128
128 128 128
128 128 128
128 128 128
128 128 128
128 128 128
128 128 128
128 128 128
128 128 128
128 128 128
128 128 128
128 128 128
128 128 128
128 128 128
128 128 128
128 128 128
128 128 128
128 128 128
128 128 128
128 128 128
128 128 128
128 128 128
128 128 128
128 128 128
128 128 128
128 128 128
128 128 128
128 128 128
128 128 128
128 128 128
128 128 128
128 128 128
128 128 128
128 128 128
128 128 128
128 128 128
128 128 128
128 128 128
128 128 128
128 128 128
128 128 128
128 128 128
128 128 128
128 128 128
128 128 128
128 128 128
128 128 128
128 128 128
128 128 128
128 128 128
128 128 128
128 128 128
128 128 128
128 128 128
128 128 128
128 128 128
128 128 128
128 128 128
128 128 128
128 128 128
128 128 128
128 128 128
128 128 128
128 128 128
128 128 128
128 128 128
128 128 128
128 128 128
128 128 128
128 128 128
128 128 128
128 128 128
128 128 128
128 128 128
128 128 128
128 128 128
128 128 128
128 128 128
128 128 128
128 128 128
128 128 128
128 128 128
128 128 128
128 128 128
128 128 128
128 128 128
128 128 128
128 128 128
128 128 128
128 128 128
128 128 128
128 128 128
128 128 128
128 128 128
128 128 128
128 128 128
128 128 128
128 128 128
128 128 128
128 128 128
128 128 128
128 128 128
128 128 128
128 128 128
128 128 128
128 128 128
128 128 128
128 128 128
128 128 128
128 128 128
128 128 128
128 128 128
128 128 128
128 128 128
128 128 128
128 128 128
128 128 128
128 128 128
128 128 128
128 128 128
128 128 128
128 128 128
128 128 128
128 128 128
128 128 128
128 128 128
128 128 128
128 128 128
128 128 128
128 128 128
128 128 128
128 128 128
128 128 128
128 128 128
128 128 128
128 128 128
128 128 128
128 128 128
128 128 128
128 128 128
128 128 128
128 128 128
128 128 128
128 128 128
128 128 128
128 128 128
128 128 128
128 128 128
128 128 128
128 128 128
128 128 128
128 128 128
128 128 128
128 128 128
128 128 128
128 128 128
128 128 128
128 128 128
128 128 128
128 128 128
128 128 128
128 128 128
128 128 128
128 128 128
128 128 128
128 128 128
128 128 128
128 128 128
128 128 128
128 128 128
128 128 128
128 128 128
128 128 128
128 128 128
128 128 128
128 128 128
128 128 128
128 128 128
128 128 128
128 128 128
128 128 128
128 128 128
128 128 128
128 128 128
128 128 128
128 128 128
128 128 128
128 128 128
128 128 128
128 128 128
128 128 128
128 128 128
128 128 128
128 128 128
128 128 128
128 128 128
128 128 128
128 128 128
128 128 128
128 128 128
128 128 128
128 128 128
128 128 128
128 128 128
128 128 128
128 128 128
128 128 128
128 128 128
128 128 128
128 128 128
128 128 128
128 128 128
128 128 128
128 128 128
128 128 128
128 128 128
128 128 128
128 128 128
128 128 128
128 128 128
128 128 128
128 128 128
128 128 128
128 128 128
128 128 128
128 128 128
128 128 128
128 128 128
128 128 128
128 128 128
128 128 128
128 128 128
128 128 128
128 128 128
128 128 128
128 128 128
128 128 128
128 128 128
128 128 128
128 128 128
128 128 128
128 128 128
128 128 128
128 128 128
128 128 128
128 128 128
128 128 128
128 128 128
128 128 128
128 128 128
128 128 128
128 128 128
128 128 128
128 128 128
128 128 128
128 128 128
128 128 128
128 128 128
128 128 128
128 128 128
128 128 128
128 128 128
128 128 128
128 128 128
128 128 128
128 128 128
128 128 128
128 128 128
128 128 128
128 128 128
128 128 128
128 128 128
128 128 128
128 128 128
128 128 128
128 128 128
128 128 128
128 128 128
128 128 128
128 128 128
128 128 128
128 128 128
128 128 128
128 128 128
128 128 128
128 128 128
128 128 128
128 128 128
128 128 128
128 128 128
128 128 128
128 128 128
128 128 128
128 128 128
128 128 128
128 128 128
128 128 128
128 128 128
128 128 128
128 128 128
128 128 128
128 128 128
128 128 128
128 128 128
128 128 128
128 128 128
128 128 128
128 128 128
128 128 128
128 128 128
128 128 128
128 128 128
128 128 128
128 128 128
128 128 128
128 128 128
128 128 128
128 128 128
128 128 128
128 128 128
128 128 128
128 128 128
128 128 128
128 128 128
128 128 128
128 128 128
128 128 128
128 128 128
128 128 128
128 128 128
128 128 128
128 128 128
128 128 128
128 128 128
128 128 128
128 128 128
128 128 128
128 128 128
128 128 128
128 128 128
128 128 128
128 128 128
128 128 128
128 128 128
128 128 128
128 128 128
128 128 128
128 128 128
128 128 128
128 128 128
128 128 128
128 128 128
128 128 128
128 128 128
128 128 128
128 128 128
128 128 128
128 128 128
128 128 128
128 128 128
128 128 128
128 128 128
128 128 128
128 128 128
128 128 128
128 128 128
128 128 128
128 128 128
128 128 128
128 128 128
128 128 128
128 128 128
128 128 128
128 128 128
128 128 128
128 128 128
128 128 128
128 128 128
128 128 128
128 128 128
128 128 128
128 128 128
128 128 128
128 128 128
128 128 128
128 128 128
128 128 128
128 128 128
128 128 128
128 128 128
128 128 128
128 128 128
128 128 128
128 128 128
128 128 128
128 128 128
128 128 128
128 128 128
128 128 128
128 128 128
128 128 128
128 128 128
128 128 128
128 128 128
128 128 128
128 128 128
128 128 128
128 128 128
128 128 128
128 128 128
128 128 128
128 128 128
128 128 128
128 128 128
128 128 128
128 128 128
128 128 128
128 128 128
128 128 128
128 128 128
128 128 128
128 128 128
128 128 128
128 128 128
128 128 128
128 128 128
128 128 128
128 128 128
128 128 128
128 128 128
128 128 128
128 128 128
128 128 128
128 128 128
128 128 128
128 128 128
128 128 128
128 128 128
128 128 128
128 128 128
128 128 128
128 128 128
128 128 128
128 128 128
128 128 128
128 128 128
128 128 128
128 128 128
128 128 128
128 128 128
128 128 128
128 128 128
128 128 128
128 128 128
128 128 128
128 128 128
128 128 128
128 128 128
128 128 128
128 128 128
128 128 128
128 128 128
128 128 128
128 128 128
128 128 128
128 128 128
128 128 128
128 128 128
128 128 128
128 128 128
128 128 128
128 128 128
128 128 128
128 128 128
128 128 128
128 128 128
128 128 128
128 128 128
128 128 128
128 128 128
128 128 128
128 128 128
128 128 128
128 128 128
128 128 128
128 128 128
128 128 128
128 128 128
128 128 128
128 128 128
128 128 128
128 128 128
128 128 128
128 128 128
128 128 128
128 128 128
128 128 128
128 128 128
128 128 128
128 128 128
128 128 128
128 128 128
128 128 128
128 128 128
128 128 128
128 128 128
128 128 128
128 128 128
128 128 128
128 128 128
128 128 128
128 128 128
128 128 128
128 128 128
128 128 128
128 128 128
128 128 128
128 128 128
128 128 128
128 128 128
128 128 128
128 128 128
128 128 128
128 128 128
128 128 128
128 128 128
128 128 128
128 128 128
128 128 128
128 128 128
128 128 128
128 128 128
128 128 128
128 128 128
128 128 128
128 128 128
128 128 128
128 128 128
128 128 128
128 128 128
128 128 128
128 128 128
128 128 128
128 128 128
128 128 128
128 128 128
128 128 128
128 128 128
128 128 128
128 128 128
128 128 128
128 128 128
128 128 128
128 128 128
128 128 128
128 128 128
128 128 128
128 128 128
128 128 128
128 128 128
128 128 128
128 128 128
128 128 128
128 128 128
128 128 128
128 128 128
128 128 128
128 128 128
128 128 128
128 128 128
128 128 128
128 128 128
128 128 128
128 128 128
128 128 128
128 128 128
128 128 128
128 128 128
128 128 128
128 128 128
128 128 128
128 128 128
128 128 128
128 128 128
128 128 128
128 128 128
128 128 128
128 128 128
128 128 128
128 128 128
128 128 128
128 128 128
128 128 128
128 128 128
128 128 128
128 128 128
128 128 128
128 128 128
128 128 128
128 128 128
128 128 128
128 128 128
128 128 128
128 128 128
128 128 128
128 128 128
128 128 128
128 128 128
128 128 128
128 128 128
128 128 128
128 128 128
128 128 128
128 128 128
128 128 128
128 128 128
128 128 128
128 128 128
128 128 128
128 128 128
128 128 128
128 128 128
128 128 128
128 128 128
128 128 128
128 128 128
128 128 128
128 128 128
128 128 128
128 128 128
128 128 128
128 128 128
128 128 128
128 128 128
128 128 128
128 128 128
128 128 128
128 128 128
128 128 128
128 128 128
128 128 128
128 128 128
128 128 128
128 128 128
128 128 128
128 128 128
128 128 128
128 128 128
128 128 128
128 128 128
128 128 128
128 128 128
128 128 128
128 128 128
128 128 128
128 128 128
128 128 128
128 128 128
128 128 128
128 128 128
128 128 128
128 128 128
128 128 128
128 128 128
128 128 128
128 128 128
128 128 128
128 128 128
128 128 128
128 128 128
128 128 128
128 128 128
128 128 128
128 128 128
128 128 128
128 128 128
128 128 128
128 128 128
128 128 128
128 128 128
128 128 128
128 128 128
128 128 128
128 128 128
128 128 128
128 128 128
128 128 128
128 128 128
128 128 128
128 128 128
128 128 128
128 128 128
128 128 128
128 128 128
128 128 128
128 128 128
128 128 128
128 128 128
128 128 128
128 128 128
128 128 128
128 128 128
128 128 128
128 128 128
128 128 128
128 128 128
128 128 128
128 128 128
128 128 128
128 128 128
128 128 128
128 128 128
128 128 128
128 128 128
128 128 128
128 128 128
128 128 128
128 128 128
128 128 128
128 128 128
128 128 128
128 128 128
128 128 128
128 128 128
128 128 128
128 128 128
128 128 128
128 128 128
128 128 128
128 128 128
128 128 128
128 128 128
128 128 128
128 128 128
128 128 128
128 128 128
128 128 128
128 128 128
128 128 128
128 128 128
128 128 128
128 128 128
128 128 128
128 128 128
128 128 128
128 128 128
128 128 128
128 128 128
128 128 128
128 128 128
128 128 128
128 128 128
128 128 128
128 128 128
128 128 128
128 128 128
128 128 128
128 128 128
128 128 128
128 128 128
128 128 128
128 128 128
128 128 128
128 128 128
128 128 128
128 128 128
128 128 128
128 128 128
128 128 128
128 128 128
128 128 128
128 128 128
128 128 128
128 128 128
128 128 128
128 128 128
128 128 128
128 128 128
128 128 128
128 128 128
128 128 128
128 128 128
128 128 128
128 128 128
128 128 128
128 128 128
128 128 128
128 128 128
128 128 128
128 128 128
128 128 128
128 128 128
128 128 128
128 128 128
128 128 128
128 128 128
128 128 128
128 128 128
128 128 128
128 128 128
128 128 128
128 128 128
128 128 128
128 128 128
128 128 128
128 128 128
128 128 128
128 128 128
128 128 128
128 128 128
128 128 128
128 128 128
128 128 128
128 128 128
128 128 128
128 128 128
128 128 128
128 128 128
128 128 128
128 128 128
128 128 128
128 128 128
128 128 128
128 128 128
128 128 128
128 128 128
128 128 128
128 128 128
128 128 128
128 128 128
128 128 128
128 128 128
128 128 128
128 128 128
128 128 128
128 128 128
128 128 128
128 128 128
128 128 128
128 128 128
128 128 128
128 128 128
128 128 128
128 128 128
128 128 128
128 128 128
128 128 128
128 128 128
128 128 128
128 128 128
128 128 128
128 128 128
128 128 128
128 128 128
128 128 128
128 128 128
128 128 128
128 128 128
128 128 128
128 128 128
128 128 128
128 128 128
128 128 128
128 128 128
128 128 128
128 128 128
128 128 128
128 128 128
128 128 128
128 128 128
128 128 128
128 128 128
128 128 128
128 128 128
128 128 128
128 128 128
128 128 128
128 128 128
128 128 128
128 128 128
128 128 128
128 128 128
128 128 128
128 128 128
128 128 128
128 128 128
128 128 128
128 128 128
128 128 128
128 128 128
128 128 128
128 128 128
128 128 128
128 128 128
128 128 128
128 128 128
128 128 128
128 128 128
128 128 128
128 128 128
128 128 128
128 128 128
128 128 128
128 128 128
128 128 128
128 128 128
128 128 128
128 128 128
128 128 128
128 128 128
128 128 128
128 128 128
128 128 128
128 128 128
128 128 128
128 128 128
128 128 128
128 128 128
128 128 128
128 128 128
128 128 128
128 128 128
128 128 128
128 128 128
128 128 128
128 128 128
128 128 128
128 128 128
128 128 128
128 128 128
128 128 128
128 128 128
128 128 128
128 128 128
128 128 128
128 128 128
128 128 128
128 128 128
128 128 128
128 128 128
128 128 128
128 128 128
128 128 128
128 128 128
128 128 128
128 128 128
128 128 128
128 128 128
128 128 128
128 128 128
128 128 128
128 128 128
128 128 128
128 128 128
128 128 128
128 128 128
128 128 128
128 128 128
128 128 128
128 128 128
128 128 128
128 128 128
128 128 128
128 128 128
128 128 128
128 128 128
128 128 128
128 128 128
128 128 128
128 128 128
128 128 128
128 128 128
128 128 128
128 128 128
128 128 128
128 128 128
128 128 128
128 128 128
128 128 128
128 128 128
128 128 128
128 128 128
128 128 128
128 128 128
128 128 128
128 128 128
128 128 128
128 128 128
128 128 128
128 128 128
128 128 128
128 128 128
128 128 128
128 128 128
128 128 128
128 128 128
128 128 128
128 128 128
128 128 128
128 128 128
128 128 128
128 128 128
128 128 128
128 128 128
128 128 128
128 128 128
128 128 128
128 128 128
128 128 128
128 128 128
128 128 128
128 128 128
128 128 128
128 128 128
128 128 128
128 128 128
128 128 128
128 128 128
128 128 128
128 128 128
128 128 128
128 128 128
128 128 128
128 128 128
128 128 128
128 128 128
128 128 128
128 128 128
128 128 128
128 128 128
128 128 128
128 128 128
128 128 128
128 128 128
128 128 128
128 128 128
128 128 128
128 128 128
128 128 128
128 128 128
128 128 128
128 128 128
128 128 128
128 128 128
128 128 128
128 128 128
128 128 128
128 128 128
128 128 128
128 128 128
128 128 128
128 128 128
128 128 128
128 128 128
128 128 128
128 128 128
128 128 128
128 128 128
128 128 128
128 128 128
128 128 128
128 128 128
128 128 128
128 128 128
128 128 128
128 128 128
128 128 128
128 128 128
128 128 128
128 128 128
128 128 128
128 128 128
128 128 128
128 128 128
128 128 128
128 128 128
128 128 128
128 128 128
128 128 128
128 128 128
128 128 128
128 128 128
128 128 128
128 128 128
128 128 128
128 128 128
128 128 128
128 128 128
128 128 128
128 128 128
128 128 128
128 128 128
128 128 128
128 128 128
128 128 128
128 128 128
128 128 128
128 128 128
128 128 128
128 128 128
128 128 128
128 128 128
128 128 128
128 128 128
128 128 128
128 128 128
128 128 128
128 128 128
128 128 128
128 128 128
128 128 128
128 128 128
128 128 128
128 128 128
128 128 128
128 128 128
128 128 128
128 128 128
128 128 128
128 128 128
128 128 128
128 128 128
128 128 128
128 128 128
128 128 128
128 128 128
128 128 128
128 128 128
128 128 128
128 128 128
128 128 128
128 128 128
128 128 128
128 128 128
128 128 128
128 128 128
128 128 128
128 128 128
128 128 128
128 128 128
128 128 128
128 128 128
128 128 128
128 128 128
128 128 128
128 128 128
128 128 128
128 128 128
128 128 128
128 128 128
128 128 128
128 128 128
128 128 128
128 128 128
128 128 128
128 128 128
128 128 128
128 128 128
128 128 128
128 128 128
128 128 128
128 128 128
128 128 128
128 128 128
128 128 128
128 128 128
128 128 128
128 128 128
128 128 128
128 128 128
128 128 128
128 128 128
128 128 128
128 128 128
128 128 128
128 128 128
128 128 128
128 128 128
128 128 128
128 128 128
128 128 128
128 128 128
128 128 128
128 128 128
128 128 128
128 128 128
128 128 128
128 128 128
128 128 128
128 128 128
128 128 128
128 128 128
128 128 128
128 128 128
128 128 128
128 128 128
128 128 128
128 128 128
128 128 128
128 128 128
128 128 128
128 128 128
128 128 128
128 128 128
128 128 128
128 128 128
128 128 128
128 128 128
128 128 128
128 128 128
128 128 128
128 128 128
128 128 128
128 128 128
128 128 128
128 128 128
128 128 128
128 128 128
128 128 128
128 128 128
128 128 128
128 128 128
128 128 128
128 128 128
128 128 128
128 128 128
128 128 128
128 128 128
128 128 128
128 128 128
128 128 128
128 128 128
128 128 128
128 128 128
128 128 128
128 128 128
128 128 128
128 128 128
128 128 128
128 128 128
128 128 128
128 128 128
128 128 128
128 128 128
128 128 128
128 128 128
128 128 128
128 128 128
128 128 128
128 128 128
128 128 128
128 128 128
128 128 128
128 128 128
128 128 128
128 128 128
128 128 128
128 128 128
128 128 128
128 128 128
128 128 128
128 128 128
128 128 128
128 128 128
128 128 128
128 128 128
128 128 128
128 128 128
128 128 128
128 128 128
128 128 128
128 128 128
128 128 128
128 128 128
128 128 128
128 128 128
128 128 128
128 128 128
128 128 128
128 128 128
128 128 128
128 128 128
128 128 128
128 128 128
128 128 128
128 128 128
128 128 128
128 128 128
128 128 128
128 128 128
128 128 128
128 128 128
128 128 128
128 128 128
128 128 128
128 128 128
128 128 128
128 128 128
128 128 128
128 128 128
128 128 128
128 128 128
128 128 128
128 128 128
128 128 128
128 128 128
128 128 128
128 128 128
128 128 128
128 128 128
128 128 128
128 128 128
128 128 128
128 128 128
128 128 128
128 128 128
128 128 128
128 128 128
128 128 128
128 128 128
128 128 128
128 128 128
128 128 128
128 128 128
128 128 128
128 128 128
128 128 128
128 128 128
128 128 128
128 128 128
128 128 128
128 128 128
128 128 128
128 128 128
128 128 128
128 128 128
128 128 128
128 128 128
128 128 128
128 128 128
128 128 128
128 128 128
128 128 128
128 128 128
128 128 128
128 128 128
128 128 128
128 128 128
128 128 128
128 128 128
128 128 128
128 128 128
128 128 128
128 128 128
128 128 128
128 128 128
128 128 128
128 128 128
128 128 128
128 128 128
128 128 128
128 128 128
128 128 128
128 128 128
128 128 128
128 128 128
128 128 128
128 128 128
128 128 128
128 128 128
128 128 128
128 128 128
128 128 128
128 128 128
128 128 128
128 128 128
128 128 128
128 128 128
128 128 128
128 128 128
128 128 128
128 128 128
128 128 128
128 128 128
128 128 128
128 128 128
128 128 128
128 128 128
128 128 128
128 128 128
128 128 128
128 128 128
128 128 128
128 128 128
128 128 128
128 128 128
128 128 128
128 128 128
128 128 128
128 128 128
128 128 128
128 128 128
128 128 128
128 128 128
128 128 128
128 128 128
128 128 128
128 128 128
128 128 128
128 128 128
128 128 128
128 128 128
128 128 128
128 128 128
128 128 128
128 128 128
128 128 128
128 128 128
128 128 128
128 128 128
128 128 128
128 128 128
128 128 128
128 128 128
128 128 128
128 128 128
128 128 128
128 128 128
128 128 128
128 128 128
128 128 128
128 128 128
128 128 128
128 128 128
128 128 128
128 128 128
128 128 128
128 128 128
128 128 128
128 128 128
128 128 128
128 128 128
128 128 128
128 128 128
128 128 128
128 128 128
128 128 128
128 128 128
128 128 128
128 128 128
128 128 128
128 128 128
128 128 128
128 128 128
128 128 128
128 128 128
128 128 128
128 128 128
128 128 128
128 128 128
128 128 128
128 128 128
128 128 128
128 128 128
128 128 128
128 128 128
128 128 128
128 128 128
128 128 128
128 128 128
128 128 128
128 128 128
128 128 128
128 128 128
128 128 128
128 128 128
128 128 128
128 128 128
128 128 128
128 128 128
128 128 128
128 128 128
128 128 128
128 128 128
128 128 128
128 128 128
128 128 128
128 128 128
128 128 128
128 128 128
128 128 128
128 128 128
128 128 128
128 128 128
128 128 128
128 128 128
128 128 128
128 128 128
128 128 128
128 128 128
128 128 128
128 128 128
128 128 128
128 128 128
128 128 128
128 128 128
128 128 128
128 128 128
128 128 128
128 128 128
128 128 128
128 128 128
128 128 128
128 128 128
128 128 128
128 128 128
128 128 128
128 128 128
128 128 128
128 128 128
128 128 128
128 128 128
128 128 128
128 128 128
128 128 128
128 128 128
128 128 128
128 128 128
128 128 128
128 128 128
128 128 128
128 128 128
128 128 128
128 128 128
128 128 128
128 128 128
128 128 128
128 128 128
128 128 128
128 128 128
128 128 128
128 128 128
128 128 128
128 128 128
128 128 128
128 128 128
128 128 128
128 128 128
128 128 128
128 128 128
128 128 128
128 128 128
128 128 128
128 128 128
128 128 128
128 128 128
128 128 128
128 128 128
128 128 128
128 128 128
128 128 128
128 128 128
128 128 128
128 128 128
128 128 128
128 128 128
128 128 128
128 128 128
128 128 128
128 128 128
128 128 128
128 128 128
128 128 128
128 128 128
128 128 128
128 128 128
128 128 128
128 128 128
128 128 128
128 128 128
128 128 128
128 128 128
128 128 128
128 128 128
128 128 128
128 128 128
128 128 128
128 128 128
128 128 128
128 128 128
128 128 128
128 128 128
128 128 128
128 128 128
128 128 128
128 128 128
128 128 128
128 128 128
128 128 128
128 128 128
128 128 128
128 128 128
128 128 128
128 128 128
128 128 128
128 128 128
128 128 128
128 128 128
128 128 128
128 128 128
128 128 128
128 128 128
128 128 128
128 128 128
128 128 128
128 128 128
128 128 128
128 128 128
128 128 128
128 128 128
128 128 128
128 128 128
128 128 128
128 128 128
128 128 128
128 128 128
128 128 128
128 128 128
128 128 128
128 128 128
128 128 128
128 128 128
128 128 128
128 128 128
128 128 128
128 128 128
128 128 128
128 128 128
128 128 128
128 128 128
128 128 128
128 128 128
128 128 128
128 128 128
128 128 128
128 128 128
128 128 128
128 128 128
128 128 128
128 128 128
128 128 128
128 128 128
128 128 128
128 128 128
128 128 128
128 128 128
128 128 128
128 128 128
128 128 128
128 128 128
128 128 128
128 128 128
128 128 128
128 128 128
128 128 128
128 128 128
128 128 128
128 128 128
128 128 128
128 128 128
128 128 128
128 128 128
128 128 128
128 128 128
128 128 128
128 128 128
128 128 128
128 128 128
128 128 128
128 128 128
128 128 128
128 128 128
128 128 128
128 128 128
128 128 128
128 128 128
128 128 128
128 128 128
128 128 128
128 128 128
128 128 128
128 128 128
128 128 128
128 128 128
128 128 128
128 128 128
128 128 128
128 128 128
128 128 128
128 128 128
128 128 128
128 128 128
128 128 128
128 128 128
128 128 128
128 128 128
128 128 128
128 128 128
128 128 128
128 128 128
128 128 128
128 128 128
128 128 128
128 128 128
128 128 128
128 128 128
128 128 128
128 128 128
128 128 128
128 128 128
128 128 128
128 128 128
128 128 128
128 128 128
128 128 128
128 128 128
128 128 128
128 128 128
128 128 128
128 128 128
128 128 128
128 128 128
128 128 128
128 128 128
128 128 128
128 128 128
128 128 128
128 128 128
128 128 128
128 128 128
128 128 128
128 128 128
128 128 128
128 128 128
128 128 128
128 128 128
128 128 128
128 128 128
128 128 128
128 128 128
128 128 128
128 128 128
128 128 128
128 128 128
128 128 128
128 128 128
128 128 128
128 128 128
128 128 128
128 128 128
128 128 128
128 128 128
128 128 128
128 128 128
128 128 128
128 128 128
128 128 128
128 128 128
128 128 128
128 128 128
128 128 128
128 128 128
128 128 128
128 128 128
128 128 128
128 128 128
128 128 128
128 128 128
128 128 128
128 128 128
128 128 128
128 128 128
128 128 128
128 128 128
128 128 128
128 128 128
128 128 128
128 128 128
128 128 128
128 128 128
128 128 128
128 128 128
128 128 128
128 128 128
128 128 128
128 128 128
128 128 128
128 128 128
128 128 128
128 128 128
128 128 128
128 128 128
128 128 128
128 128 128
128 128 128
128 128 128
128 128 128
128 128 128
128 128 128
128 128 128
128 128 128
128 128 128
128 128 128
128 128 128
128 128 128
128 128 128
128 128 128
128 128 128
128 128 128
128 128 128
128 128 128
128 128 128
128 128 128
128 128 128
128 128 128
128 128 128
128 128 128
128 128 128
128 128 128
128 128 128
128 128 128
128 128 128
128 128 128
128 128 128
128 128 128
128 128 128
128 128 128
128 128 128
128 128 128
128 128 128
128 128 128
128 128 128
128 128 128
128 128 128
128 128 128
128 128 128
128 128 128
128 128 128
128 128 128
128 128 128
128 128 128
128 128 128
128 128 128
128 128 128
128 128 128
128 128 128
128 128 128
128 128 128
128 128 128
128 128 128
128 128 128
128 128 128
128 128 128
128 128 128
128 128 128
128 128 128
128 128 128
128 128 128
128 128 128
128 128 128
128 128 128
128 128 128
128 128 128
128 128 128
128 128 128
128 128 128
128 128 128
128 128 128
128 128 128
128 128 128
128 128 128
128 128 128
128 128 128
128 128 128
128 128 128
128 128 128
128 128 128
128 128 128
128 128 128
128 128 128
128 128 128
128 128 128
128 128 128
128 128 128
128 128 128
128 128 128
128 128 128
128 128 128
128 128 128
128 128 128
128 128 128
128 128 128
128 128 128
128 128 128
128 128 128
128 128 128
128 128 128
128 128 128
128 128 128
128 128 128
128 128 128
128 128 128
128 128 128
128 128 128
128 128 128
128 128 128
128 128 128
128 128 128
128 128 128
128 128 128
128 128 128
128 128 128
128 128 128
128 128 128
128 128 128
128 128 128
128 128 128
128 128 128
128 128 128
128 128 128
128 128 128
128 128 128
128 128 128
128 128 128
128 128 128
128 128 128
128 128 128
128 128 128
128 128 128
128 128 128
128 128 128
128 128 128
128 128 128
128 128 128
128 128 128
128 128 128
128 128 128
128 128 128
128 128 128
128 128 128
128 128 128
128 128 128
128 128 128
128 128 128
128 128 128
128 128 128
128 128 128
128 128 128
128 128 128
128 128 128
128 128 128
128 128 128
128 128 128
128 128 128
128 128 128
128 128 128
128 128 128
128 128 128
128 128 128
128 128 128
128 128 128
128 128 128
128 128 128
128 128 128
128 128 128
128 128 128
128 128 128
128 128 128
128 128 128
128 128 128
128 128 128
128 128 128
128 128 128
128 128 128
128 128 128
128 128 128
128 128 128
128 128 128
128 128 128
128 128 128
128 128 128
128 128 128
128 128 128
128 128 128
128 128 128
128 128 128
128 128 128
128 128 128
128 128 128
128 128 128
128 128 128
128 128 128
128 128 128
128 128 128
128 128 128
128 128 128
128 128 128
128 128 128
128 128 128
128 128 128
128 128 128
128 128 128
128 128 128
128 128 128
128 128 128
128 128 128
128 128 128
128 128 128
128 128 128
128 128 128
128 128 128
128 128 128
128 128 128
128 128 128
128 128 128
128 128 128
128 128 128
128 128 128
128 128 128
128 128 128
128 128 128
128 128 128
128 128 128
128 128 128
128 128 128
128 128 128
128 128 128
128 128 128
128 128 128
128 128 128
128 128 128
128 128 128
128 128 128
128 128 128
128 128 128
128 128 128
128 128 128
128 128 128
128 128 128
128 128 128
128 128 128
128 128 128
128 128 128
128 128 128
128 128 128
128 128 128
128 128 128
128 128 128
128 128 128
128 128 128
128 128 128
128 128 128
128 128 128
128 128 128
128 128 128
128 128 128
128 128 128
128 128 128
128 128 128
128 128 128
128 128 128
128 128 128
128 128 128
128 128 128
128 128 128
128 128 128
128 128 128
128 128 128
128 128 128
128 128 128
128 128 128
128 128 128
128 128 128
128 128 128
128 128 128
128 128 128
128 128 128
128 128 128
128 128 128
128 128 128
128 128 128
128 128 128
128 128 128
128 128 128
128 128 128
128 128 128
128 128 128
128 128 128
128 128 128
128 128 128
128 128 128
128 128 128
128 128 128
128 128 128
128 128 128
128 128 128
128 128 128
128 128 128
128 128 128
128 128 128
128 128 128
128 128 128
128 128 128
128 128 128
128 128 128
128 128 128
128 128 128
128 128 128
128 128 128
128 128 128
128 128 128
128 128 128
128 128 128
128 128 128
128 128 128
128 128 128
128 128 128
128 128 128
128 128 128
128 128 128
128 128 128
128 128 128
128 128 128
128 128 128
128 128 128
128 128 128
128 128 128
128 128 128
128 128 128
128 128 128
128 128 128
128 128 128
128 128 128
128 128 128
128 128 128
128 128 128
128 128 128
128 128 128
128 128 128
128 128 128
128 128 128
128 128 128
128 128 128
128 128 128
128 128 128
128 128 128
128 128 128
128 128 128
128 128 128
128 128 128
128 128 128
128 128 128
128 128 128
128 128 128
128 128 128
128 128 128
128 128 128
128 128 128
128 128 128
128 128 128
128 128 128
128 128 128
128 128 128
128 128 128
128 128 128
128 128 128
128 128 128
128 128 128
128 128 128
128 128 128
128 128 128
128 128 128
128 128 128
128 128 128
128 128 128
128 128 128
128 128 128
128 128 128
128 128 128
128 128 128
128 128 128
128 128 128
128 128 128
128 128 128
128 128 128
128 128 128
128 128 128
128 128 128
128 128 128
128 128 128
128 128 128
128 128 128
128 128 128
128 128 128
128 128 128
128 128 128
128 128 128
128 128 128
128 128 128
128 128 128
128 128 128
128 128 128
128 128 128
128 128 128
128 128 128
128 128 128
128 128 128
128 128 128
128 128 128
128 128 128
128 128 128
128 128 128
128 128 128
128 128 128
128 128 128
128 128 128
128 128 128
128 128 128
128 128 128
128 128 128
128 128 128
128 128 128
128 128 128
128 128 128
128 128 128
128 128 128
128 128 128
128 128 128
128 128 128
128 128 128
128 128 128
128 128 128
128 128 128
128 128 128
128 128 128
128 128 128
128 128 128
128 128 128
128 128 128
128 128 128
128 128 128
128 128 128
128 128 128
128 128 128
128 128 128
128 128 128
128 128 128
128 128 128
128 128 128
128 128 128
128 128 128
128 128 128
128 128 128
128 128 128
128 128 128
128 128 128
128 128 128
128 128 128
128 128 128
128 128 128
128 128 128
128 128 128
128 128 128
128 128 128
128 128 128
128 128 128
128 128 128
128 128 128
128 128 128
128 128 128
128 128 128
128 128 128
128 128 128
128 128 128
128 128 128
128 128 128
128 128 128
128 128 128
128 128 128
128 128 128
128 128 128
128 128 128
128 128 128
0 0 0
128 128 128
128 128 128
128 128 128
128 128 128
128 128 128
128 128 128
128 128 128
128 128 128
128 128 128
128 128 128
128 128 128
128 128 128
128 128 128
128 128 128
128 128 128
128 128 128
128 128 128
128 128 128
128 128 128
128 128 128
128 128 128
128 128 128
128 128 128
128 128 128
128 128 128
128 128 128
128 128 128
128 128 128
128 128 128
128 128 128
128 128 128
128 128 128
128 128 128
128 128 128
128 128 128
128 128 128
128 128 128
128 128 128
128 128 128
128 128 128
128 128 128
128 128 128
128 128 128
128 128 128
128 128 128
128 128 128
128 128 128
128 128 128
128 128 128
128 128 128
128 128 128
128 128 128
128 128 128
128 128 128
128 128 128
128 128 128
128 128 128
128 128 128
128 128 128
128 128 128
128 128 128
128 128 128
128 128 128
128 128 128
128 128 128
128 128 128
128 128 128
128 128 128
128 128 128
128 128 128
128 128 128
128 128 128
128 128 128
128 128 128
128 128 128
128 128 128
128 128 128
128 128 128
128 128 128
128 128 128
128 128 128
128 128 128
128 128 128
128 128 128
128 128 128
128 128 128
128 128 128
128 128 128
128 128 128
128 128 128
128 128 128
128 128 128
128 128 128
128 128 128
128 128 128
128 128 128
128 128 128
128 128 128
128 128 128
128 128 128
128 128 128
128 128 128
128 128 128
128 128 128
128 128 128
128 128 128
128 128 128
128 128 128
128 128 128
128 128 128
128 128 128
128 128 128
128 128 128
128 128 128
128 128 128
128 128 128
128 128 128
128 128 128
128 128 128
128 128 128
128 128 128
128 128 128
128 128 128
128 128 128
128 128 128
128 128 128
128 128 128
128 128 128
128 128 128
128 128 128
128 128 128
128 128 128
128 128 128
128 128 128
128 128 128
128 128 128
128 128 128
128 128 128
128 128 128
128 128 128
128 128 128
128 128 128
128 128 128
128 128 128
128 128 128
128 128 128
128 128 128
128 128 128
128 128 128
128 128 128
128 128 128
128 128 128
128 128 128
128 128 128
128 128 128
128 128 128
128 128 128
128 128 128
128 128 128
128 128 128
128 128 128
128 128 128
128 128 128
128 128 128
128 128 128
128 128 128
128 128 128
128 128 128
128 128 128
128 128 128
128 128 128
128 128 128
128 128 128
128 128 128
128 128 128
128 128 128
128 128 128
128 128 128
128 128 128
128 128 128
128 128 128
128 128 128
128 128 128
128 128 128
128 128 128
128 128 128
128 128 128
128 128 128
128 128 128
128 128 128
128 128 128
128 128 128
128 128 128
128 128 128
128 128 128
128 128 128
128 128 128
128 128 128
128 128 128
128 128 128
128 128 128
128 128 128
128 128 128
128 128 128
128 128 128
128 128 128
128 128 128
128 128 128
128 128 128
128 128 128
128 128 128
128 128 128
128 128 128
128 128 128
128 128 128
128 128 128
128 128 128
128 128 128
128 128 128
128 128 128
128 128 128
128 128 128
128 128 128
128 128 128
128 128 128
128 128 128
128 128 128
128 128 128
128 128 128
128 128 128
128 128 128
128 128 128
128 128 128
128 128 128
128 128 128
128 128 128
128 128 128
128 128 128
128 128 128
128 128 128
128 128 128
128 128 128
128 128 128
128 128 128
128 128 128
128 128 128
128 128 128
128 128 128
128 128 128
128 128 128
128 128 128
128 128 128
128 128 128
128 128 128
128 128 128
128 128 128
128 128 128
128 128 128
128 128 128
128 128 128
128 128 128
128 128 128
128 128 128
128 128 128
128 128 128
128 128 128
128 128 128
128 128 128
128 128 128
128 128 128
128 128 128
128 128 128
128 128 128
128 128 128
128 128 128
128 128 128
128 128 128
128 128 128
128 128 128
128 128 128
128 128 128
128 128 128
128 128 128
128 128 128
128 128 128
128 128 128
128 128 128
128 128 128
128 128 128
128 128 128
128 128 128
128 128 128
128 128 128
128 128 128
128 128 128
128 128 128
128 128 128
128 128 128
128 128 128
128 128 128
128 128 128
128 128 128
128 128 128
128 128 128
128 128 128
128 128 128
128 128 128
128 128 128
128 128 128
128 128 128
128 128 128
128 128 128
128 128 128
128 128 128
128 128 128
128 128 128
128 128 128
128 128 128
128 128 128
128 128 128
128 128 128
128 128 128
128 128 128
128 128 128
128 128 128
128 128 128
128 128 128
128 128 128
128 128 128
128 128 128
128 128 128
128 128 128
128 128 128
128 128 128
128 128 128
128 128 128
128 128 128
128 128 128
128 128 128
128 128 128
128 128 128
128 128 128
128 128 128
128 128 128
128 128 128
128 128 128
128 128 128
128 128 128
128 128 128
128 128 128
128 128 128
128 128 128
128 128 128
128 128 128
128 128 128
128 128 128
128 128 128
128 128 128
128 128 128
128 128 128
128 128 128
128 128 128
128 128 128
128 128 128
128 128 128
128 128 128
128 128 128
128 128 128
128 128 128
128 128 128
128 128 128
128 128 128
128 128 128
128 128 128
128 128 128
128 128 128
128 128 128
128 128 128
128 128 128
128 128 128
128 128 128
128 128 128
128 128 128
128 128 128
128 128 128
128 128 128
128 128 128
128 128 128
128 128 128
128 128 128
128 128 128
128 128 128
128 128 128
128 128 128
128 128 128
128 128 128
128 128 128
128 128 128
128 128 128
128 128 128
128 128 128
128 128 128
128 128 128
128 128 128
128 128 128
128 128 128
128 128 128
128 128 128
128 128 128
128 128 128
128 128 128
128 128 128
128 128 128
128 128 128
128 128 128
128 128 128
128 128 128
128 128 128
128 128 128
128 128 128
128 128 128
128 128 128
128 128 128
128 128 128
128 128 128
128 128 128
128 128 128
128 128 128
128 128 128
128 128 128
128 128 128
128 128 128
128 128 128
128 128 128
128 128 128
128 128 128
128 128 128
128 128 128
128 128 128
128 128 128
128 128 128
128 128 128
128 128 128
128 128 128
128 128 128
128 128 128
128 128 128
128 128 128
128 128 128
128 128 128
128 128 128
128 128 128
128 128 128
128 128 128
128 128 128
128 128 128
128 128 128
128 128 128
128 128 128
128 128 128
128 128 128
128 128 128
128 128 128
128 128 128
128 128 128
128 128 128
128 128 128
128 128 128
128 128 128
128 128 128
128 128 128
128 128 128
128 128 128
128 128 128
128 128 128
128 128 128
128 128 128
128 128 128
128 128 128
128 128 128
128 128 128
128 128 128
128 128 128
128 128 128
128 128 128
128 128 128
128 128 128
128 128 128
128 128 128
128 128 128
128 128 128
128 128 128
128 128 128
128 128 128
128 128 128
128 128 128
128 128 128
128 128 128
128 128 128
128 128 128
128 128 128
128 128 128
128 128 128
128 128 128
128 128 128
128 128 128
128 128 128
128 128 128
128 128 128
128 128 128
128 128 128
128 128 128
128 128 128
128 128 128
128 128 128
128 128 128
128 128 128
128 128 128
128 128 128
128 128 128
128 128 128
128 128 128
128 128 128
128 128 128
128 128 128
128 128 128
128 128 128
128 128 128
128 128 128
128 128 128
128 128 128
128 128 128
128 128 128
128 128 128
128 128 128
128 128 128
128 128 128
128 128 128
128 128 128
128 128 128
128 128 128
128 128 128
128 128 128
128 128 128
128 128 128
128 128 128
128 128 128
128 128 128
128 128 128
128 128 128
128 128 128
128 128 128
128 128 128
128 128 128
128 128 128
128 128 128
128 128 128
128 128 128
128 128 128
128 128 128
128 128 128
128 128 128
128 128 128
128 128 128
128 128 128
128 128 128
128 128 128
128 128 128
128 128 128
128 128 128
128 128 128
128 128 128
128 128 128
128 128 128
128 128 128
128 128 128
128 128 128
128 128 128
128 128 128
128 128 128
128 128 128
128 128 128
128 128 128
128 128 128
128 128 128
128 128 128
128 128 128
128 128 128
128 128 128
128 128 128
128 128 128
128 128 128
128 128 128
128 128 128
128 128 128
128 128 128
128 128 128
128 128 128
128 128 128
128 128 128
128 128 128
128 128 128
128 128 128
0 0 0
0 0 0
128 128 128
128 128 128
128 128 128
128 128 128
128 128 128
128 128 128
128 128 128
128 128 128
128 128 128
128 128 128
128 128 128
128 128 128
128 128 128
128 128 128
128 128 128
128 128 128
128 128 128
0 0 0
128 128 128
128 128 128
0 0 0
0 0 0
128 128 128
128 128 128
128 128 128
128 128 128
128 128 128
128 128 128
128 128 128
128 128 128
128 128 128
128 128 128
128 128 128
128 128 128
128 128 128
128 128 128
128 128 128
128 128 128
128 128 128
128 128 128
128 128 128
128 128 128
128 128 128
128 128 128
128 128 128
128 128 128
128 128 128
128 128 128
128 128 128
128 128 128
128 128 128
128 128 128
128 128 128
128 128 128
128 128 128
128 128 128
128 128 128
128 128 128
128 128 128
128 128 128
128 128 128
128 128 128
128 128 128
128 128 128
128 128 128
128 128 128
128 128 128
128 128 128
128 128 128
128 128 128
128 128 128
128 128 128
128 128 128
128 128 128
128 128 128
128 128 128
128 128 128
128 128 128
128 128 128
128 128 128
128 128 128
128 128 128
128 128 128
128 128 128
128 128 128
128 128 128
128 128 128
128 128 128
128 128 128
128 128 128
128 128 128
128 128 128
128 128 128
128 128 128
128 128 128
128 128 128
128 128 128
128 128 128
128 128 128
128 128 128
128 128 128
128 128 128
128 128 128
128 128 128
128 128 128
128 128 128
128 128 128
128 128 128
128 128 128
128 128 128
128 128 128
128 128 128
128 128 128
128 128 128
128 128 128
128 128 128
128 128 128
128 128 128
128 128 128
128 128 128
128 128 128
128 128 128
128 128 128
128 128 128
128 128 128
128 128 128
0 0 0
0 0 0
128 128 128
128 128 128
128 128 128
128 128 128
128 128 128
128 128 128
128 128 128
128 128 128
128 128 128
128 128 128
128 128 128
128 128 128
128 128 128
128 128 128
128 128 128
128 128 128
128 128 128
128 128 128
128 128 128
128 128 128
128 128 128
128 128 128
128 128 128
128 128 128
128 128 128
128 128 128
128 128 128
128 128 128
128 128 128
128 128 128
128 128 128
128 128 128
128 128 128
128 128 128
128 128 128
128 128 128
128 128 128
128 128 128
128 128 128
128 128 128
128 128 128
128 128 128
128 128 128
128 128 128
128 128 128
0 0 0
0 0 0
0 0 0
128 128 128
128 128 128
128 128 128
128 128 128
128 128 128
128 128 128
128 128 128
128 128 128
128 128 128
128 128 128
128 128 128
128 128 128
128 128 128
128 128 128
128 128 128
128 128 128
128 128 128
128 128 128
128 128 128
128 128 128
128 128 128
128 128 128
128 128 128
128 128 128
128 128 128
128 128 128
128 128 128
128 128 128
128 128 128
128 128 128
128 128 128
128 128 128
128 128 128
128 128 128
128 128 128
128 128 128
128 128 128
128 128 128
128 128 128
128 128 128
128 128 128
128 128 128
128 128 128
128 128 128
128 128 128
128 128 128
128 128 128
128 128 128
128 128 128
128 128 128
128 128 128
128 128 128
128 128 128
128 128 128
128 128 128
128 128 128
128 128 128
128 128 128
128 128 128
128 128 128
128 128 128
128 128 128
128 128 128
128 128 128
128 128 128
128 128 128
128 128 128
128 128 128
128 128 128
128 128 128
128 128 128
128 128 128
128 128 128
128 128 128
128 128 128
128 128 128
128 128 128
128 128 128
128 128 128
128 128 128
128 128 128
128 128 128
128 128 128
128 128 128
128 128 128
128 128 128
128 128 128
128 128 128
128 128 128
128 128 128
128 128 128
128 128 128
128 128 128
128 128 128
128 128 128
128 128 128
128 128 128
128 128 128
128 128 128
128 128 128
128 128 128
128 128 128
128 128 128
128 128 128
128 128 128
128 128 128
128 128 128
128 128 128
128 128 128
128 128 128
128 128 128
128 128 128
128 128 128
128 128 128
128 128 128
128 128 128
128 128 128
128 128 128
128 128 128
128 128 128
128 128 128
128 128 128
128 128 128
128 128 128
128 128 128
128 128 128
128 128 128
128 128 128
128 128 128
128 128 128
128 128 128
128 128 128
128 128 128
128 128 128
128 128 128
128 128 128
128 128 128
128 128 128
128 128 128
128 128 128
128 128 128
128 128 128
128 128 128
128 128 128
128 128 128
128 128 128
128 128 128
128 128 128
128 128 128
128 128 128
128 128 128
0 0 0
0 0 0
0 0 0
128 128 128
128 128 128
0 0 0
0 0 0
0 0 0
128 128 128
128 128 128
128 128 128
128 128 128
128 128 128
128 128 128
128 128 128
128 128 128
128 128 128
128 128 128
128 128 128
128 128 128
128 128 128
128 128 128
128 128 128
128 128 128
128 128 128
128 128 128
128 128 128
128 128 128
128 128 128
128 128 128
128 128 128
128 128 128
128 128 128
128 128 128
128 128 128
128 128 128
128 128 128
128 128 128
128 128 128
128 128 128
128 128 128
128 128 128
128 128 128
128 128 128
128 128 128
128 128 128
128 128 128
128 128 128
128 128 128
128 128 128
128 128 128
128 128 128
128 128 128
128 128 128
128 128 128
128 128 128
128 128 128
128 128 128
128 128 128
128 128 128
128 128 128
128 128 128
128 128 128
128 128 128
128 128 128
128 128 128
128 128 128
128 128 128
128 128 128
128 128 128
128 128 128
128 128 128
128 128 128
128 128 128
128 128 128
128 128 128
128 128 128
128 128 128
128 128 128
128 128 128
128 128 128
128 128 128
128 128 128
128 128 128
128 128 128
128 128 128
128 128 128
128 128 128
128 128 128
128 128 128
128 128 128
128 128 128
128 128 128
128 128 128
128 128 128
128 128 128
128 128 128
128 128 128
128 128 128
128 128 128
128 128 128
128 128 128
128 128 128
128 128 128
128 128 128
0 0 0
128 128 128
128 128 128
128 128 128
128 128 128
128 128 128
128 128 128
128 128 128
128 128 128
128 128 128
128 128 128
128 128 128
128 128 128
128 128 128
128 128 128
128 128 128
128 128 128
128 128 128
128 128 128
128 128 128
128 128 128
128 128 128
128 128 128
128 128 128
128 128 128
128 128 128
128 128 128
128 128 128
128 128 128
128 128 128
128 128 128
128 128 128
128 128 128
128 128 128
128 128 128
128 128 128
128 128 128
128 128 128
128 128 128
128 128 128
128 128 128
128 128 128
128 128 128
128 128 128
128 128 128
128 128 128
128 128 128
0 0 0
0 0 0
0 0 0
0 0 0
0 0 0
128 128 128
0 0 0
0 0 0
0 0 0
0 0 0
128 128 128
128 128 128
128 128 128
128 128 128
128 128 128
128 128 128
128 128 128
128 128 128
128 128 128
128 128 128
128 128 128
128 128 128
128 128 128
128 128 128
128 128 128
128 128 128
128 128 128
128 128 128
128 128 128
128 128 128
128 128 128
128 128 128
128 128 128
128 128 128
128 128 128
128 128 128
128 128 128
128 128 128
128 128 128
128 128 128
128 128 128
128 128 128
128 128 128
128 128 128
128 128 128
128 128 128
128 128 128
128 128 128
128 128 128
128 128 128
128 128 128
128 128 128
128 128 128
128 128 128
128 128 128
128 128 128
128 128 128
128 128 128
128 128 128
128 128 128
128 128 128
128 128 128
128 128 128
128 128 128
128 128 128
128 128 128
128 128 128
128 128 128
128 128 128
128 128 128
128 128 128
128 128 128
128 128 128
128 128 128
128 128 128
128 128 128
128 128 128
128 128 128
128 128 128
128 128 128
128 128 128
128 128 128
128 128 128
128 128 128
128 128 128
128 128 128
128 128 128
128 128 128
128 128 128
128 128 128
128 128 128
128 128 128
128 128 128
128 128 128
128 128 128
128 128 128
128 128 128
128 128 128
128 128 128
128 128 128
128 128 128
128 128 128
128 128 128
128 128 128
128 128 128
128 128 128
128 128 128
0 0 0
0 0 0
128 128 128
128 128 128
128 128 128
128 128 128
128 128 128
128 128 128
128 128 128
128 128 128
128 128 128
128 128 128
128 128 128
128 128 128
128 128 128
128 128 128
128 128 128
128 128 128
128 128 128
128 128 128
128 128 128
128 128 128
128 128 128
128 128 128
128 128 128
128 128 128
128 128 128
128 128 128
128 128 128
128 128 128
128 128 128
128 128 128
128 128 128
128 128 128
128 128 128
128 128 128
128 128 128
128 128 128
128 128 128
128 128 128
128 128 128
128 128 128
128 128 128
128 128 128
128 128 128
128 128 128
128 128 128
0 0 0
0 0 0
0 0 0
0 0 0
0 0 0
0 0 0
0 0 0
0 0 0
0 0 0
128 128 128
128 128 128
128 128 128
128 128 128
128 128 128
128 128 128
128 128 128
128 128 128
128 128 128
128 128 128
128 128 128
128 128 128
128 128 128
128 128 128
128 128 128
128 128 128
128 128 128
128 128 128
128 128 128
128 128 128
128 128 128
128 128 128
128 128 128
128 128 128
128 128 128
128 128 128
128 128 128
128 128 128
128 128 128
128 128 128
128 128 128
128 128 128
128 128 128
128 128 128
128 128 128
128 128 128
128 128 128
128 128 128
128 128 128
128 128 128
128 128 128
128 128 128
128 128 128
128 128 128
128 128 128
128 128 128
128 128 128
128 128 128
128 128 128
128 128 128
128 128 128
128 128 128
128 128 128
128 128 128
128 128 128
128 128 128
128 128 128
128 128 128
128 128 128
128 128 128
128 128 128
128 128 128
128 128 128
128 128 128
128 128 128
128 128 128
128 128 128
128 128 128
128 128 128
128 128 128
128 128 128
128 128 128
128 128 128
128 128 128
128 128 128
128 128 128
128 128 128
128 128 128
128 128 128
128 128 128
128 128 128
128 128 128
128 128 128
128 128 128
128 128 128
128 128 128
128 128 128
128 128 128
128 128 128
128 128 128
128 128 128
128 128 128
128 128 128
128 128 128
128 128 128
128 128 128
128 128 128
128 128 128
128 128 128
0 0 0
128 128 128
128 128 128
128 128 128
128 128 128
128 128 128
128 128 128
128 128 128
128 128 128
128 128 128
128 128 128
128 128 128
128 128 128
128 128 128
128 128 128
128 128 128
128 128 128
128 128 128
128 128 128
128 128 128
128 128 128
128 128 128
128 128 128
128 128 128
128 128 128
128 128 128
128 128 128
128 128 128
128 128 128
128 128 128
128 128 128
128 128 128
128 128 128
128 128 128
128 128 128
128 128 128
128 128 128
128 128 128
128 128 128
128 128 128
128 128 128
128 128 128
128 128 128
128 128 128
128 128 128
128 128 128
0 0 0
0 0 0
0 0 0
0 0 0
0 0 0
0 0 0
0 0 0
0 0 0
0 0 0
128 128 128
128 128 128
128 128 128
128 128 128
128 128 128
128 128 128
128 128 128
128 128 128
128 128 128
128 128 128
128 128 128
128 128 128
128 128 128
128 128 128
128 128 128
128 128 128
128 128 128
128 128 128
128 128 128
128 128 128
128 128 128
128 128 128
128 128 128
128 128 128
128 128 128
128 128 128
128 128 128
128 128 128
128 128 128
128 128 128
128 128 128
128 128 128
128 128 128
128 128 128
128 128 128
128 128 128
128 128 128
128 128 128
128 128 128
128 128 128
128 128 128
128 128 128
128 128 128
128 128 128
128 128 128
128 128 128
128 128 128
128 128 128
128 128 128
128 128 128
128 128 128
128 128 128
128 128 128
128 128 128
128 128 128
128 128 128
128 128 128
128 128 128
128 128 128
128 128 128
128 128 128
128 128 128
128 128 128
128 128 128
128 128 128
128 128 128
128 128 128
128 128 128
128 128 128
128 128 128
128 128 128
128 128 128
128 128 128
128 128 128
128 128 128
128 128 128
128 128 128
128 128 128
128 128 128
128 128 128
128 128 128
128 128 128
128 128 128
128 128 128
128 128 128
128 128 128
128 128 128
128 128 128
128 128 128
128 128 128
128 128 128
128 128 128
128 128 128
128 128 128
128 128 128
128 128 128
128 128 128
128 128 128
128 128 128
0 0 0
0 0 0
128 128 128
128 128 128
128 128 128
128 128 128
128 128 128
128 128 128
128 128 128
128 128 128
128 128 128
128 128 128
128 128 128
128 128 128
128 128 128
128 128 128
128 128 128
128 128 128
128 128 128
128 128 128
128 128 128
128 128 128
128 128 128
128 128 128
128 128 128
128 128 128
128 128 128
128 128 128
128 128 128
128 128 128
128 128 128
128 128 128
128 128 128
128 128 128
128 128 128
128 128 128
128 128 128
128 128 128
128 128 128
128 128 128
128 128 128
128 128 128
128 128 128
128 128 128
128 128 128
128 128 128
0 0 0
0 0 0
0 0 0
0 0 0
0 0 0
0 0 0
0 0 0
0 0 0
128 128 128
0 0 0
128 128 128
128 128 128
128 128 128
128 128 128
128 128 128
128 128 128
128 128 128
128 128 128
128 128 128
128 128 128
128 128 128
128 128 128
128 128 128
128 128 128
128 128 128
128 128 128
128 128 128
128 128 128
128 128 128
128 128 128
128 128 128
128 128 128
128 128 128
128 128 128
128 128 128
128 128 128
128 128 128
128 128 128
128 128 128
128 128 128
128 128 128
128 128 128
128 128 128
128 128 128
128 128 128
128 128 128
128 128 128
128 128 128
128 128 128
128 128 128
128 128 128
128 128 128
128 128 128
128 128 128
128 128 128
128 128 128
128 128 128
128 128 128
128 128 128
128 128 128
128 128 128
128 128 128
128 128 128
128 128 128
128 128 128
128 128 128
128 128 128
128 128 128
128 128 128
128 128 128
128 128 128
128 128 128
128 128 128
128 128 128
128 128 128
128 128 128
128 128 128
128 128 128
128 128 128
128 128 128
128 128 128
128 128 128
128 128 128
128 128 128
128 128 128
128 128 128
128 128 128
128 128 128
128 128 128
128 128 128
128 128 128
128 128 128
128 128 128
128 128 128
128 128 128
128 128 128
128 128 128
128 128 128
128 128 128
128 128 128
128 128 128
128 128 128
128 128 128
128 128 128
128 128 128
128 128 128
128 128 128
128 128 128
0 0 0
128 128 128
128 128 128
128 128 128
128 128 128
128 128 128
128 128 128
128 128 128
128 128 128
128 128 128
128 128 128
128 128 128
128 128 128
128 128 128
128 128 128
128 128 128
128 128 128
128 128 128
128 128 128
128 128 128
128 128 128
128 128 128
128 128 128
128 128 128
128 128 128
128 128 128
128 128 128
128 128 128
128 128 128
128 128 128
128 128 128
128 128 128
128 128 128
128 128 128
128 128 128
128 128 128
128 128 128
128 128 128
128 128 128
128 128 128
128 128 128
128 128 128
128 128 128
128 128 128
128 128 128
128 128 128
0 0 0
0 0 0
0 0 0
0 0 0
0 0 0
0 0 0
0 0 0
0 0 0
128 128 128
128 128 128
128 128 128
128 128 128
128 128 128
128 128 128
128 128 128
128 128 128
128 128 128
128 128 128
128 128 128
128 128 128
128 128 128
128 128 128
128 128 128
128 128 128
128 128 128
128 128 128
128 128 128
128 128 128
128 128 128
128 128 128
128 128 128
128 128 128
128 128 128
128 128 128
128 128 128
128 128 128
128 128 128
128 128 128
128 128 128
128 128 128
128 128 128
128 128 128
128 128 128
128 128 128
128 128 128
128 128 128
128 128 128
128 128 128
128 128 128
128 128 128
128 128 128
128 128 128
128 128 128
128 128 128
128 128 128
128 128 128
128 128 128
128 128 128
128 128 128
128 128 128
128 128 128
128 128 128
128 128 128
128 128 128
128 128 128
128 128 128
128 128 128
128 128 128
128 128 128
128 128 128
128 128 128
128 128 128
128 128 128
128 128 128
128 128 128
128 128 128
128 128 128
128 128 128
128 128 128
128 128 128
128 128 128
128 128 128
128 128 128
128 128 128
128 128 128
128 128 128
128 128 128
128 128 128
128 128 128
128 128 128
128 128 128
128 128 128
128 128 128
128 128 128
128 128 128
128 128 128
128 128 128
128 128 128
128 128 128
128 128 128
128 128 128
128 128 128
128 128 128
128 128 128
128 128 128
128 128 128
128 128 128
128 128 128
128 128 128
128 128 128
128 128 128
128 128 128
128 128 128
128 128 128
128 128 128
128 128 128
128 128 128
128 128 128
128 128 128
128 128 128
128 128 128
128 128 128
128 128 128
128 128 128
128 128 128
128 128 128
128 128 128
128 128 128
128 128 128
128 128 128
128 128 128
128 128 128
128 128 128
128 128 128
128 128 128
128 128 128
128 128 128
128 128 128
128 128 128
128 128 128
128 128 128
128 128 128
128 128 128
128 128 128
128 128 128
128 128 128
128 128 128
128 128 128
128 128 128
128 128 128
128 128 128
128 128 128
128 128 128
128 128 128
128 128 128
0 0 0
0 0 0
0 0 0
0 0 0
0 0 0
0 0 0
0 0 0
128 128 128
128 128 128
128 128 128
0 0 0
128 128 128
128 128 128
128 128 128
128 128 128
128 128 128
128 128 128
128 128 128
128 128 128
128 128 128
128 128 128
128 128 128
128 128 128
128 128 128
128 128 128
128 128 128
128 128 128
128 128 128
128 128 128
128 128 128
128 128 128
128 128 128
128 128 128
128 128 128
128 128 128
128 128 128
128 128 128
128 128 128
128 128 128
128 128 128
128 128 128
128 128 128
128 128 128
128 128 128
128 128 128
128 128 128
128 128 128
128 128 128
128 128 128
128 128 128
128 128 128
128 128 128
128 128 128
128 128 128
128 128 128
128 128 128
128 128 128
128 128 128
128 128 128
128 128 128
128 128 128
128 128 128
128 128 128
128 128 128
128 128 128
128 128 128
128 128 128
128 128 128
128 128 128
128 128 128
128 128 128
128 128 128
128 128 128
128 128 128
128 128 128
128 128 128
128 128 128
128 128 128
128 128 128
128 128 128
128 128 128
128 128 128
128 128 128
128 128 128
128 128 128
128 128 128
128 128 128
128 128 128
128 128 128
128 128 128
128 128 128
128 128 128
128 128 128
128 128 128
128 128 128
128 128 128
128 128 128
128 128 128
128 128 128
128 128 128
128 128 128
128 128 128
128 128 128
128 128 128
128 128 128
128 128 128
128 128 128
128 128 128
128 128 128
128 128 128
128 128 128
128 128 128
128 128 128
128 128 128
128 128 128
128 128 128
128 128 128
128 128 128
128 128 128
0 0 0
0 0 0
0 0 0
0 0 0
128 128 128
128 128 128
128 128 128
128 128 128
128 128 128
128 128 128
128 128 128
128 128 128
128 128 128
128 128 128
128 128 128
128 128 128
128 128 128
128 128 128
128 128 128
128 128 128
128 128 128
128 128 128
128 128 128
128 128 128
128 128 128
128 128 128
128 128 128
128 128 128
128 128 128
128 128 128
128 128 128
128 128 128
128 128 128
128 128 128
128 128 128
128 128 128
0 0 0
0 0 0
0 0 0
0 0 0
0 0 0
128 128 128
128 128 128
128 128 128
128 128 128
128 128 128
128 128 128
128 128 128
128 128 128
128 128 128
128 128 128
128 128 128
128 128 128
128 128 128
128 128 128
128 128 128
128 128 128
128 128 128
128 128 128
128 128 128
128 128 128
128 128 128
128 128 128
128 128 128
128 128 128
128 128 128
128 128 128
128 128 128
128 128 128
128 128 128
128 128 128
128 128 128
128 128 128
128 128 128
128 128 128
128 128 128
0 0 0
128 128 128
128 128 128
128 128 128
128 128 128
128 128 128
128 128 128
128 128 128
128 128 128
128 128 128
128 128 128
128 128 128
128 128 128
128 128 128
128 128 128
128 128 128
128 128 128
128 128 128
128 128 128
128 128 128
128 128 128
128 128 128
128 128 128
128 128 128
128 128 128
128 128 128
128 128 128
128 128 128
128 128 128
128 128 128
128 128 128
128 128 128
128 128 128
128 128 128
128 128 128
128 128 128
128 128 128
128 128 128
128 128 128
128 128 128
128 128 128
128 128 128
128 128 128
128 128 128
128 128 128
128 128 128
128 128 128
128 128 128
128 128 128
128 128 128
128 128 128
128 128 128
128 128 128
128 128 128
128 128 128
128 128 128
128 128 128
128 128 128
128 128 128
128 128 128
128 128 128
128 128 128
128 128 128
128 128 128
128 128 128
128 128 128
128 128 128
0 0 0
128 128 128
128 128 128
128 128 128
0 0 0
0 0 0
0 0 0
0 0 0
128 128 128
128 128 128
128 128 128
128 128 128
0 0 0
0 0 0
0 0 0
0 0 0
128 128 128
128 128 128
128 128 128
128 128 128
128 128 128
128 128 128
128 128 128
128 128 128
128 128 128
128 128 128
128 128 128
128 128 128
128 128 128
128 128 128
128 128 128
128 128 128
128 128 128
0 0 0
0 0 0
128 128 128
128 128 128
128 128 128
128 128 128
128 128 128
128 128 128
128 128 128
128 128 128
128 128 128
128 128 128
128 128 128
0 0 0
0 0 0
128 128 128
128 128 128
0 0 0
128 128 128
128 128 128
128 128 128
128 128 128
128 128 128
128 128 128
128 128 128
128 128 128
128 128 128
128 128 128
128 128 128
128 128 128
128 128 128
128 128 128
128 128 128
128 128 128
128 128 128
128 128 128
128 128 128
128 128 128
128 128 128
0 0 0
0 0 0
0 0 0
128 128 128
128 128 128
128 128 128
128 128 128
128 128 128
128 128 128
128 128 128
128 128 128
128 128 128
128 128 128
128 128 128
0 0 0
0 0 0
128 128 128
128 128 128
128 128 128
128 128 128
128 128 128
128 128 128
128 128 128
128 128 128
128 128 128
128 128 128
128 128 128
128 128 128
128 128 128
128 128 128
128 128 128
128 128 128
128 128 128
128 128 128
128 128 128
128 128 128
128 128 128
128 128 128
128 128 128
128 128 128
128 128 128
128 128 128
128 128 128
128 128 128
128 128 128
128 128 128
128 128 128
128 128 128
128 128 128
128 128 128
128 128 128
128 128 128
128 128 128
128 128 128
128 128 128
128 128 128
128 128 128
128 128 128
128 128 128
128 128 128
128 128 128
128 128 128
128 128 128
128 128 128
128 128 128
128 128 128
128 128 128
128 128 128
128 128 128
128 128 128
128 128 128
128 128 128
128 128 128
128 128 128
128 128 128
128 128 128
128 128 128
128 128 128
128 128 128
128 128 128
128 128 128
128 128 128
128 128 128
128 128 128
128 128 128
128 128 128
128 128 128
0 0 0
128 128 128
128 128 128
128 128 128
128 128 128
128 128 128
128 128 128
128 128 128
128 128 128
128 128 128
128 128 128
0 0 0
128 128 128
128 128 128
128 128 128
128 128 128
128 128 128
128 128 128
128 128 128
128 128 128
128 128 128
128 128 128
128 128 128
128 128 128
128 128 128
128 128 128
128 128 128
128 128 128
0 0 0
0 0 0
0 0 0
0 0 0
128 128 128
128 128 128
128 128 128
128 128 128
128 128 128
128 128 128
128 128 128
128 128 128
128 128 128
128 128 128
0 0 0
128 128 128
128 128 128
128 128 128
128 128 128
128 128 128
128 128 128
128 128 128
128 128 128
128 128 128
128 128 128
128 128 128
128 128 128
128 128 128
128 128 128
128 128 128
128 128 128
128 128 128
128 128 128
128 128 128
128 128 128
128 128 128
128 128 128
128 128 128
128 128 128
0 0 0
0 0 0
0 0 0
128 128 128
128 128 128
128 128 128
128 128 128
128 128 128
128 128 128
128 128 128
128 128 128
128 128 128
128 128 128
0 0 0
0 0 0
0 0 0
128 128 128
128 128 128
128 128 128
128 128 128
128 128 128
128 128 128
128 128 128
128 128 128
128 128 128
128 128 128
128 128 128
128 128 128
128 128 128
128 128 128
128 128 128
128 128 128
128 128 128
128 128 128
128 128 128
128 128 128
128 128 128
128 128 128
128 128 128
128 128 128
128 128 128
128 128 128
128 128 128
128 128 128
128 128 128
128 128 128
128 128 128
128 128 128
128 128 128
128 128 128
128 128 128
128 128 128
128 128 128
128 128 128
128 128 128
128 128 128
128 128 128
128 128 128
128 128 128
128 128 128
128 128 128
128 128 128
128 128 128
128 128 128
128 128 128
128 128 128
128 128 128
128 128 128
128 128 128
128 128 128
128 128 128
128 128 128
128 128 128
128 128 128
128 128 128
128 128 128
128 128 128
128 128 128
128 128 128
128 128 128
128 128 128
128 128 128
128 128 128
128 128 128
128 128 128
128 128 128
128 128 128
128 128 128
128 128 128
128 128 128
128 128 128
128 128 128
128 128 128
128 128 128
128 128 128
128 128 128
128 128 128
128 128 128
128 128 128
128 128 128
128 128 128
128 128 128
128 128 128
128 128 128
128 128 128
128 128 128
128 128 128
128 128 128
128 128 128
128 128 128
128 128 128
128 128 128
128 128 128
128 128 128
128 128 128
0 0 0
0 0 0
0 0 0
0 0 0
128 128 128
128 128 128
128 128 128
128 128 128
128 128 128
128 128 128
128 128 128
128 128 128
128 128 128
128 128 128
0 0 0
128 128 128
0 0 0
128 128 128
128 128 128
128 128 128
128 128 128
128 128 128
128 128 128
128 128 128
128 128 128
128 128 128
128 128 128
128 128 128
128 128 128
128 128 128
128 128 128
128 128 128
128 128 128
128 128 128
128 128 128
128 128 128
128 128 128
128 128 128
128 128 128
0 0 0
0 0 0
0 0 0
0 0 0
128 128 128
128 128 128
128 128 128
128 128 128
128 128 128
128 128 128
128 128 128
128 128 128
128 128 128
0 0 0
0 0 0
0 0 0
128 128 128
128 128 128
128 128 128
128 128 128
128 128 128
128 128 128
128 128 128
128 128 128
128 128 128
128 128 128
128 128 128
128 128 128
128 128 128
128 128 128
128 128 128
128 128 128
0 0 0
128 128 128
128 128 128
128 128 128
128 128 128
128 128 128
128 128 128
128 128 128
128 128 128
128 128 128
128 128 128
128 128 128
128 128 128
128 128 128
128 128 128
128 128 128
128 128 128
128 128 128
128 128 128
128 128 128
128 128 128
128 128 128
128 128 128
128 128 128
128 128 128
128 128 128
128 128 128
128 128 128
128 128 128
128 128 128
128 128 128
128 128 128
128 128 128
128 128 128
128 128 128
128 128 128
128 128 128
128 128 128
128 128 128
128 128 128
128 128 128
128 128 128
128 128 128
128 128 128
128 128 128
128 128 128
128 128 128
128 128 128
128 128 128
128 128 128
128 128 128
128 128 128
128 128 128
128 128 128
128 128 128
128 128 128
128 128 128
128 128 128
128 128 128
128 128 128
128 128 128
128 128 128
128 128 128
128 128 128
128 128 128
128 128 128
128 128 128
128 128 128
0 0 0
0 0 0
128 128 128
128 128 128
128 128 128
128 128 128
128 128 128
128 128 128
128 128 128
128 128 128
128 128 128
128 128 128
128 128 128
128 128 128
128 128 128
0 0 0
0 0 0
0 0 0
128 128 128
128 128 128
128 128 128
128 128 128
128 128 128
128 128 128
128 128 128
128 128 128
128 128 128
128 128 128
128 128 128
128 128 128
128 128 128
0 0 0
128 128 128
128 128 128
128 128 128
128 128 128
128 128 128
128 128 128
128 128 128
128 128 128
128 128 128
128 128 128
128 128 128
128 128 128
128 128 128
128 128 128
128 128 128
128 128 128
128 128 128
128 128 128
128 128 128
128 128 128
128 128 128
128 128 128
128 128 128
0 0 0
0 0 0
0 0 0
128 128 128
128 128 128
128 128 128
128 128 128
128 128 128
128 128 128
128 128 128
0 0 0
0 0 0
0 0 0
0 0 0
0 0 0
0 0 0
128 128 128
128 128 128
128 128 128
128 128 128
128 128 128
128 128 128
128 128 128
128 128 128
128 128 128
128 128 128
128 128 128
128 128 128
128 128 128
128 128 128
128 128 128
0 0 0
128 128 128
128 128 128
128 128 128
128 128 128
128 128 128
128 128 128
128 128 128
128 128 128
128 128 128
128 128 128
128 128 128
128 128 128
128 128 128
128 128 128
128 128 128
128 128 128
128 128 128
128 128 128
128 128 128
128 128 128
128 128 128
128 128 128
128 128 128
128 128 128
128 128 128
128 128 128
128 128 128
128 128 128
128 128 128
128 128 128
128 128 128
128 128 128
128 128 128
128 128 128
128 128 128
128 128 128
128 128 128
128 128 128
128 128 128
128 128 128
128 128 128
128 128 128
128 128 128
128 128 128
128 128 128
128 128 128
128 128 128
128 128 128
128 128 128
128 128 128
128 128 128
128 128 128
128 128 128
128 128 128
128 128 128
128 128 128
128 128 128
128 128 128
128 128 128
128 128 128
128 128 128
128 128 128
128 128 128
128 128 128
128 128 128
128 128 128
0 0 0
0 0 0
128 128 128
128 128 128
128 128 128
128 128 128
128 128 128
128 128 128
128 128 128
128 128 128
128 128 128
128 128 128
128 128 128
128 128 128
128 128 128
128 128 128
128 128 128
0 0 0
0 0 0
128 128 128
128 128 128
128 128 128
128 128 128
128 128 128
128 128 128
128 128 128
128 128 128
128 128 128
128 128 128
128 128 128
0 0 0
128 128 128
0 0 0
128 128 128
128 128 128
128 128 128
128 128 128
128 128 128
128 128 128
128 128 128
128 128 128
128 128 128
128 128 128
128 128 128
128 128 128
128 128 128
128 128 128
128 128 128
128 128 128
128 128 128
128 128 128
128 128 128
128 128 128
128 128 128
128 128 128
128 128 128
128 128 128
0 0 0
128 128 128
128 128 128
128 128 128
128 128 128
128 128 128
128 128 128
128 128 128
128 128 128
0 0 0
0 0 0
0 0 0
0 0 0
0 0 0
0 0 0
0 0 0
128 128 128
128 128 128
128 128 128
128 128 128
128 128 128
128 128 128
128 128 128
128 128 128
128 128 128
128 128 128
128 128 128
128 128 128
128 128 128
128 128 128
0 0 0
128 128 128
128 128 128
128 128 128
128 128 128
128 128 128
128 128 128
128 128 128
128 128 128
128 128 128
128 128 128
128 128 128
128 128 128
128 128 128
128 128 128
128 128 128
128 128 128
128 128 128
128 128 128
128 128 128
128 128 128
128 128 128
128 128 128
128 128 128
128 128 128
128 128 128
128 128 128
128 128 128
128 128 128
128 128 128
128 128 128
128 128 128
128 128 128
128 128 128
128 128 128
128 128 128
128 128 128
128 128 128
128 128 128
128 128 128
128 128 128
128 128 128
128 128 128
128 128 128
128 128 128
128 128 128
128 128 128
128 128 128
128 128 128
128 128 128
128 128 128
128 128 128
128 128 128
128 128 128
128 128 128
128 128 128
128 128 128
128 128 128
128 128 128
128 128 128
128 128 128
128 128 128
128 128 128
128 128 128
0 0 0
0 0 0
0 0 0
0 0 0
128 128 128
128 128 128
128 128 128
128 128 128
128 128 128
128 128 128
128 128 128
128 128 128
128 128 128
128 128 128
128 128 128
128 128 128
128 128 128
128 128 128
128 128 128
0 0 0
0 0 0
0 0 0
128 128 128
128 128 128
128 128 128
128 128 128
128 128 128
128 128 128
128 128 128
128 128 128
128 128 128
128 128 128
128 128 128
128 128 128
128 128 128
0 0 0
128 128 128
128 128 128
128 128 128
128 128 128
128 128 128
128 128 128
128 128 128
128 128 128
128 128 128
128 128 128
128 128 128
128 128 128
128 128 128
128 128 128
128 128 128
128 128 128
128 128 128
128 128 128
128 128 128
128 128 128
128 128 128
128 128 128
128 128 128
128 128 128
128 128 128
128 128 128
128 128 128
128 128 128
128 128 128
128 128 128
128 128 128
128 128 128
128 128 128
128 128 128
0 0 0
0 0 0
0 0 0
0 0 0
0 0 0
0 0 0
128 128 128
128 128 128
128 128 128
128 128 128
128 128 128
128 128 128
128 128 128
128 128 128
128 128 128
128 128 128
128 128 128
128 128 128
128 128 128
128 128 128
128 128 128
128 128 128
128 128 128
128 128 128
128 128 128
128 128 128
128 128 128
128 128 128
128 128 128
128 128 128
128 128 128
128 128 128
128 128 128
128 128 128
128 128 128
128 128 128
128 128 128
128 128 128
128 128 128
128 128 128
128 128 128
128 128 128
128 128 128
128 128 128
128 128 128
128 128 128
128 128 128
128 128 128
128 128 128
128 128 128
128 128 128
128 128 128
128 128 128
128 128 128
128 128 128
128 128 128
128 128 128
128 128 128
128 128 128
128 128 128
128 128 128
128 128 128
128 128 128
128 128 128
128 128 128
128 128 128
128 128 128
128 128 128
128 128 128
128 128 128
128 128 128
128 128 128
128 128 128
128 128 128
128 128 128
128 128 128
128 128 128
128 128 128
128 128 128
128 128 128
128 128 128
128 128 128
128 128 128
128 128 128
0 0 0
0 0 0
0 0 0
0 0 0
128 128 128
128 128 128
128 128 128
128 128 128
128 128 128
128 128 128
128 128 128
128 128 128
128 128 128
128 128 128
128 128 128
128 128 128
128 128 128
128 128 128
0 0 0
128 128 128
128 128 128
128 128 128
128 128 128
128 128 128
128 128 128
128 128 128
128 128 128
128 128 128
128 128 128
128 128 128
128 128 128
128 128 128
128 128 128
128 128 128
0 0 0
128 128 128
128 128 128
128 128 128
128 128 128
128 128 128
128 128 128
128 128 128
128 128 128
128 128 128
128 128 128
128 128 128
128 128 128
128 128 128
128 128 128
128 128 128
128 128 128
128 128 128
128 128 128
128 128 128
128 128 128
128 128 128
128 128 128
128 128 128
128 128 128
128 128 128
128 128 128
0 0 0
128 128 128
128 128 128
128 128 128
128 128 128
128 128 128
128 128 128
128 128 128
128 128 128
0 0 0
0 0 0
0 0 0
0 0 0
0 0 0
128 128 128
0 0 0
128 128 128
128 128 128
128 128 128
128 128 128
128 128 128
128 128 128
128 128 128
128 128 128
128 128 128
128 128 128
128 128 128
128 128 128
128 128 128
128 128 128
128 128 128
128 128 128
128 128 128
128 128 128
128 128 128
128 128 128
128 128 128
128 128 128
128 128 128
128 128 128
128 128 128
128 128 128
128 128 128
128 128 128
128 128 128
128 128 128
128 128 128
128 128 128
128 128 128
128 128 128
128 128 128
128 128 128
128 128 128
128 128 128
128 128 128
128 128 128
128 128 128
128 128 128
128 128 128
128 128 128
128 128 128
128 128 128
128 128 128
128 128 128
128 128 128
128 128 128
128 128 128
128 128 128
128 128 128
128 128 128
128 128 128
128 128 128
128 128 128
128 128 128
128 128 128
128 128 128
128 128 128
128 128 128
128 128 128
128 128 128
128 128 128
128 128 128
128 128 128
128 128 128
128 128 128
128 128 128
128 128 128
128 128 128
128 128 128
128 128 128
128 128 128
128 128 128
128 128 128
128 128 128
0 0 0
0 0 0
128 128 128
128 128 128
128 128 128
128 128 128
128 128 128
128 128 128
128 128 128
128 128 128
128 128 128
128 128 128
128 128 128
128 128 128
128 128 128
128 128 128
128 128 128
0 0 0
128 128 128
128 128 128
128 128 128
128 128 128
128 128 128
128 128 128
128 128 128
128 128 128
128 128 128
128 128 128
128 128 128
128 128 128
128 128 128
128 128 128
0 0 0
0 0 0
128 128 128
128 128 128
128 128 128
128 128 128
128 128 128
128 128 128
128 128 128
128 128 128
128 128 128
128 128 128
128 128 128
128 128 128
128 128 128
128 128 128
128 128 128
128 128 128
128 128 128
128 128 128
128 128 128
128 128 128
128 128 128
128 128 128
128 128 128
128 128 128
128 128 128
128 128 128
128 128 128
128 128 128
128 128 128
128 128 128
128 128 128
128 128 128
128 128 128
128 128 128
128 128 128
128 128 128
0 0 0
0 0 0
0 0 0
0 0 0
128 128 128
128 128 128
128 128 128
128 128 128
128 128 128
128 128 128
128 128 128
128 128 128
128 128 128
128 128 128
128 128 128
128 128 128
128 128 128
128 128 128
128 128 128
128 128 128
128 128 128
128 128 128
128 128 128
128 128 128
128 128 128
128 128 128
128 128 128
128 128 128
128 128 128
128 128 128
128 128 128
128 128 128
128 128 128
128 128 128
128 128 128
128 128 128
128 128 128
128 128 128
128 128 128
128 128 128
128 128 128
128 128 128
128 128 128
128 128 128
128 128 128
128 128 128
128 128 128
128 128 128
128 128 128
128 128 128
128 128 128
128 128 128
128 128 128
128 128 128
128 128 128
128 128 128
128 128 128
128 128 128
128 128 128
128 128 128
128 128 128
128 128 128
128 128 128
128 128 128
128 128 128
128 128 128
128 128 128
128 128 128
128 128 128
128 128 128
128 128 128
128 128 128
128 128 128
128 128 128
128 128 128
128 128 128
128 128 128
128 128 128
128 128 128
128 128 128
128 128 128
128 128 128
128 128 128
128 128 128
128 128 128
0 0 0
128 128 128
128 128 128
0 0 0
128 128 128
128 128 128
128 128 128
128 128 128
128 128 128
128 128 128
128 128 128
128 128 128
128 128 128
128 128 128
128 128 128
128 128 128
128 128 128
128 128 128
128 128 128
128 128 128
128 128 128
128 128 128
128 128 128
128 128 128
128 128 128
128 128 128
128 128 128
128 128 128
128 128 128
128 128 128
128 128 128
0 0 0
0 0 0
128 128 128
128 128 128
128 128 128
128 128 128
128 128 128
128 128 128
128 128 128
128 128 128
128 128 128
128 128 128
128 128 128
128 128 128
128 128 128
128 128 128
128 128 128
128 128 128
128 128 128
128 128 128
128 128 128
128 128 128
128 128 128
128 128 128
128 128 128
128 128 128
128 128 128
128 128 128
128 128 128
128 128 128
128 128 128
128 128 128
128 128 128
128 128 128
128 128 128
128 128 128
128 128 128
128 128 128
0 0 0
0 0 0
0 0 0
0 0 0
128 128 128
128 128 128
128 128 128
128 128 128
128 128 128
128 128 128
128 128 128
128 128 128
128 128 128
128 128 128
128 128 128
128 128 128
128 128 128
128 128 128
128 128 128
128 128 128
128 128 128
128 128 128
128 128 128
128 128 128
128 128 128
128 128 128
128 128 128
128 128 128
128 128 128
128 128 128
128 128 128
128 128 128
128 128 128
128 128 128
128 128 128
128 128 128
128 128 128
128 128 128
128 128 128
128 128 128
128 128 128
128 128 128
128 128 128
128 128 128
128 128 128
128 128 128
128 128 128
128 128 128
128 128 128
128 128 128
128 128 128
128 128 128
128 128 128
128 128 128
128 128 128
128 128 128
128 128 128
128 128 128
128 128 128
128 128 128
128 128 128
128 128 128
128 128 128
128 128 128
128 128 128
128 128 128
128 128 128
128 128 128
128 128 128
128 128 128
128 128 128
128 128 128
128 128 128
128 128 128
128 128 128
128 128 128
128 128 128
128 128 128
128 128 128
128 128 128
128 128 128
128 128 128
128 128 128
128 128 128
128 128 128
128 128 128
128 128 128
128 128 128
128 128 128
128 128 128
128 128 128
128 128 128
128 128 128
128 128 128
128 128 128
128 128 128
128 128 128
128 128 128
128 128 128
128 128 128
128 128 128
128 128 128
128 128 128
128 128 128
128 128 128
128 128 128
128 128 128
128 128 128
128 128 128
128 128 128
128 128 128
128 128 128
128 128 128
128 128 128
128 128 128
128 128 128
0 0 0
128 128 128
128 128 128
128 128 128
128 128 128
128 128 128
128 128 128
128 128 128
128 128 128
128 128 128
128 128 128
128 128 128
128 128 128
128 128 128
128 128 128
128 128 128
128 128 128
128 128 128
128 128 128
128 128 128
128 128 128
128 128 128
128 128 128
128 128 128
128 128 128
128 128 128
128 128 128
128 128 128
128 128 128
128 128 128
128 128 128
128 128 128
128 128 128
128 128 128
128 128 128
128 128 128
128 128 128
128 128 128
128 128 128
0 0 0
0 0 0
0 0 0
128 128 128
128 128 128
128 128 128
128 128 128
128 128 128
128 128 128
128 128 128
128 128 128
128 128 128
128 128 128
128 128 128
128 128 128
128 128 128
128 128 128
128 128 128
128 128 128
128 128 128
128 128 128
128 128 128
128 128 128
128 128 128
128 128 128
128 128 128
128 128 128
128 128 128
128 128 128
128 128 128
128 128 128
128 128 128
128 128 128
128 128 128
128 128 128
128 128 128
128 128 128
128 128 128
128 128 128
128 128 128
128 128 128
128 128 128
128 128 128
128 128 128
128 128 128
128 128 128
128 128 128
128 128 128
128 128 128
128 128 128
128 128 128
128 128 128
128 128 128
128 128 128
128 128 128
128 128 128
128 128 128
128 128 128
128 128 128
128 128 128
128 128 128
128 128 128
128 128 128
128 128 128
128 128 128
128 128 128
128 128 128
128 128 128
128 128 128
128 128 128
128 128 128
128 128 128
128 128 128
128 128 128
128 128 128
128 128 128
128 128 128
128 128 128
128 128 128
128 128 128
128 128 128
128 128 128
128 128 128
128 128 128
128 128 128
128 128 128
128 128 128
128 128 128
128 128 128
128 128 128
128 128 128
128 128 128
128 128 128
128 128 128
128 128 128
128 128 128
128 128 128
128 128 128
128 128 128
128 128 128
128 128 128
128 128 128
128 128 128
128 128 128
128 128 128
0 0 0
128 128 128
128 128 128
128 128 128
128 128 128
128 128 128
128 128 128
128 128 128
128 128 128
128 128 128
0 0 0
128 128 128
128 128 128
128 128 128
128 128 128
128 128 128
128 128 128
128 128 128
0 0 0
0 0 0
128 128 128
128 128 128
128 128 128
128 128 128
128 128 128
128 128 128
128 128 128
128 128 128
128 128 128
128 128 128
128 128 128
128 128 128
128 128 128
128 128 128
128 128 128
128 128 128
128 128 128
128 128 128
128 128 128
128 128 128
128 128 128
128 128 128
128 128 128
128 128 128
128 128 128
128 128 128
128 128 128
128 128 128
128 128 128
128 128 128
128 128 128
128 128 128
128 128 128
128 128 128
128 128 128
128 128 128
128 128 128
128 128 128
128 128 128
128 128 128
128 128 128
128 128 128
128 128 128
128 128 128
128 128 128
128 128 128
128 128 128
128 128 128
128 128 128
128 128 128
128 128 128
128 128 128
128 128 128
128 128 128
128 128 128
128 128 128
128 128 128
128 128 128
128 128 128
128 128 128
128 128 128
128 128 128
128 128 128
128 128 128
128 128 128
128 128 128
128 128 128
128 128 128
128 128 128
128 128 128
128 128 128
128 128 128
128 128 128
128 128 128
128 128 128
128 128 128
128 128 128
128 128 128
128 128 128
128 128 128
128 128 128
128 128 128
128 128 128
128 128 128
128 128 128
128 128 128
128 128 128
128 128 128
128 128 128
128 128 128
128 128 128
128 128 128
128 128 128
128 128 128
128 128 128
128 128 128
128 128 128
128 128 128
128 128 128
128 128 128
128 128 128
128 128 128
128 128 128
128 128 128
128 128 128
128 128 128
128 128 128
128 128 128
128 128 128
128 128 128
128 128 128
128 128 128
128 128 128
128 128 128
128 128 128
128 128 128
128 128 128
128 128 128
0 0 0
128 128 128
128 128 128
128 128 128
128 128 128
128 128 128
128 128 128
128 128 128
128 128 128
128 128 128
128 128 128
128 128 128
128 128 128
128 128 128
128 128 128
128 128 128
0 0 0
128 128 128
128 128 128
128 128 128
128 128 128
128 128 128
128 128 128
128 128 128
128 128 128
128 128 128
0 0 0
128 128 128
128 128 128
128 128 128
128 128 128
128 128 128
128 128 128
128 128 128
0 0 0
0 0 0
128 128 128
128 128 128
128 128 128
128 128 128
128 128 128
128 128 128
128 128 128
128 128 128
128 128 128
128 128 128
128 128 128
128 128 128
128 128 128
128 128 128
128 128 128
128 128 128
128 128 128
128 128 128
128 128 128
128 128 128
128 128 128
128 128 128
128 128 128
128 128 128
128 128 128
128 128 128
0 0 0
128 128 128
128 128 128
0 0 0
128 128 128
128 128 128
128 128 128
128 128 128
128 128 128
128 128 128
128 128 128
128 128 128
128 128 128
128 128 128
128 128 128
128 128 128
128 128 128
128 128 128
128 128 128
128 128 128
128 128 128
128 128 128
128 128 128
128 128 128
128 128 128
128 128 128
128 128 128
128 128 128
128 128 128
128 128 128
128 128 128
128 128 128
128 128 128
128 128 128
128 128 128
128 128 128
128 128 128
128 128 128
128 128 128
128 128 128
128 128 128
128 128 128
128 128 128
128 128 128
128 128 128
128 128 128
128 128 128
128 128 128
128 128 128
128 128 128
128 128 128
128 128 128
128 128 128
128 128 128
128 128 128
128 128 128
128 128 128
128 128 128
128 128 128
128 128 128
128 128 128
128 128 128
128 128 128
128 128 128
128 128 128
128 128 128
128 128 128
128 128 128
128 128 128
128 128 128
128 128 128
128 128 128
128 128 128
128 128 128
128 128 128
128 128 128
128 128 128
128 128 128
128 128 128
128 128 128
128 128 128
128 128 128
128 128 128
128 128 128
128 128 128
128 128 128
128 128 128
128 128 128
128 128 128
128 128 128
128 128 128
128 128 128
128 128 128
128 128 128
128 128 128
128 128 128
128 128 128
128 128 128
128 128 128
128 128 128
128 128 128
128 128 128
128 128 128
128 128 128
128 128 128
128 128 128
128 128 128
128 128 128
0 0 0
128 128 128
128 128 128
128 128 128
128 128 128
128 128 128
128 128 128
128 128 128
128 128 128
128 128 128
0 0 0
128 128 128
128 128 128
128 128 128
128 128 128
128 128 128
0 0 0
0 0 0
0 0 0
128 128 128
128 128 128
128 128 128
128 128 128
128 128 128
128 128 128
128 128 128
128 128 128
128 128 128
128 128 128
128 128 128
128 128 128
128 128 128
128 128 128
128 128 128
128 128 128
128 128 128
128 128 128
128 128 128
128 128 128
128 128 128
128 128 128
128 128 128
128 128 128
128 128 128
0 0 0
0 0 0
0 0 0
0 0 0
0 0 0
0 0 0
128 128 128
128 128 128
128 128 128
128 128 128
128 128 128
128 128 128
128 128 128
128 128 128
128 128 128
128 128 128
128 128 128
128 128 128
128 128 128
128 128 128
128 128 128
128 128 128
128 128 128
128 128 128
128 128 128
128 128 128
128 128 128
128 128 128
128 128 128
128 128 128
128 128 128
128 128 128
128 128 128
128 128 128
128 128 128
128 128 128
128 128 128
128 128 128
128 128 128
128 128 128
128 128 128
128 128 128
128 128 128
128 128 128
128 128 128
128 128 128
128 128 128
128 128 128
128 128 128
128 128 128
128 128 128
128 128 128
128 128 128
128 128 128
128 128 128
128 128 128
128 128 128
128 128 128
128 128 128
128 128 128
128 128 128
128 128 128
128 128 128
128 128 128
128 128 128
128 128 128
128 128 128
128 128 128
128 128 128
128 128 128
128 128 128
128 128 128
128 128 128
128 128 128
128 128 128
128 128 128
128 128 128
128 128 128
128 128 128
128 128 128
128 128 128
128 128 128
128 128 128
128 128 128
128 128 128
128 128 128
128 128 128
128 128 128
128 128 128
128 128 128
128 128 128
128 128 128
128 128 128
128 128 128
128 128 128
128 128 128
128 128 128
128 128 128
128 128 128
128 128 128
128 128 128
128 128 128
128 128 128
128 128 128
0 0 0
0 0 0
0 0 0
128 128 128
128 128 128
0 0 0
0 0 0
0 0 0
128 128 128
128 128 128
128 128 128
128 128 128
128 128 128
128 128 128
128 128 128
128 128 128
0 0 0
128 128 128
128 128 128
128 128 128
128 128 128
0 0 0
0 0 0
0 0 0
0 0 0
128 128 128
128 128 128
128 128 128
128 128 128
128 128 128
128 128 128
128 128 128
128 128 128
128 128 128
128 128 128
128 128 128
128 128 128
128 128 128
128 128 128
128 128 128
128 128 128
128 128 128
128 128 128
128 128 128
128 128 128
128 128 128
128 128 128
128 128 128
128 128 128
128 128 128
0 0 0
0 0 0
0 0 0
0 0 0
0 0 0
0 0 0
0 0 0
128 128 128
0 0 0
128 128 128
128 128 128
128 128 128
128 128 128
128 128 128
128 128 128
128 128 128
128 128 128
128 128 128
128 128 128
0 0 0
128 128 128
128 128 128
128 128 128
128 128 128
128 128 128
128 128 128
128 128 128
128 128 128
128 128 128
128 128 128
128 128 128
128 128 128
128 128 128
128 128 128
128 128 128
128 128 128
128 128 128
128 128 128
128 128 128
128 128 128
128 128 128
128 128 128
128 128 128
128 128 128
128 128 128
128 128 128
128 128 128
128 128 128
128 128 128
128 128 128
128 128 128
128 128 128
128 128 128
128 128 128
128 128 128
128 128 128
128 128 128
128 128 128
128 128 128
128 128 128
128 128 128
128 128 128
128 128 128
128 128 128
128 128 128
128 128 128
128 128 128
128 128 128
128 128 128
128 128 128
128 128 128
128 128 128
128 128 128
128 128 128
128 128 128
128 128 128
128 128 128
128 128 128
128 128 128
128 128 128
128 128 128
128 128 128
128 128 128
128 128 128
128 128 128
128 128 128
128 128 128
128 128 128
128 128 128
128 128 128
128 128 128
128 128 128
0 0 0
0 0 0
0 0 0
128 128 128
128 128 128
128 128 128
128 128 128
0 0 0
0 0 0
128 128 128
128 128 128
0 0 0
0 0 0
0 0 0
128 128 128
128 128 128
128 128 128
0 0 0
0 0 0
0 0 0
128 128 128
128 128 128
128 128 128
128 128 128
128 128 128
128 128 128
128 128 128
128 128 128
0 0 0
128 128 128
128 128 128
128 128 128
0 0 0
0 0 0
128 128 128
0 0 0
0 0 0
128 128 128
128 128 128
128 128 128
128 128 128
128 128 128
128 128 128
128 128 128
128 128 128
128 128 128
128 128 128
128 128 128
128 128 128
128 128 128
128 128 128
128 128 128
128 128 128
128 128 128
128 128 128
128 128 128
128 128 128
128 128 128
128 128 128
128 128 128
128 128 128
128 128 128
0 0 0
0 0 0
0 0 0
0 0 0
0 0 0
0 0 0
0 0 0
128 128 128
0 0 0
0 0 0
0 0 0
0 0 0
128 128 128
128 128 128
128 128 128
128 128 128
128 128 128
128 128 128
128 128 128
0 0 0
0 0 0
0 0 0
128 128 128
128 128 128
128 128 128
128 128 128
128 128 128
128 128 128
128 128 128
128 128 128
128 128 128
128 128 128
128 128 128
128 128 128
128 128 128
128 128 128
128 128 128
128 128 128
128 128 128
128 128 128
128 128 128
128 128 128
128 128 128
128 128 128
128 128 128
128 128 128
128 128 128
128 128 128
128 128 128
128 128 128
128 128 128
128 128 128
128 128 128
128 128 128
128 128 128
128 128 128
128 128 128
128 128 128
128 128 128
128 128 128
128 128 128
128 128 128
128 128 128
128 128 128
128 128 128
128 128 128
128 128 128
128 128 128
128 128 128
128 128 128
128 128 128
128 128 128
128 128 128
128 128 128
128 128 128
128 128 128
128 128 128
128 128 128
128 128 128
0 0 0
128 128 128
128 128 128
128 128 128
128 128 128
128 128 128
128 128 128
128 128 128
128 128 128
128 128 128
0 0 0
0 0 0
0 0 0
0 0 0
128 128 128
128 128 128
0 0 0
128 128 128
128 128 128
128 128 128
0 0 0
0 0 0
0 0 0
0 0 0
0 0 0
0 0 0
0 0 0
0 0 0
128 128 128
128 128 128
0 0 0
0 0 0
0 0 0
128 128 128
128 128 128
128 128 128
128 128 128
128 128 128
128 128 128
128 128 128
0 0 0
0 0 0
128 128 128
128 128 128
128 128 128
128 128 128
128 128 128
128 128 128
0 0 0
128 128 128
128 128 128
128 128 128
128 128 128
128 128 128
128 128 128
128 128 128
128 128 128
128 128 128
128 128 128
128 128 128
128 128 128
128 128 128
128 128 128
128 128 128
128 128 128
128 128 128
128 128 128
128 128 128
128 128 128
128 128 128
128 128 128
128 128 128
128 128 128
128 128 128
128 128 128
0 0 0
0 0 0
0 0 0
0 0 0
0 0 0
0 0 0
0 0 0
128 128 128
0 0 0
0 0 0
0 0 0
0 0 0
0 0 0
128 128 128
128 128 128
128 128 128
128 128 128
128 128 128
128 128 128
0 0 0
0 0 0
0 0 0
0 0 0
0 0 0
128 128 128
128 128 128
128 128 128
128 128 128
128 128 128
128 128 128
128 128 128
128 128 128
128 128 128
128 128 128
128 128 128
128 128 128
128 128 128
128 128 128
128 128 128
128 128 128
128 128 128
128 128 128
128 128 128
128 128 128
128 128 128
128 128 128
128 128 128
128 128 128
128 128 128
128 128 128
128 128 128
128 128 128
128 128 128
128 128 128
128 128 128
128 128 128
128 128 128
128 128 128
128 128 128
128 128 128
128 128 128
128 128 128
128 128 128
128 128 128
128 128 128
128 128 128
128 128 128
128 128 128
128 128 128
128 128 128
128 128 128
128 128 128
128 128 128
128 128 128
128 128 128
128 128 128
128 128 128
128 128 128
128 128 128
128 128 128
128 128 128
128 128 128
128 128 128
128 128 128
128 128 128
128 128 128
128 128 128
128 128 128
128 128 128
128 128 128
128 128 128
0 0 0
128 128 128
128 128 128
128 128 128
128 128 128
128 128 128
0 0 0
0 0 0
0 0 0
0 0 0
0 0 0
0 0 0
0 0 0
0 0 0
0 0 0
0 0 0
128 128 128
0 0 0
0 0 0
0 0 0
0 0 0
0 0 0
0 0 0
128 128 128
128 128 128
128 128 128
128 128 128
128 128 128
128 128 128
0 0 0
128 128 128
128 128 128
128 128 128
128 128 128
128 128 128
0 0 0
128 128 128
128 128 128
128 128 128
128 128 128
128 128 128
128 128 128
128 128 128
128 128 128
128 128 128
128 128 128
128 128 128
128 128 128
128 128 128
128 128 128
128 128 128
128 128 128
128 128 128
128 128 128
128 128 128
128 128 128
128 128 128
128 128 128
128 128 128
128 128 128
128 128 128
128 128 128
128 128 128
0 0 0
0 0 0
0 0 0
0 0 0
0 0 0
0 0 0
0 0 0
128 128 128
0 0 0
0 0 0
0 0 0
0 0 0
0 0 0
128 128 128
128 128 128
128 128 128
128 128 128
128 128 128
128 128 128
128 128 128
128 128 128
0 0 0
0 0 0
0 0 0
128 128 128
128 128 128
128 128 128
128 128 128
128 128 128
128 128 128
128 128 128
128 128 128
128 128 128
128 128 128
128 128 128
128 128 128
128 128 128
128 128 128
128 128 128
128 128 128
128 128 128
128 128 128
128 128 128
128 128 128
128 128 128
128 128 128
128 128 128
128 128 128
128 128 128
128 128 128
128 128 128
128 128 128
128 128 128
128 128 128
128 128 128
128 128 128
128 128 128
128 128 128
128 128 128
128 128 128
128 128 128
128 128 128
128 128 128
128 128 128
128 128 128
128 128 128
128 128 128
128 128 128
128 128 128
128 128 128
128 128 128
128 128 128
128 128 128
128 128 128
128 128 128
128 128 128
128 128 128
128 128 128
128 128 128
128 128 128
128 128 128
128 128 128
128 128 128
128 128 128
128 128 128
128 128 128
128 128 128
128 128 128
128 128 128
128 128 128
128 128 128
128 128 128
128 128 128
128 128 128
128 128 128
128 128 128
128 128 128
128 128 128
0 0 0
0 0 0
0 0 0
0 0 0
0 0 0
0 0 0
0 0 0
0 0 0
0 0 0
128 128 128
0 0 0
0 0 0
0 0 0
0 0 0
0 0 0
128 128 128
128 128 128
128 128 128
128 128 128
128 128 128
128 128 128
128 128 128
0 0 0
128 128 128
128 128 128
128 128 128
128 128 128
0 0 0
0 0 0
128 128 128
128 128 128
128 128 128
128 128 128
128 128 128
128 128 128
128 128 128
128 128 128
128 128 128
128 128 128
128 128 128
128 128 128
128 128 128
128 128 128
128 128 128
128 128 128
128 128 128
128 128 128
128 128 128
128 128 128
128 128 128
128 128 128
128 128 128
128 128 128
128 128 128
128 128 128
0 0 0
0 0 0
0 0 0
0 0 0
0 0 0
0 0 0
0 0 0
0 0 0
128 128 128
0 0 0
0 0 0
0 0 0
0 0 0
0 0 0
128 128 128
128 128 128
128 128 128
128 128 128
0 0 0
0 0 0
128 128 128
0 0 0
128 128 128
128 128 128
128 128 128
128 128 128
128 128 128
128 128 128
128 128 128
128 128 128
128 128 128
128 128 128
128 128 128
128 128 128
128 128 128
128 128 128
128 128 128
128 128 128
128 128 128
128 128 128
128 128 128
128 128 128
128 128 128
128 128 128
128 128 128
128 128 128
128 128 128
128 128 128
128 128 128
128 128 128
128 128 128
128 128 128
128 128 128
128 128 128
128 128 128
128 128 128
128 128 128
128 128 128
128 128 128
128 128 128
128 128 128
128 128 128
128 128 128
128 128 128
128 128 128
128 128 128
128 128 128
128 128 128
128 128 128
128 128 128
128 128 128
128 128 128
128 128 128
128 128 128
128 128 128
128 128 128
128 128 128
128 128 128
128 128 128
128 128 128
128 128 128
128 128 128
128 128 128
128 128 128
128 128 128
128 128 128
128 128 128
128 128 128
128 128 128
128 128 128
128 128 128
128 128 128
128 128 128
128 128 128
128 128 128
128 128 128
128 128 128
128 128 128
128 128 128
0 0 0
0 0 0
0 0 0
0 0 0
128 128 128
0 0 0
0 0 0
0 0 0
0 0 0
0 0 0
0 0 0
0 0 0
0 0 0
0 0 0
0 0 0
0 0 0
0 0 0
128 128 128
128 128 128
128 128 128
128 128 128
128 128 128
0 0 0
128 128 128
128 128 128
128 128 128
128 128 128
0 0 0
128 128 128
128 128 128
128 128 128
128 128 128
128 128 128
128 128 128
128 128 128
128 128 128
128 128 128
128 128 128
128 128 128
128 128 128
128 128 128
128 128 128
128 128 128
128 128 128
128 128 128
128 128 128
128 128 128
128 128 128
128 128 128
128 128 128
128 128 128
128 128 128
128 128 128
128 128 128
128 128 128
128 128 128
0 0 0
0 0 0
0 0 0
0 0 0
0 0 0
0 0 0
0 0 0
0 0 0
128 128 128
0 0 0
0 0 0
0 0 0
0 0 0
128 128 128
0 0 0
0 0 0
128 128 128
0 0 0
0 0 0
0 0 0
0 0 0
0 0 0
0 0 0
128 128 128
128 128 128
128 128 128
128 128 128
128 128 128
128 128 128
128 128 128
128 128 128
128 128 128
128 128 128
128 128 128
128 128 128
128 128 128
128 128 128
128 128 128
128 128 128
128 128 128
128 128 128
128 128 128
128 128 128
128 128 128
128 128 128
128 128 128
128 128 128
128 128 128
128 128 128
128 128 128
128 128 128
128 128 128
128 128 128
128 128 128
128 128 128
128 128 128
128 128 128
128 128 128
128 128 128
128 128 128
128 128 128
128 128 128
128 128 128
128 128 128
128 128 128
128 128 128
128 128 128
128 128 128
128 128 128
128 128 128
128 128 128
128 128 128
128 128 128
128 128 128
128 128 128
128 128 128
128 128 128
128 128 128
128 128 128
128 128 128
128 128 128
128 128 128
0 0 0
128 128 128
128 128 128
128 128 128
128 128 128
128 128 128
128 128 128
128 128 128
128 128 128
128 128 128
128 128 128
128 128 128
128 128 128
128 128 128
128 128 128
128 128 128
128 128 128
0 0 0
0 0 0
0 0 0
128 128 128
128 128 128
0 0 0
0 0 0
128 128 128
0 0 0
0 0 0
0 0 0
0 0 0
0 0 0
0 0 0
0 0 0
0 0 0
128 128 128
128 128 128
128 128 128
128 128 128
128 128 128
0 0 0
128 128 128
128 128 128
128 128 128
128 128 128
128 128 128
128 128 128
128 128 128
128 128 128
128 128 128
128 128 128
128 128 128
128 128 128
128 128 128
128 128 128
128 128 128
128 128 128
128 128 128
128 128 128
128 128 128
128 128 128
128 128 128
128 128 128
128 128 128
128 128 128
128 128 128
128 128 128
128 128 128
128 128 128
128 128 128
128 128 128
128 128 128
128 128 128
128 128 128
128 128 128
128 128 128
0 0 0
128 128 128
0 0 0
0 0 0
0 0 0
0 0 0
128 128 128
0 0 0
0 0 0
0 0 0
0 0 0
0 0 0
0 0 0
0 0 0
0 0 0
0 0 0
0 0 0
0 0 0
0 0 0
0 0 0
0 0 0
128 128 128
128 128 128
128 128 128
128 128 128
128 128 128
128 128 128
128 128 128
128 128 128
128 128 128
128 128 128
128 128 128
128 128 128
128 128 128
128 128 128
128 128 128
128 128 128
128 128 128
128 128 128
128 128 128
128 128 128
128 128 128
128 128 128
128 128 128
128 128 128
128 128 128
128 128 128
128 128 128
128 128 128
128 128 128
128 128 128
128 128 128
128 128 128
128 128 128
128 128 128
128 128 128
128 128 128
128 128 128
128 128 128
128 128 128
128 128 128
128 128 128
128 128 128
128 128 128
128 128 128
128 128 128
128 128 128
128 128 128
128 128 128
128 128 128
128 128 128
128 128 128
128 128 128
128 128 128
128 128 128
128 128 128
128 128 128
128 128 128
128 128 128
128 128 128
128 128 128
128 128 128
128 128 128
128 128 128
128 128 128
128 128 128
128 128 128
128 128 128
128 128 128
128 128 128
128 128 128
128 128 128
128 128 128
128 128 128
128 128 128
128 128 128
128 128 128
0 0 0
0 0 0
0 0 0
0 0 0
128 128 128
0 0 0
0 0 0
128 128 128
128 128 128
0 0 0
0 0 0
0 0 0
0 0 0
0 0 0
0 0 0
0 0 0
128 128 128
128 128 128
128 128 128
128 128 128
128 128 128
0 0 0
128 128 128
128 128 128
128 128 128
128 128 128
128 128 128
128 128 128
128 128 128
128 128 128
128 128 128
128 128 128
128 128 128
128 128 128
128 128 128
128 128 128
128 128 128
128 128 128
128 128 128
128 128 128
128 128 128
128 128 128
128 128 128
128 128 128
128 128 128
128 128 128
128 128 128
128 128 128
128 128 128
128 128 128
128 128 128
128 128 128
0 0 0
128 128 128
128 128 128
128 128 128
128 128 128
0 0 0
0 0 0
0 0 0
0 0 0
0 0 0
0 0 0
0 0 0
0 0 0
0 0 0
0 0 0
0 0 0
128 128 128
128 128 128
128 128 128
128 128 128
0 0 0
0 0 0
0 0 0
0 0 0
0 0 0
0 0 0
128 128 128
128 128 128
128 128 128
128 128 128
128 128 128
128 128 128
128 128 128
128 128 128
128 128 128
128 128 128
128 128 128
128 128 128
128 128 128
128 128 128
128 128 128
128 128 128
128 128 128
128 128 128
128 128 128
128 128 128
128 128 128
128 128 128
128 128 128
128 128 128
128 128 128
128 128 128
128 128 128
128 128 128
128 128 128
128 128 128
128 128 128
128 128 128
128 128 128
128 128 128
128 128 128
128 128 128
128 128 128
128 128 128
128 128 128
128 128 128
128 128 128
128 128 128
128 128 128
128 128 128
128 128 128
128 128 128
128 128 128
128 128 128
128 128 128
128 128 128
128 128 128
128 128 128
128 128 128
128 128 128
128 128 128
128 128 128
128 128 128
128 128 128
0 0 0
128 128 128
128 128 128
128 128 128
128 128 128
128 128 128
128 128 128
128 128 128
128 128 128
128 128 128
128 128 128
128 128 128
128 128 128
128 128 128
0 0 0
128 128 128
128 128 128
128 128 128
0 0 0
0 0 0
0 0 0
0 0 0
128 128 128
0 0 0
128 128 128
128 128 128
128 128 128
0 0 0
0 0 0
0 0 0
0 0 0
0 0 0
0 0 0
0 0 0
0 0 0
128 128 128
128 128 128
128 128 128
128 128 128
128 128 128
128 128 128
128 128 128
128 128 128
128 128 128
128 128 128
128 128 128
128 128 128
128 128 128
128 128 128
128 128 128
128 128 128
128 128 128
128 128 128
128 128 128
128 128 128
128 128 128
128 128 128
128 128 128
128 128 128
128 128 128
128 128 128
128 128 128
128 128 128
128 128 128
128 128 128
128 128 128
128 128 128
128 128 128
128 128 128
128 128 128
0 0 0
128 128 128
128 128 128
128 128 128
128 128 128
0 0 0
128 128 128
128 128 128
0 0 0
0 0 0
0 0 0
0 0 0
128 128 128
0 0 0
128 128 128
128 128 128
128 128 128
128 128 128
128 128 128
128 128 128
128 128 128
0 0 0
0 0 0
0 0 0
0 0 0
0 0 0
128 128 128
128 128 128
128 128 128
128 128 128
128 128 128
128 128 128
128 128 128
128 128 128
128 128 128
128 128 128
128 128 128
128 128 128
128 128 128
128 128 128
128 128 128
128 128 128
128 128 128
128 128 128
128 128 128
128 128 128
128 128 128
128 128 128
128 128 128
128 128 128
128 128 128
128 128 128
128 128 128
128 128 128
128 128 128
128 128 128
128 128 128
128 128 128
128 128 128
128 128 128
128 128 128
128 128 128
128 128 128
128 128 128
128 128 128
128 128 128
128 128 128
128 128 128
128 128 128
128 128 128
128 128 128
128 128 128
128 128 128
128 128 128
128 128 128
128 128 128
128 128 128
128 128 128
128 128 128
128 128 128
128 128 128
128 128 128
0 0 0
0 0 0
0 0 0
0 0 0
128 128 128
128 128 128
128 128 128
128 128 128
128 128 128
128 128 128
128 128 128
128 128 128
128 128 128
128 128 128
128 128 128
128 128 128
0 0 0
0 0 0
128 128 128
128 128 128
0 0 0
0 0 0
0 0 0
0 0 0
128 128 128
0 0 0
0 0 0
128 128 128
0 0 0
0 0 0
0 0 0
0 0 0
0 0 0
0 0 0
0 0 0
0 0 0
0 0 0
0 0 0
128 128 128
128 128 128
128 128 128
128 128 128
128 128 128
128 128 128
0 0 0
128 128 128
128 128 128
128 128 128
128 128 128
128 128 128
128 128 128
128 128 128
128 128 128
128 128 128
128 128 128
128 128 128
128 128 128
128 128 128
128 128 128
128 128 128
128 128 128
128 128 128
128 128 128
128 128 128
128 128 128
128 128 128
128 128 128
128 128 128
128 128 128
128 128 128
128 128 128
128 128 128
0 0 0
128 128 128
128 128 128
128 128 128
128 128 128
128 128 128
0 0 0
128 128 128
0 0 0
0 0 0
0 0 0
0 0 0
128 128 128
128 128 128
128 128 128
128 128 128
128 128 128
128 128 128
128 128 128
0 0 0
128 128 128
0 0 0
0 0 0
0 0 0
0 0 0
128 128 128
128 128 128
128 128 128
128 128 128
128 128 128
128 128 128
128 128 128
128 128 128
128 128 128
128 128 128
128 128 128
128 128 128
128 128 128
128 128 128
128 128 128
128 128 128
128 128 128
128 128 128
128 128 128
128 128 128
128 128 128
128 128 128
128 128 128
128 128 128
128 128 128
128 128 128
128 128 128
128 128 128
128 128 128
128 128 128
128 128 128
128 128 128
128 128 128
128 128 128
128 128 128
128 128 128
128 128 128
128 128 128
128 128 128
128 128 128
128 128 128
128 128 128
128 128 128
128 128 128
128 128 128
128 128 128
128 128 128
128 128 128
128 128 128
128 128 128
128 128 128
128 128 128
128 128 128
128 128 128
128 128 128
128 128 128
128 128 128
0 0 0
0 0 0
0 0 0
0 0 0
128 128 128
128 128 128
128 128 128
128 128 128
128 128 128
128 128 128
128 128 128
128 128 128
128 128 128
128 128 128
128 128 128
128 128 128
128 128 128
128 128 128
128 128 128
128 128 128
128 128 128
0 0 0
0 0 0
0 0 0
128 128 128
128 128 128
0 0 0
128 128 128
0 0 0
0 0 0
0 0 0
0 0 0
0 0 0
0 0 0
0 0 0
0 0 0
0 0 0
0 0 0
128 128 128
128 128 128
128 128 128
0 0 0
128 128 128
128 128 128
0 0 0
128 128 128
128 128 128
128 128 128
128 128 128
128 128 128
128 128 128
128 128 128
128 128 128
128 128 128
128 128 128
128 128 128
128 128 128
128 128 128
128 128 128
128 128 128
128 128 128
128 128 128
128 128 128
128 128 128
128 128 128
128 128 128
128 128 128
128 128 128
128 128 128
128 128 128
128 128 128
128 128 128
0 0 0
0 0 0
128 128 128
128 128 128
128 128 128
128 128 128
0 0 0
0 0 0
0 0 0
0 0 0
0 0 0
0 0 0
128 128 128
128 128 128
128 128 128
0 0 0
128 128 128
128 128 128
128 128 128
128 128 128
128 128 128
0 0 0
0 0 0
0 0 0
0 0 0
128 128 128
128 128 128
128 128 128
128 128 128
128 128 128
128 128 128
128 128 128
128 128 128
128 128 128
128 128 128
128 128 128
128 128 128
128 128 128
128 128 128
128 128 128
128 128 128
128 128 128
128 128 128
128 128 128
128 128 128
128 128 128
128 128 128
128 128 128
128 128 128
128 128 128
128 128 128
128 128 128
128 128 128
128 128 128
128 128 128
128 128 128
128 128 128
128 128 128
128 128 128
128 128 128
128 128 128
128 128 128
128 128 128
128 128 128
128 128 128
128 128 128
128 128 128
128 128 128
128 128 128
128 128 128
128 128 128
128 128 128
128 128 128
128 128 128
128 128 128
128 128 128
128 128 128
128 128 128
128 128 128
128 128 128
128 128 128
128 128 128
128 128 128
0 0 0
0 0 0
0 0 0
0 0 0
128 128 128
128 128 128
0 0 0
128 128 128
128 128 128
128 128 128
128 128 128
128 128 128
128 128 128
128 128 128
128 128 128
128 128 128
128 128 128
0 0 0
128 128 128
0 0 0
0 0 0
0 0 0
0 0 0
128 128 128
128 128 128
0 0 0
128 128 128
0 0 0
0 0 0
0 0 0
0 0 0
0 0 0
0 0 0
0 0 0
0 0 0
0 0 0
128 128 128
0 0 0
128 128 128
0 0 0
0 0 0
128 128 128
0 0 0
128 128 128
128 128 128
128 128 128
128 128 128
128 128 128
128 128 128
128 128 128
128 128 128
128 128 128
128 128 128
128 128 128
128 128 128
128 128 128
128 128 128
128 128 128
128 128 128
128 128 128
128 128 128
128 128 128
128 128 128
128 128 128
128 128 128
128 128 128
128 128 128
128 128 128
128 128 128
128 128 128
128 128 128
128 128 128
128 128 128
128 128 128
128 128 128
128 128 128
128 128 128
0 0 0
0 0 0
0 0 0
0 0 0
0 0 0
0 0 0
0 0 0
128 128 128
128 128 128
128 128 128
128 128 128
128 128 128
128 128 128
128 128 128
128 128 128
128 128 128
128 128 128
0 0 0
128 128 128
128 128 128
128 128 128
128 128 128
128 128 128
128 128 128
128 128 128
128 128 128
128 128 128
128 128 128
128 128 128
128 128 128
128 128 128
128 128 128
128 128 128
128 128 128
128 128 128
128 128 128
128 128 128
128 128 128
128 128 128
128 128 128
128 128 128
128 128 128
128 128 128
128 128 128
128 128 128
128 128 128
128 128 128
128 128 128
128 128 128
128 128 128
128 128 128
128 128 128
128 128 128
128 128 128
128 128 128
128 128 128
128 128 128
128 128 128
128 128 128
128 128 128
128 128 128
128 128 128
128 128 128
128 128 128
128 128 128
128 128 128
128 128 128
128 128 128
128 128 128
128 128 128
128 128 128
128 128 128
128 128 128
128 128 128
128 128 128
128 128 128
128 128 128
128 128 128
128 128 128
0 0 0
0 0 0
128 128 128
128 128 128
128 128 128
128 128 128
128 128 128
128 128 128
128 128 128
128 128 128
128 128 128
128 128 128
128 128 128
128 128 128
128 128 128
0 0 0
128 128 128
128 128 128
128 128 128
0 0 0
0 0 0
128 128 128
128 128 128
128 128 128
0 0 0
0 0 0
0 0 0
0 0 0
0 0 0
0 0 0
0 0 0
0 0 0
0 0 0
128 128 128
0 0 0
128 128 128
128 128 128
0 0 0
0 0 0
0 0 0
0 0 0
128 128 128
128 128 128
128 128 128
128 128 128
128 128 128
128 128 128
128 128 128
128 128 128
128 128 128
128 128 128
128 128 128
128 128 128
128 128 128
128 128 128
128 128 128
128 128 128
128 128 128
128 128 128
128 128 128
128 128 128
128 128 128
128 128 128
128 128 128
128 128 128
128 128 128
128 128 128
128 128 128
128 128 128
128 128 128
128 128 128
128 128 128
0 0 0
0 0 0
128 128 128
0 0 0
0 0 0
128 128 128
0 0 0
0 0 0
0 0 0
0 0 0
128 128 128
128 128 128
128 128 128
128 128 128
128 128 128
128 128 128
128 128 128
128 128 128
128 128 128
128 128 128
0 0 0
128 128 128
128 128 128
128 128 128
128 128 128
128 128 128
128 128 128
128 128 128
128 128 128
128 128 128
128 128 128
128 128 128
128 128 128
128 128 128
128 128 128
128 128 128
128 128 128
128 128 128
128 128 128
128 128 128
128 128 128
128 128 128
128 128 128
128 128 128
128 128 128
128 128 128
128 128 128
128 128 128
128 128 128
128 128 128
128 128 128
128 128 128
128 128 128
128 128 128
128 128 128
128 128 128
128 128 128
128 128 128
128 128 128
128 128 128
128 128 128
128 128 128
128 128 128
128 128 128
128 128 128
128 128 128
128 128 128
128 128 128
128 128 128
128 128 128
128 128 128
128 128 128
128 128 128
128 128 128
128 128 128
128 128 128
128 128 128
128 128 128
128 128 128
128 128 128
128 128 128
128 128 128
128 128 128
128 128 128
128 128 128
128 128 128
128 128 128
128 128 128
128 128 128
128 128 128
128 128 128
128 128 128
128 128 128
128 128 128
128 128 128
0 0 0
0 0 0
128 128 128
0 0 0
128 128 128
0 0 0
0 0 0
0 0 0
0 0 0
128 128 128
0 0 0
0 0 0
0 0 0
0 0 0
0 0 0
0 0 0
0 0 0
0 0 0
0 0 0
128 128 128
128 128 128
0 0 0
128 128 128
0 0 0
0 0 0
0 0 0
0 0 0
128 128 128
128 128 128
128 128 128
128 128 128
128 128 128
128 128 128
128 128 128
128 128 128
128 128 128
128 128 128
128 128 128
128 128 128
128 128 128
128 128 128
128 128 128
128 128 128
128 128 128
128 128 128
128 128 128
128 128 128
128 128 128
128 128 128
128 128 128
128 128 128
128 128 128
128 128 128
128 128 128
128 128 128
128 128 128
128 128 128
128 128 128
0 0 0
128 128 128
128 128 128
128 128 128
128 128 128
0 0 0
128 128 128
0 0 0
0 0 0
0 0 0
0 0 0
128 128 128
128 128 128
128 128 128
128 128 128
128 128 128
128 128 128
128 128 128
128 128 128
128 128 128
128 128 128
128 128 128
128 128 128
128 128 128
128 128 128
128 128 128
128 128 128
128 128 128
128 128 128
128 128 128
128 128 128
128 128 128
128 128 128
128 128 128
128 128 128
128 128 128
128 128 128
128 128 128
128 128 128
128 128 128
128 128 128
128 128 128
128 128 128
128 128 128
128 128 128
128 128 128
128 128 128
128 128 128
128 128 128
128 128 128
128 128 128
128 128 128
128 128 128
128 128 128
128 128 128
128 128 128
128 128 128
128 128 128
128 128 128
128 128 128
128 128 128
128 128 128
128 128 128
128 128 128
128 128 128
128 128 128
128 128 128
128 128 128
128 128 128
128 128 128
128 128 128
128 128 128
128 128 128
128 128 128
128 128 128
128 128 128
128 128 128
128 128 128
128 128 128
128 128 128
128 128 128
128 128 128
128 128 128
128 128 128
128 128 128
128 128 128
128 128 128
128 128 128
0 0 0
128 128 128
128 128 128
128 128 128
128 128 128
128 128 128
128 128 128
128 128 128
0 0 0
0 0 0
0 0 0
128 128 128
0 0 0
0 0 0
0 0 0
0 0 0
0 0 0
0 0 0
128 128 128
128 128 128
0 0 0
0 0 0
0 0 0
0 0 0
0 0 0
0 0 0
128 128 128
128 128 128
0 0 0
0 0 0
0 0 0
0 0 0
0 0 0
0 0 0
0 0 0
128 128 128
128 128 128
128 128 128
128 128 128
128 128 128
128 128 128
128 128 128
128 128 128
128 128 128
128 128 128
128 128 128
128 128 128
128 128 128
128 128 128
128 128 128
128 128 128
128 128 128
128 128 128
128 128 128
128 128 128
128 128 128
128 128 128
128 128 128
128 128 128
128 128 128
128 128 128
128 128 128
128 128 128
128 128 128
128 128 128
128 128 128
0 0 0
128 128 128
128 128 128
128 128 128
0 0 0
128 128 128
128 128 128
0 0 0
0 0 0
0 0 0
0 0 0
0 0 0
128 128 128
128 128 128
128 128 128
128 128 128
128 128 128
128 128 128
128 128 128
128 128 128
128 128 128
128 128 128
0 0 0
128 128 128
128 128 128
128 128 128
128 128 128
128 128 128
128 128 128
128 128 128
128 128 128
128 128 128
128 128 128
128 128 128
128 128 128
128 128 128
128 128 128
128 128 128
128 128 128
128 128 128
128 128 128
128 128 128
128 128 128
128 128 128
128 128 128
128 128 128
128 128 128
128 128 128
128 128 128
128 128 128
128 128 128
128 128 128
128 128 128
128 128 128
128 128 128
128 128 128
128 128 128
128 128 128
128 128 128
128 128 128
128 128 128
128 128 128
128 128 128
128 128 128
128 128 128
128 128 128
128 128 128
128 128 128
128 128 128
128 128 128
128 128 128
128 128 128
128 128 128
128 128 128
128 128 128
128 128 128
128 128 128
128 128 128
128 128 128
128 128 128
128 128 128
128 128 128
128 128 128
128 128 128
128 128 128
128 128 128
128 128 128
128 128 128
0 0 0
128 128 128
128 128 128
128 128 128
128 128 128
128 128 128
128 128 128
128 128 128
0 0 0
0 0 0
0 0 0
0 0 0
0 0 0
0 0 0
0 0 0
128 128 128
0 0 0
0 0 0
128 128 128
128 128 128
0 0 0
0 0 0
0 0 0
0 0 0
0 0 0
0 0 0
128 128 128
0 0 0
0 0 0
0 0 0
0 0 0
0 0 0
0 0 0
0 0 0
0 0 0
128 128 128
128 128 128
128 128 128
128 128 128
128 128 128
128 128 128
128 128 128
128 128 128
128 128 128
128 128 128
128 128 128
128 128 128
128 128 128
128 128 128
128 128 128
128 128 128
128 128 128
128 128 128
128 128 128
128 128 128
128 128 128
128 128 128
128 128 128
128 128 128
128 128 128
128 128 128
128 128 128
128 128 128
128 128 128
128 128 128
128 128 128
128 128 128
128 128 128
128 128 128
128 128 128
128 128 128
128 128 128
128 128 128
128 128 128
0 0 0
0 0 0
0 0 0
128 128 128
128 128 128
128 128 128
128 128 128
128 128 128
128 128 128
128 128 128
128 128 128
128 128 128
128 128 128
128 128 128
0 0 0
128 128 128
128 128 128
128 128 128
128 128 128
128 128 128
128 128 128
128 128 128
128 128 128
128 128 128
128 128 128
128 128 128
128 128 128
128 128 128
128 128 128
128 128 128
128 128 128
128 128 128
128 128 128
128 128 128
128 128 128
128 128 128
128 128 128
128 128 128
128 128 128
128 128 128
128 128 128
128 128 128
128 128 128
128 128 128
128 128 128
128 128 128
128 128 128
128 128 128
128 128 128
128 128 128
128 128 128
128 128 128
128 128 128
128 128 128
128 128 128
128 128 128
128 128 128
128 128 128
128 128 128
128 128 128
128 128 128
128 128 128
128 128 128
128 128 128
128 128 128
128 128 128
128 128 128
128 128 128
128 128 128
128 128 128
128 128 128
128 128 128
128 128 128
128 128 128
128 128 128
128 128 128
128 128 128
128 128 128
128 128 128
128 128 128
128 128 128
128 128 128
0 0 0
128 128 128
128 128 128
128 128 128
128 128 128
0 0 0
0 0 0
0 0 0
0 0 0
0 0 0
0 0 0
0 0 0
0 0 0
0 0 0
0 0 0
0 0 0
128 128 128
0 0 0
0 0 0
0 0 0
0 0 0
0 0 0
0 0 0
0 0 0
128 128 128
0 0 0
0 0 0
0 0 0
0 0 0
0 0 0
0 0 0
0 0 0
128 128 128
128 128 128
128 128 128
128 128 128
128 128 128
128 128 128
128 128 128
128 128 128
128 128 128
128 128 128
128 128 128
128 128 128
128 128 128
128 128 128
128 128 128
128 128 128
128 128 128
128 128 128
128 128 128
128 128 128
128 128 128
128 128 128
128 128 128
128 128 128
128 128 128
128 128 128
128 128 128
128 128 128
128 128 128
128 128 128
128 128 128
128 128 128
128 128 128
128 128 128
128 128 128
128 128 128
128 128 128
128 128 128
128 128 128
128 128 128
0 0 0
0 0 0
0 0 0
0 0 0
128 128 128
128 128 128
128 128 128
128 128 128
128 128 128
128 128 128
128 128 128
128 128 128
128 128 128
128 128 128
128 128 128
128 128 128
128 128 128
128 128 128
128 128 128
128 128 128
128 128 128
128 128 128
128 128 128
128 128 128
128 128 128
128 128 128
128 128 128
128 128 128
128 128 128
128 128 128
128 128 128
128 128 128
128 128 128
128 128 128
128 128 128
128 128 128
128 128 128
128 128 128
128 128 128
128 128 128
128 128 128
128 128 128
128 128 128
128 128 128
128 128 128
128 128 128
128 128 128
128 128 128
128 128 128
128 128 128
128 128 128
128 128 128
128 128 128
128 128 128
128 128 128
128 128 128
128 128 128
128 128 128
128 128 128
128 128 128
128 128 128
128 128 128
128 128 128
128 128 128
128 128 128
128 128 128
128 128 128
128 128 128
128 128 128
128 128 128
128 128 128
128 128 128
128 128 128
128 128 128
128 128 128
128 128 128
128 128 128
128 128 128
0 0 0
128 128 128
0 0 0
128 128 128
0 0 0
128 128 128
128 128 128
128 128 128
0 0 0
0 0 0
0 0 0
0 0 0
0 0 0
0 0 0
0 0 0
0 0 0
0 0 0
0 0 0
0 0 0
0 0 0
0 0 0
0 0 0
0 0 0
0 0 0
0 0 0
0 0 0
128 128 128
128 128 128
128 128 128
128 128 128
0 0 0
0 0 0
0 0 0
0 0 0
0 0 0
0 0 0
128 128 128
128 128 128
128 128 128
128 128 128
128 128 128
128 128 128
128 128 128
128 128 128
128 128 128
128 128 128
128 128 128
128 128 128
128 128 128
128 128 128
128 128 128
128 128 128
128 128 128
128 128 128
128 128 128
128 128 128
128 128 128
128 128 128
128 128 128
128 128 128
128 128 128
128 128 128
128 128 128
128 128 128
128 128 128
128 128 128
128 128 128
128 128 128
128 128 128
128 128 128
128 128 128
128 128 128
128 128 128
128 128 128
0 0 0
128 128 128
0 0 0
0 0 0
128 128 128
0 0 0
128 128 128
128 128 128
128 128 128
128 128 128
0 0 0
0 0 0
128 128 128
128 128 128
128 128 128
128 128 128
128 128 128
128 128 128
128 128 128
128 128 128
128 128 128
128 128 128
128 128 128
128 128 128
128 128 128
128 128 128
128 128 128
128 128 128
128 128 128
128 128 128
128 128 128
128 128 128
128 128 128
128 128 128
128 128 128
128 128 128
128 128 128
128 128 128
128 128 128
128 128 128
128 128 128
128 128 128
128 128 128
128 128 128
128 128 128
128 128 128
128 128 128
128 128 128
128 128 128
128 128 128
128 128 128
128 128 128
128 128 128
128 128 128
128 128 128
128 128 128
128 128 128
128 128 128
128 128 128
128 128 128
128 128 128
128 128 128
128 128 128
128 128 128
128 128 128
128 128 128
128 128 128
128 128 128
128 128 128
128 128 128
128 128 128
128 128 128
128 128 128
128 128 128
128 128 128
128 128 128
128 128 128
128 128 128
128 128 128
128 128 128
128 128 128
0 0 0
0 0 0
0 0 0
0 0 0
128 128 128
128 128 128
128 128 128
128 128 128
0 0 0
0 0 0
0 0 0
0 0 0
0 0 0
0 0 0
0 0 0
0 0 0
128 128 128
0 0 0
0 0 0
0 0 0
0 0 0
0 0 0
0 0 0
0 0 0
128 128 128
0 0 0
128 128 128
128 128 128
0 0 0
0 0 0
0 0 0
128 128 128
0 0 0
0 0 0
0 0 0
128 128 128
128 128 128
128 128 128
128 128 128
128 128 128
128 128 128
128 128 128
128 128 128
128 128 128
128 128 128
128 128 128
128 128 128
128 128 128
128 128 128
128 128 128
128 128 128
128 128 128
128 128 128
128 128 128
128 128 128
128 128 128
128 128 128
128 128 128
128 128 128
128 128 128
128 128 128
128 128 128
128 128 128
128 128 128
128 128 128
128 128 128
128 128 128
128 128 128
0 0 0
128 128 128
128 128 128
128 128 128
128 128 128
0 0 0
128 128 128
128 128 128
0 0 0
0 0 0
128 128 128
128 128 128
128 128 128
128 128 128
128 128 128
128 128 128
0 0 0
128 128 128
128 128 128
128 128 128
128 128 128
128 128 128
128 128 128
128 128 128
128 128 128
128 128 128
128 128 128
128 128 128
128 128 128
128 128 128
128 128 128
128 128 128
128 128 128
128 128 128
128 128 128
128 128 128
128 128 128
128 128 128
128 128 128
128 128 128
128 128 128
128 128 128
128 128 128
128 128 128
128 128 128
128 128 128
128 128 128
128 128 128
128 128 128
128 128 128
128 128 128
128 128 128
128 128 128
128 128 128
128 128 128
128 128 128
128 128 128
128 128 128
128 128 128
128 128 128
128 128 128
128 128 128
128 128 128
128 128 128
128 128 128
128 128 128
128 128 128
128 128 128
128 128 128
128 128 128
128 128 128
128 128 128
128 128 128
128 128 128
128 128 128
128 128 128
128 128 128
128 128 128
128 128 128
128 128 128
128 128 128
128 128 128
128 128 128
128 128 128
128 128 128
128 128 128
0 0 0
0 0 0
0 0 0
0 0 0
128 128 128
0 0 0
128 128 128
0 0 0
0 0 0
0 0 0
0 0 0
0 0 0
0 0 0
0 0 0
0 0 0
0 0 0
0 0 0
0 0 0
0 0 0
0 0 0
0 0 0
0 0 0
0 0 0
0 0 0
0 0 0
0 0 0
128 128 128
128 128 128
0 0 0
128 128 128
0 0 0
128 128 128
0 0 0
0 0 0
128 128 128
128 128 128
128 128 128
128 128 128
128 128 128
128 128 128
128 128 128
128 128 128
128 128 128
128 128 128
128 128 128
128 128 128
128 128 128
128 128 128
128 128 128
128 128 128
128 128 128
128 128 128
128 128 128
128 128 128
128 128 128
128 128 128
128 128 128
128 128 128
128 128 128
128 128 128
128 128 128
128 128 128
128 128 128
128 128 128
128 128 128
128 128 128
128 128 128
128 128 128
128 128 128
0 0 0
128 128 128
128 128 128
128 128 128
128 128 128
128 128 128
128 128 128
128 128 128
0 0 0
128 128 128
128 128 128
128 128 128
128 128 128
128 128 128
128 128 128
128 128 128
128 128 128
128 128 128
128 128 128
128 128 128
128 128 128
128 128 128
128 128 128
128 128 128
128 128 128
128 128 128
128 128 128
128 128 128
128 128 128
128 128 128
128 128 128
128 128 128
128 128 128
128 128 128
128 128 128
128 128 128
128 128 128
128 128 128
128 128 128
128 128 128
128 128 128
128 128 128
128 128 128
128 128 128
128 128 128
128 128 128
128 128 128
128 128 128
128 128 128
128 128 128
128 128 128
128 128 128
128 128 128
128 128 128
128 128 128
128 128 128
128 128 128
128 128 128
128 128 128
128 128 128
128 128 128
128 128 128
128 128 128
128 128 128
128 128 128
128 128 128
128 128 128
128 128 128
128 128 128
128 128 128
128 128 128
128 128 128
128 128 128
128 128 128
128 128 128
128 128 128
128 128 128
128 128 128
128 128 128
128 128 128
128 128 128
128 128 128
128 128 128
128 128 128
0 0 0
0 0 0
0 0 0
0 0 0
0 0 0
128 128 128
0 0 0
0 0 0
0 0 0
0 0 0
0 0 0
0 0 0
0 0 0
0 0 0
0 0 0
0 0 0
0 0 0
0 0 0
0 0 0
0 0 0
0 0 0
0 0 0
0 0 0
128 128 128
0 0 0
0 0 0
0 0 0
0 0 0
0 0 0
0 0 0
0 0 0
0 0 0
128 128 128
0 0 0
0 0 0
128 128 128
128 128 128
128 128 128
128 128 128
128 128 128
128 128 128
128 128 128
128 128 128
128 128 128
128 128 128
128 128 128
128 128 128
128 128 128
128 128 128
128 128 128
128 128 128
128 128 128
128 128 128
128 128 128
128 128 128
128 128 128
128 128 128
128 128 128
128 128 128
128 128 128
128 128 128
128 128 128
128 128 128
128 128 128
128 128 128
128 128 128
128 128 128
128 128 128
128 128 128
128 128 128
0 0 0
128 128 128
128 128 128
128 128 128
128 128 128
128 128 128
128 128 128
128 128 128
0 0 0
128 128 128
128 128 128
128 128 128
128 128 128
128 128 128
128 128 128
128 128 128
128 128 128
128 128 128
128 128 128
128 128 128
0 0 0
128 128 128
128 128 128
128 128 128
128 128 128
128 128 128
128 128 128
128 128 128
128 128 128
128 128 128
128 128 128
128 128 128
128 128 128
128 128 128
128 128 128
128 128 128
128 128 128
128 128 128
128 128 128
128 128 128
128 128 128
128 128 128
128 128 128
128 128 128
128 128 128
128 128 128
128 128 128
128 128 128
128 128 128
128 128 128
128 128 128
128 128 128
128 128 128
128 128 128
128 128 128
128 128 128
128 128 128
128 128 128
128 128 128
128 128 128
128 128 128
128 128 128
128 128 128
128 128 128
128 128 128
128 128 128
128 128 128
128 128 128
128 128 128
128 128 128
128 128 128
128 128 128
128 128 128
128 128 128
128 128 128
128 128 128
128 128 128
128 128 128
128 128 128
128 128 128
128 128 128
128 128 128
128 128 128
0 0 0
0 0 0
0 0 0
0 0 0
0 0 0
128 128 128
128 128 128
128 128 128
128 128 128
128 128 128
128 128 128
0 0 0
0 0 0
0 0 0
0 0 0
0 0 0
0 0 0
0 0 0
0 0 0
0 0 0
0 0 0
0 0 0
0 0 0
0 0 0
128 128 128
0 0 0
0 0 0
0 0 0
0 0 0
0 0 0
0 0 0
0 0 0
0 0 0
128 128 128
0 0 0
0 0 0
128 128 128
128 128 128
128 128 128
128 128 128
128 128 128
128 128 128
128 128 128
128 128 128
128 128 128
128 128 128
128 128 128
128 128 128
128 128 128
128 128 128
128 128 128
128 128 128
128 128 128
128 128 128
128 128 128
128 128 128
128 128 128
128 128 128
128 128 128
128 128 128
128 128 128
128 128 128
128 128 128
128 128 128
128 128 128
128 128 128
128 128 128
128 128 128
128 128 128
128 128 128
128 128 128
128 128 128
128 128 128
128 128 128
128 128 128
128 128 128
128 128 128
128 128 128
128 128 128
0 0 0
0 0 0
128 128 128
128 128 128
128 128 128
128 128 128
128 128 128
128 128 128
128 128 128
128 128 128
128 128 128
128 128 128
0 0 0
128 128 128
128 128 128
128 128 128
128 128 128
128 128 128
128 128 128
128 128 128
128 128 128
128 128 128
128 128 128
128 128 128
128 128 128
128 128 128
128 128 128
128 128 128
128 128 128
128 128 128
128 128 128
128 128 128
128 128 128
128 128 128
128 128 128
128 128 128
128 128 128
128 128 128
128 128 128
128 128 128
128 128 128
128 128 128
128 128 128
128 128 128
128 128 128
128 128 128
128 128 128
128 128 128
128 128 128
128 128 128
128 128 128
128 128 128
128 128 128
128 128 128
128 128 128
128 128 128
128 128 128
128 128 128
128 128 128
128 128 128
128 128 128
128 128 128
128 128 128
128 128 128
128 128 128
128 128 128
128 128 128
128 128 128
128 128 128
128 128 128
128 128 128
128 128 128
128 128 128
128 128 128
128 128 128
0 0 0
0 0 0
0 0 0
0 0 0
0 0 0
0 0 0
0 0 0
128 128 128
128 128 128
0 0 0
0 0 0
0 0 0
0 0 0
0 0 0
0 0 0
0 0 0
128 128 128
0 0 0
0 0 0
0 0 0
0 0 0
0 0 0
0 0 0
0 0 0
0 0 0
0 0 0
0 0 0
0 0 0
0 0 0
0 0 0
0 0 0
0 0 0
128 128 128
128 128 128
0 0 0
128 128 128
128 128 128
128 128 128
128 128 128
128 128 128
128 128 128
128 128 128
128 128 128
128 128 128
128 128 128
128 128 128
128 128 128
128 128 128
128 128 128
128 128 128
128 128 128
128 128 128
128 128 128
128 128 128
128 128 128
128 128 128
128 128 128
128 128 128
128 128 128
128 128 128
128 128 128
128 128 128
128 128 128
128 128 128
128 128 128
128 128 128
128 128 128
128 128 128
128 128 128
128 128 128
128 128 128
0 0 0
128 128 128
128 128 128
128 128 128
128 128 128
128 128 128
128 128 128
128 128 128
0 0 0
0 0 0
128 128 128
128 128 128
128 128 128
128 128 128
128 128 128
128 128 128
128 128 128
128 128 128
128 128 128
128 128 128
0 0 0
128 128 128
128 128 128
128 128 128
128 128 128
128 128 128
128 128 128
128 128 128
128 128 128
128 128 128
128 128 128
128 128 128
128 128 128
128 128 128
128 128 128
128 128 128
128 128 128
128 128 128
128 128 128
128 128 128
128 128 128
128 128 128
128 128 128
128 128 128
128 128 128
128 128 128
128 128 128
128 128 128
128 128 128
128 128 128
128 128 128
128 128 128
128 128 128
128 128 128
128 128 128
128 128 128
128 128 128
128 128 128
128 128 128
128 128 128
128 128 128
128 128 128
128 128 128
128 128 128
128 128 128
128 128 128
128 128 128
128 128 128
128 128 128
0 0 0
128 128 128
128 128 128
128 128 128
128 128 128
128 128 128
128 128 128
128 128 128
128 128 128
128 128 128
128 128 128
128 128 128
128 128 128
128 128 128
128 128 128
0 0 0
0 0 0
0 0 0
0 0 0
0 0 0
0 0 0
0 0 0
0 0 0
0 0 0
0 0 0
0 0 0
0 0 0
0 0 0
0 0 0
128 128 128
128 128 128
0 0 0
0 0 0
0 0 0
0 0 0
0 0 0
0 0 0
0 0 0
0 0 0
0 0 0
128 128 128
0 0 0
0 0 0
128 128 128
0 0 0
0 0 0
0 0 0
128 128 128
0 0 0
128 128 128
128 128 128
128 128 128
128 128 128
128 128 128
128 128 128
128 128 128
128 128 128
128 128 128
128 128 128
128 128 128
128 128 128
128 128 128
128 128 128
128 128 128
128 128 128
128 128 128
128 128 128
128 128 128
128 128 128
128 128 128
128 128 128
128 128 128
128 128 128
128 128 128
128 128 128
128 128 128
128 128 128
128 128 128
128 128 128
128 128 128
128 128 128
128 128 128
128 128 128
128 128 128
128 128 128
0 0 0
128 128 128
128 128 128
128 128 128
128 128 128
128 128 128
128 128 128
128 128 128
0 0 0
0 0 0
128 128 128
128 128 128
128 128 128
128 128 128
128 128 128
128 128 128
128 128 128
128 128 128
128 128 128
128 128 128
0 0 0
128 128 128
128 128 128
128 128 128
128 128 128
128 128 128
128 128 128
128 128 128
128 128 128
128 128 128
128 128 128
128 128 128
128 128 128
128 128 128
128 128 128
128 128 128
128 128 128
128 128 128
128 128 128
128 128 128
128 128 128
128 128 128
128 128 128
128 128 128
128 128 128
128 128 128
128 128 128
128 128 128
128 128 128
128 128 128
128 128 128
128 128 128
128 128 128
128 128 128
128 128 128
128 128 128
128 128 128
128 128 128
128 128 128
128 128 128
128 128 128
128 128 128
128 128 128
128 128 128
128 128 128
128 128 128
128 128 128
128 128 128
128 128 128
0 0 0
128 128 128
128 128 128
128 128 128
128 128 128
128 128 128
128 128 128
128 128 128
128 128 128
128 128 128
128 128 128
128 128 128
128 128 128
128 128 128
128 128 128
0 0 0
0 0 0
0 0 0
0 0 0
0 0 0
0 0 0
0 0 0
0 0 0
0 0 0
0 0 0
0 0 0
0 0 0
0 0 0
0 0 0
128 128 128
0 0 0
0 0 0
128 128 128
0 0 0
0 0 0
0 0 0
0 0 0
0 0 0
0 0 0
128 128 128
128 128 128
0 0 0
0 0 0
128 128 128
0 0 0
0 0 0
128 128 128
0 0 0
0 0 0
128 128 128
128 128 128
128 128 128
128 128 128
128 128 128
128 128 128
128 128 128
128 128 128
128 128 128
128 128 128
128 128 128
128 128 128
128 128 128
128 128 128
128 128 128
128 128 128
128 128 128
128 128 128
128 128 128
128 128 128
128 128 128
128 128 128
128 128 128
128 128 128
128 128 128
128 128 128
128 128 128
128 128 128
128 128 128
128 128 128
128 128 128
128 128 128
128 128 128
128 128 128
128 128 128
128 128 128
128 128 128
128 128 128
128 128 128
128 128 128
128 128 128
128 128 128
0 0 0
128 128 128
0 0 0
0 0 0
0 0 0
128 128 128
128 128 128
128 128 128
128 128 128
128 128 128
128 128 128
128 128 128
128 128 128
128 128 128
128 128 128
128 128 128
128 128 128
128 128 128
128 128 128
128 128 128
128 128 128
0 0 0
128 128 128
128 128 128
128 128 128
128 128 128
128 128 128
128 128 128
128 128 128
128 128 128
128 128 128
128 128 128
128 128 128
128 128 128
128 128 128
128 128 128
128 128 128
128 128 128
128 128 128
128 128 128
128 128 128
128 128 128
128 128 128
128 128 128
128 128 128
128 128 128
128 128 128
128 128 128
128 128 128
128 128 128
128 128 128
128 128 128
128 128 128
128 128 128
128 128 128
128 128 128
128 128 128
128 128 128
128 128 128
128 128 128
128 128 128
128 128 128
128 128 128
0 0 0
128 128 128
128 128 128
128 128 128
128 128 128
128 128 128
128 128 128
128 128 128
128 128 128
128 128 128
128 128 128
128 128 128
128 128 128
128 128 128
128 128 128
128 128 128
0 0 0
0 0 0
128 128 128
0 0 0
0 0 0
0 0 0
0 0 0
128 128 128
0 0 0
0 0 0
0 0 0
0 0 0
128 128 128
128 128 128
0 0 0
0 0 0
0 0 0
0 0 0
0 0 0
0 0 0
0 0 0
0 0 0
128 128 128
128 128 128
128 128 128
0 0 0
0 0 0
128 128 128
128 128 128
0 0 0
128 128 128
0 0 0
128 128 128
128 128 128
128 128 128
128 128 128
128 128 128
128 128 128
128 128 128
128 128 128
128 128 128
128 128 128
128 128 128
128 128 128
128 128 128
128 128 128
128 128 128
128 128 128
128 128 128
128 128 128
128 128 128
128 128 128
128 128 128
128 128 128
128 128 128
128 128 128
128 128 128
128 128 128
128 128 128
128 128 128
128 128 128
128 128 128
128 128 128
128 128 128
128 128 128
128 128 128
128 128 128
128 128 128
128 128 128
128 128 128
128 128 128
128 128 128
128 128 128
128 128 128
128 128 128
0 0 0
0 0 0
0 0 0
0 0 0
128 128 128
128 128 128
128 128 128
128 128 128
0 0 0
128 128 128
128 128 128
128 128 128
128 128 128
128 128 128
128 128 128
128 128 128
128 128 128
128 128 128
128 128 128
128 128 128
128 128 128
0 0 0
128 128 128
128 128 128
128 128 128
128 128 128
128 128 128
128 128 128
128 128 128
128 128 128
128 128 128
128 128 128
128 128 128
128 128 128
128 128 128
128 128 128
128 128 128
128 128 128
128 128 128
128 128 128
128 128 128
128 128 128
128 128 128
128 128 128
128 128 128
128 128 128
128 128 128
128 128 128
128 128 128
128 128 128
128 128 128
128 128 128
128 128 128
128 128 128
128 128 128
128 128 128
128 128 128
128 128 128
128 128 128
128 128 128
128 128 128
128 128 128
0 0 0
0 0 0
0 0 0
128 128 128
128 128 128
128 128 128
128 128 128
128 128 128
128 128 128
128 128 128
128 128 128
128 128 128
128 128 128
128 128 128
128 128 128
128 128 128
128 128 128
0 0 0
128 128 128
128 128 128
0 0 0
0 0 0
0 0 0
128 128 128
0 0 0
0 0 0
0 0 0
0 0 0
0 0 0
128 128 128
128 128 128
0 0 0
0 0 0
0 0 0
0 0 0
0 0 0
128 128 128
0 0 0
0 0 0
128 128 128
128 128 128
128 128 128
0 0 0
128 128 128
128 128 128
128 128 128
128 128 128
128 128 128
0 0 0
128 128 128
128 128 128
128 128 128
128 128 128
128 128 128
128 128 128
128 128 128
128 128 128
128 128 128
128 128 128
128 128 128
128 128 128
128 128 128
128 128 128
128 128 128
128 128 128
128 128 128
128 128 128
128 128 128
128 128 128
128 128 128
128 128 128
128 128 128
128 128 128
128 128 128
128 128 128
128 128 128
128 128 128
128 128 128
128 128 128
128 128 128
128 128 128
128 128 128
128 128 128
128 128 128
128 128 128
128 128 128
128 128 128
0 0 0
128 128 128
128 128 128
128 128 128
128 128 128
128 128 128
128 128 128
0 0 0
0 0 0
128 128 128
128 128 128
128 128 128
128 128 128
128 128 128
128 128 128
128 128 128
128 128 128
128 128 128
128 128 128
128 128 128
128 128 128
128 128 128
128 128 128
128 128 128
128 128 128
128 128 128
128 128 128
128 128 128
128 128 128
128 128 128
128 128 128
128 128 128
128 128 128
128 128 128
128 128 128
128 128 128
128 128 128
128 128 128
128 128 128
128 128 128
128 128 128
128 128 128
128 128 128
128 128 128
128 128 128
128 128 128
128 128 128
128 128 128
128 128 128
128 128 128
128 128 128
128 128 128
128 128 128
128 128 128
128 128 128
128 128 128
128 128 128
128 128 128
128 128 128
128 128 128
128 128 128
128 128 128
128 128 128
128 128 128
128 128 128
128 128 128
128 128 128
0 0 0
0 0 0
0 0 0
128 128 128
128 128 128
128 128 128
128 128 128
128 128 128
128 128 128
128 128 128
128 128 128
128 128 128
128 128 128
128 128 128
128 128 128
128 128 128
128 128 128
0 0 0
0 0 0
0 0 0
0 0 0
128 128 128
128 128 128
128 128 128
0 0 0
128 128 128
0 0 0
0 0 0
0 0 0
128 128 128
0 0 0
0 0 0
0 0 0
128 128 128
0 0 0
0 0 0
128 128 128
128 128 128
128 128 128
128 128 128
0 0 0
0 0 0
0 0 0
128 128 128
128 128 128
0 0 0
128 128 128
0 0 0
0 0 0
128 128 128
128 128 128
128 128 128
128 128 128
128 128 128
128 128 128
128 128 128
128 128 128
128 128 128
128 128 128
128 128 128
128 128 128
128 128 128
128 128 128
128 128 128
128 128 128
128 128 128
128 128 128
128 128 128
128 128 128
128 128 128
128 128 128
128 128 128
128 128 128
128 128 128
128 128 128
128 128 128
128 128 128
128 128 128
128 128 128
128 128 128
128 128 128
128 128 128
128 128 128
128 128 128
128 128 128
128 128 128
128 128 128
0 0 0
128 128 128
128 128 128
128 128 128
128 128 128
128 128 128
128 128 128
0 0 0
0 0 0
0 0 0
128 128 128
128 128 128
128 128 128
128 128 128
128 128 128
128 128 128
128 128 128
128 128 128
128 128 128
128 128 128
128 128 128
128 128 128
128 128 128
128 128 128
128 128 128
128 128 128
128 128 128
128 128 128
128 128 128
128 128 128
128 128 128
128 128 128
128 128 128
128 128 128
128 128 128
128 128 128
128 128 128
128 128 128
128 128 128
128 128 128
128 128 128
128 128 128
128 128 128
128 128 128
128 128 128
128 128 128
128 128 128
128 128 128
128 128 128
128 128 128
128 128 128
128 128 128
128 128 128
128 128 128
128 128 128
128 128 128
128 128 128
128 128 128
128 128 128
128 128 128
128 128 128
128 128 128
128 128 128
128 128 128
128 128 128
128 128 128
128 128 128
0 0 0
0 0 0
0 0 0
128 128 128
128 128 128
128 128 128
128 128 128
128 128 128
128 128 128
128 128 128
128 128 128
128 128 128
128 128 128
128 128 128
128 128 128
128 128 128
128 128 128
0 0 0
128 128 128
128 128 128
128 128 128
128 128 128
0 0 0
128 128 128
0 0 0
128 128 128
128 128 128
0 0 0
0 0 0
0 0 0
0 0 0
0 0 0
128 128 128
0 0 0
0 0 0
128 128 128
128 128 128
128 128 128
128 128 128
128 128 128
128 128 128
128 128 128
0 0 0
128 128 128
128 128 128
0 0 0
128 128 128
0 0 0
128 128 128
128 128 128
128 128 128
128 128 128
128 128 128
128 128 128
128 128 128
128 128 128
128 128 128
128 128 128
128 128 128
128 128 128
128 128 128
128 128 128
128 128 128
128 128 128
128 128 128
128 128 128
128 128 128
128 128 128
128 128 128
128 128 128
128 128 128
128 128 128
128 128 128
128 128 128
128 128 128
128 128 128
128 128 128
128 128 128
128 128 128
128 128 128
128 128 128
128 128 128
128 128 128
128 128 128
128 128 128
128 128 128
128 128 128
128 128 128
128 128 128
128 128 128
128 128 128
128 128 128
128 128 128
128 128 128
128 128 128
0 0 0
0 0 0
128 128 128
128 128 128
128 128 128
128 128 128
128 128 128
128 128 128
128 128 128
128 128 128
128 128 128
128 128 128
128 128 128
128 128 128
128 128 128
128 128 128
128 128 128
0 0 0
128 128 128
128 128 128
0 0 0
128 128 128
128 128 128
128 128 128
128 128 128
128 128 128
128 128 128
128 128 128
128 128 128
128 128 128
128 128 128
128 128 128
128 128 128
128 128 128
128 128 128
128 128 128
128 128 128
128 128 128
128 128 128
128 128 128
128 128 128
128 128 128
128 128 128
128 128 128
128 128 128
128 128 128
128 128 128
128 128 128
128 128 128
128 128 128
128 128 128
128 128 128
128 128 128
128 128 128
128 128 128
128 128 128
128 128 128
128 128 128
128 128 128
0 0 0
0 0 0
0 0 0
128 128 128
128 128 128
128 128 128
128 128 128
128 128 128
128 128 128
128 128 128
128 128 128
128 128 128
128 128 128
128 128 128
128 128 128
128 128 128
128 128 128
0 0 0
128 128 128
128 128 128
0 0 0
0 0 0
128 128 128
128 128 128
128 128 128
0 0 0
128 128 128
0 0 0
0 0 0
0 0 0
128 128 128
128 128 128
128 128 128
0 0 0
0 0 0
128 128 128
128 128 128
128 128 128
128 128 128
128 128 128
128 128 128
128 128 128
128 128 128
0 0 0
128 128 128
0 0 0
128 128 128
0 0 0
128 128 128
128 128 128
128 128 128
128 128 128
128 128 128
128 128 128
128 128 128
128 128 128
128 128 128
128 128 128
128 128 128
128 128 128
128 128 128
128 128 128
128 128 128
128 128 128
128 128 128
128 128 128
128 128 128
128 128 128
128 128 128
128 128 128
128 128 128
128 128 128
128 128 128
128 128 128
128 128 128
128 128 128
128 128 128
128 128 128
128 128 128
128 128 128
128 128 128
128 128 128
128 128 128
128 128 128
128 128 128
128 128 128
128 128 128
128 128 128
0 0 0
128 128 128
128 128 128
128 128 128
128 128 128
128 128 128
128 128 128
128 128 128
0 0 0
128 128 128
128 128 128
128 128 128
128 128 128
128 128 128
128 128 128
128 128 128
128 128 128
128 128 128
128 128 128
128 128 128
0 0 0
128 128 128
128 128 128
128 128 128
0 0 0
128 128 128
128 128 128
128 128 128
128 128 128
128 128 128
128 128 128
128 128 128
128 128 128
128 128 128
128 128 128
128 128 128
128 128 128
128 128 128
128 128 128
128 128 128
128 128 128
128 128 128
128 128 128
128 128 128
128 128 128
128 128 128
128 128 128
128 128 128
128 128 128
128 128 128
128 128 128
128 128 128
128 128 128
128 128 128
128 128 128
128 128 128
128 128 128
128 128 128
128 128 128
128 128 128
128 128 128
128 128 128
128 128 128
128 128 128
128 128 128
128 128 128
0 0 0
0 0 0
0 0 0
128 128 128
128 128 128
128 128 128
128 128 128
128 128 128
128 128 128
128 128 128
128 128 128
128 128 128
128 128 128
128 128 128
128 128 128
128 128 128
128 128 128
0 0 0
128 128 128
128 128 128
0 0 0
128 128 128
128 128 128
128 128 128
128 128 128
128 128 128
128 128 128
0 0 0
0 0 0
128 128 128
128 128 128
128 128 128
128 128 128
0 0 0
0 0 0
128 128 128
128 128 128
0 0 0
0 0 0
128 128 128
128 128 128
0 0 0
128 128 128
128 128 128
128 128 128
0 0 0
128 128 128
0 0 0
128 128 128
128 128 128
128 128 128
128 128 128
128 128 128
128 128 128
128 128 128
128 128 128
128 128 128
128 128 128
128 128 128
128 128 128
128 128 128
128 128 128
128 128 128
128 128 128
128 128 128
128 128 128
128 128 128
128 128 128
128 128 128
128 128 128
128 128 128
128 128 128
128 128 128
128 128 128
128 128 128
128 128 128
128 128 128
128 128 128
128 128 128
128 128 128
128 128 128
128 128 128
128 128 128
128 128 128
128 128 128
128 128 128
128 128 128
128 128 128
0 0 0
128 128 128
128 128 128
128 128 128
128 128 128
128 128 128
128 128 128
128 128 128
0 0 0
128 128 128
128 128 128
128 128 128
128 128 128
128 128 128
128 128 128
128 128 128
128 128 128
128 128 128
128 128 128
128 128 128
128 128 128
128 128 128
128 128 128
0 0 0
0 0 0
128 128 128
0 0 0
128 128 128
128 128 128
128 128 128
128 128 128
128 128 128
128 128 128
128 128 128
128 128 128
128 128 128
128 128 128
128 128 128
128 128 128
128 128 128
128 128 128
128 128 128
128 128 128
128 128 128
128 128 128
128 128 128
128 128 128
128 128 128
128 128 128
128 128 128
128 128 128
128 128 128
128 128 128
128 128 128
128 128 128
128 128 128
128 128 128
128 128 128
128 128 128
128 128 128
128 128 128
128 128 128
128 128 128
128 128 128
128 128 128
128 128 128
0 0 0
0 0 0
0 0 0
128 128 128
128 128 128
128 128 128
128 128 128
128 128 128
128 128 128
128 128 128
128 128 128
128 128 128
128 128 128
128 128 128
128 128 128
128 128 128
128 128 128
128 128 128
128 128 128
128 128 128
128 128 128
128 128 128
0 0 0
128 128 128
128 128 128
128 128 128
0 0 0
0 0 0
0 0 0
128 128 128
128 128 128
128 128 128
0 0 0
0 0 0
128 128 128
128 128 128
128 128 128
0 0 0
128 128 128
128 128 128
128 128 128
0 0 0
128 128 128
0 0 0
0 0 0
128 128 128
128 128 128
0 0 0
128 128 128
128 128 128
128 128 128
128 128 128
128 128 128
128 128 128
128 128 128
128 128 128
128 128 128
128 128 128
128 128 128
128 128 128
128 128 128
128 128 128
128 128 128
128 128 128
128 128 128
128 128 128
128 128 128
128 128 128
128 128 128
128 128 128
128 128 128
128 128 128
128 128 128
128 128 128
128 128 128
128 128 128
128 128 128
128 128 128
128 128 128
128 128 128
128 128 128
128 128 128
128 128 128
128 128 128
128 128 128
128 128 128
128 128 128
128 128 128
0 0 0
128 128 128
128 128 128
128 128 128
128 128 128
128 128 128
128 128 128
128 128 128
0 0 0
128 128 128
128 128 128
128 128 128
128 128 128
128 128 128
128 128 128
128 128 128
128 128 128
128 128 128
128 128 128
128 128 128
128 128 128
128 128 128
128 128 128
128 128 128
128 128 128
128 128 128
128 128 128
128 128 128
128 128 128
128 128 128
128 128 128
128 128 128
128 128 128
128 128 128
128 128 128
128 128 128
128 128 128
128 128 128
128 128 128
128 128 128
128 128 128
128 128 128
128 128 128
128 128 128
128 128 128
128 128 128
128 128 128
128 128 128
128 128 128
128 128 128
128 128 128
128 128 128
128 128 128
128 128 128
128 128 128
128 128 128
128 128 128
128 128 128
128 128 128
128 128 128
128 128 128
128 128 128
128 128 128
128 128 128
128 128 128
128 128 128
0 0 0
0 0 0
0 0 0
0 0 0
128 128 128
128 128 128
128 128 128
128 128 128
128 128 128
128 128 128
128 128 128
128 128 128
128 128 128
128 128 128
128 128 128
128 128 128
128 128 128
0 0 0
128 128 128
0 0 0
128 128 128
128 128 128
128 128 128
128 128 128
128 128 128
128 128 128
0 0 0
0 0 0
128 128 128
128 128 128
128 128 128
0 0 0
0 0 0
0 0 0
128 128 128
128 128 128
128 128 128
0 0 0
128 128 128
128 128 128
0 0 0
128 128 128
128 128 128
128 128 128
0 0 0
128 128 128
128 128 128
0 0 0
128 128 128
128 128 128
128 128 128
128 128 128
128 128 128
128 128 128
128 128 128
128 128 128
128 128 128
128 128 128
128 128 128
128 128 128
128 128 128
128 128 128
128 128 128
128 128 128
128 128 128
128 128 128
128 128 128
128 128 128
128 128 128
128 128 128
128 128 128
128 128 128
128 128 128
128 128 128
128 128 128
128 128 128
128 128 128
128 128 128
128 128 128
128 128 128
128 128 128
128 128 128
128 128 128
128 128 128
128 128 128
128 128 128
128 128 128
128 128 128
0 0 0
0 0 0
128 128 128
128 128 128
128 128 128
128 128 128
128 128 128
128 128 128
0 0 0
128 128 128
128 128 128
128 128 128
128 128 128
128 128 128
128 128 128
128 128 128
128 128 128
128 128 128
128 128 128
128 128 128
128 128 128
128 128 128
128 128 128
128 128 128
128 128 128
128 128 128
128 128 128
128 128 128
128 128 128
128 128 128
128 128 128
128 128 128
128 128 128
128 128 128
128 128 128
128 128 128
128 128 128
128 128 128
128 128 128
128 128 128
128 128 128
128 128 128
128 128 128
128 128 128
128 128 128
128 128 128
128 128 128
128 128 128
128 128 128
128 128 128
128 128 128
128 128 128
128 128 128
128 128 128
128 128 128
128 128 128
128 128 128
128 128 128
128 128 128
128 128 128
128 128 128
128 128 128
128 128 128
128 128 128
128 128 128
128 128 128
0 0 0
0 0 0
0 0 0
0 0 0
128 128 128
128 128 128
128 128 128
128 128 128
128 128 128
128 128 128
128 128 128
128 128 128
128 128 128
128 128 128
128 128 128
128 128 128
128 128 128
128 128 128
128 128 128
0 0 0
128 128 128
128 128 128
128 128 128
0 0 0
128 128 128
128 128 128
0 0 0
0 0 0
128 128 128
0 0 0
0 0 0
0 0 0
0 0 0
128 128 128
128 128 128
128 128 128
128 128 128
0 0 0
128 128 128
128 128 128
128 128 128
128 128 128
128 128 128
128 128 128
0 0 0
128 128 128
128 128 128
0 0 0
128 128 128
128 128 128
128 128 128
128 128 128
128 128 128
128 128 128
128 128 128
128 128 128
128 128 128
128 128 128
128 128 128
128 128 128
128 128 128
128 128 128
128 128 128
128 128 128
128 128 128
128 128 128
128 128 128
128 128 128
128 128 128
128 128 128
128 128 128
128 128 128
128 128 128
128 128 128
128 128 128
128 128 128
128 128 128
128 128 128
128 128 128
128 128 128
128 128 128
128 128 128
128 128 128
128 128 128
128 128 128
128 128 128
128 128 128
128 128 128
128 128 128
0 0 0
128 128 128
128 128 128
128 128 128
128 128 128
128 128 128
128 128 128
128 128 128
128 128 128
128 128 128
128 128 128
128 128 128
128 128 128
128 128 128
128 128 128
128 128 128
128 128 128
128 128 128
128 128 128
0 0 0
128 128 128
128 128 128
128 128 128
128 128 128
128 128 128
128 128 128
128 128 128
128 128 128
128 128 128
128 128 128
128 128 128
128 128 128
128 128 128
128 128 128
128 128 128
128 128 128
128 128 128
128 128 128
128 128 128
128 128 128
128 128 128
128 128 128
128 128 128
128 128 128
128 128 128
128 128 128
128 128 128
128 128 128
128 128 128
128 128 128
128 128 128
128 128 128
128 128 128
128 128 128
128 128 128
128 128 128
128 128 128
128 128 128
128 128 128
128 128 128
128 128 128
128 128 128
128 128 128
128 128 128
0 0 0
0 0 0
0 0 0
0 0 0
0 0 0
128 128 128
128 128 128
128 128 128
128 128 128
128 128 128
128 128 128
128 128 128
128 128 128
128 128 128
128 128 128
128 128 128
128 128 128
128 128 128
128 128 128
128 128 128
128 128 128
128 128 128
128 128 128
0 0 0
128 128 128
128 128 128
128 128 128
0 0 0
0 0 0
0 0 0
128 128 128
128 128 128
0 0 0
0 0 0
128 128 128
128 128 128
128 128 128
128 128 128
0 0 0
0 0 0
0 0 0
128 128 128
128 128 128
128 128 128
0 0 0
0 0 0
128 128 128
128 128 128
0 0 0
128 128 128
128 128 128
128 128 128
128 128 128
128 128 128
128 128 128
128 128 128
128 128 128
128 128 128
128 128 128
128 128 128
128 128 128
128 128 128
128 128 128
128 128 128
128 128 128
128 128 128
128 128 128
128 128 128
128 128 128
128 128 128
128 128 128
128 128 128
128 128 128
128 128 128
128 128 128
128 128 128
128 128 128
128 128 128
128 128 128
128 128 128
128 128 128
128 128 128
128 128 128
128 128 128
128 128 128
128 128 128
128 128 128
128 128 128
128 128 128
0 0 0
0 0 0
128 128 128
128 128 128
128 128 128
128 128 128
0 0 0
128 128 128
128 128 128
128 128 128
128 128 128
128 128 128
128 128 128
128 128 128
128 128 128
128 128 128
128 128 128
128 128 128
128 128 128
128 128 128
128 128 128
128 128 128
128 128 128
128 128 128
128 128 128
128 128 128
128 128 128
128 128 128
128 128 128
128 128 128
128 128 128
128 128 128
128 128 128
128 128 128
128 128 128
128 128 128
128 128 128
128 128 128
128 128 128
128 128 128
128 128 128
128 128 128
128 128 128
128 128 128
128 128 128
128 128 128
128 128 128
128 128 128
128 128 128
128 128 128
128 128 128
128 128 128
128 128 128
128 128 128
128 128 128
128 128 128
128 128 128
128 128 128
128 128 128
128 128 128
128 128 128
128 128 128
128 128 128
128 128 128
128 128 128
0 0 0
0 0 0
0 0 0
0 0 0
0 0 0
128 128 128
128 128 128
128 128 128
128 128 128
128 128 128
128 128 128
128 128 128
128 128 128
128 128 128
128 128 128
128 128 128
128 128 128
128 128 128
0 0 0
0 0 0
128 128 128
128 128 128
128 128 128
128 128 128
0 0 0
0 0 0
0 0 0
0 0 0
128 128 128
128 128 128
128 128 128
128 128 128
0 0 0
0 0 0
128 128 128
128 128 128
128 128 128
128 128 128
0 0 0
0 0 0
128 128 128
128 128 128
128 128 128
128 128 128
0 0 0
0 0 0
128 128 128
128 128 128
0 0 0
128 128 128
128 128 128
128 128 128
128 128 128
128 128 128
128 128 128
128 128 128
128 128 128
128 128 128
128 128 128
128 128 128
128 128 128
128 128 128
128 128 128
128 128 128
128 128 128
128 128 128
128 128 128
128 128 128
128 128 128
128 128 128
128 128 128
128 128 128
128 128 128
128 128 128
128 128 128
128 128 128
128 128 128
128 128 128
128 128 128
128 128 128
128 128 128
128 128 128
128 128 128
128 128 128
128 128 128
128 128 128
128 128 128
128 128 128
0 0 0
128 128 128
128 128 128
128 128 128
128 128 128
128 128 128
128 128 128
128 128 128
128 128 128
128 128 128
128 128 128
128 128 128
128 128 128
128 128 128
128 128 128
128 128 128
128 128 128
128 128 128
128 128 128
128 128 128
128 128 128
128 128 128
128 128 128
128 128 128
0 0 0
128 128 128
128 128 128
128 128 128
128 128 128
128 128 128
128 128 128
128 128 128
128 128 128
128 128 128
128 128 128
128 128 128
128 128 128
128 128 128
128 128 128
128 128 128
128 128 128
128 128 128
128 128 128
128 128 128
128 128 128
128 128 128
128 128 128
128 128 128
128 128 128
128 128 128
128 128 128
128 128 128
128 128 128
128 128 128
128 128 128
128 128 128
128 128 128
128 128 128
128 128 128
128 128 128
128 128 128
128 128 128
128 128 128
128 128 128
128 128 128
128 128 128
0 0 0
0 0 0
0 0 0
0 0 0
0 0 0
0 0 0
128 128 128
128 128 128
128 128 128
128 128 128
128 128 128
128 128 128
128 128 128
128 128 128
128 128 128
128 128 128
128 128 128
128 128 128
0 0 0
0 0 0
128 128 128
128 128 128
0 0 0
0 0 0
0 0 0
0 0 0
0 0 0
0 0 0
128 128 128
128 128 128
128 128 128
128 128 128
0 0 0
128 128 128
128 128 128
0 0 0
0 0 0
0 0 0
128 128 128
0 0 0
128 128 128
128 128 128
128 128 128
128 128 128
0 0 0
128 128 128
128 128 128
128 128 128
0 0 0
128 128 128
128 128 128
128 128 128
128 128 128
128 128 128
128 128 128
128 128 128
128 128 128
128 128 128
128 128 128
128 128 128
128 128 128
128 128 128
128 128 128
128 128 128
128 128 128
128 128 128
128 128 128
128 128 128
128 128 128
128 128 128
128 128 128
128 128 128
128 128 128
128 128 128
128 128 128
128 128 128
128 128 128
128 128 128
128 128 128
128 128 128
128 128 128
128 128 128
128 128 128
128 128 128
128 128 128
128 128 128
128 128 128
0 0 0
128 128 128
128 128 128
128 128 128
0 0 0
128 128 128
128 128 128
128 128 128
128 128 128
128 128 128
128 128 128
128 128 128
128 128 128
128 128 128
128 128 128
128 128 128
128 128 128
128 128 128
128 128 128
128 128 128
128 128 128
128 128 128
0 0 0
128 128 128
128 128 128
128 128 128
128 128 128
128 128 128
128 128 128
128 128 128
128 128 128
128 128 128
128 128 128
128 128 128
128 128 128
128 128 128
128 128 128
128 128 128
128 128 128
128 128 128
128 128 128
128 128 128
128 128 128
128 128 128
128 128 128
128 128 128
128 128 128
128 128 128
128 128 128
128 128 128
128 128 128
128 128 128
128 128 128
128 128 128
128 128 128
128 128 128
128 128 128
128 128 128
128 128 128
128 128 128
128 128 128
128 128 128
128 128 128
128 128 128
128 128 128
128 128 128
128 128 128
0 0 0
0 0 0
0 0 0
0 0 0
0 0 0
0 0 0
128 128 128
128 128 128
128 128 128
128 128 128
128 128 128
128 128 128
128 128 128
128 128 128
128 128 128
128 128 128
128 128 128
128 128 128
0 0 0
0 0 0
128 128 128
0 0 0
0 0 0
0 0 0
128 128 128
128 128 128
0 0 0
0 0 0
128 128 128
128 128 128
128 128 128
0 0 0
0 0 0
0 0 0
128 128 128
0 0 0
128 128 128
0 0 0
128 128 128
0 0 0
0 0 0
128 128 128
0 0 0
0 0 0
0 0 0
128 128 128
128 128 128
128 128 128
0 0 0
0 0 0
128 128 128
128 128 128
128 128 128
128 128 128
128 128 128
128 128 128
128 128 128
128 128 128
128 128 128
128 128 128
128 128 128
128 128 128
128 128 128
128 128 128
128 128 128
128 128 128
128 128 128
128 128 128
128 128 128
128 128 128
128 128 128
128 128 128
128 128 128
128 128 128
128 128 128
128 128 128
128 128 128
128 128 128
128 128 128
128 128 128
128 128 128
128 128 128
128 128 128
128 128 128
128 128 128
128 128 128
128 128 128
128 128 128
128 128 128
128 128 128
128 128 128
0 0 0
128 128 128
128 128 128
128 128 128
128 128 128
128 128 128
128 128 128
128 128 128
128 128 128
128 128 128
128 128 128
128 128 128
128 128 128
128 128 128
128 128 128
128 128 128
128 128 128
128 128 128
128 128 128
128 128 128
128 128 128
128 128 128
128 128 128
128 128 128
128 128 128
128 128 128
128 128 128
128 128 128
128 128 128
128 128 128
128 128 128
128 128 128
128 128 128
128 128 128
128 128 128
128 128 128
128 128 128
128 128 128
128 128 128
128 128 128
128 128 128
128 128 128
128 128 128
128 128 128
128 128 128
128 128 128
128 128 128
128 128 128
128 128 128
128 128 128
128 128 128
128 128 128
128 128 128
128 128 128
128 128 128
128 128 128
128 128 128
128 128 128
128 128 128
128 128 128
128 128 128
128 128 128
0 0 0
0 0 0
0 0 0
0 0 0
0 0 0
0 0 0
0 0 0
128 128 128
128 128 128
128 128 128
128 128 128
128 128 128
128 128 128
128 128 128
128 128 128
128 128 128
128 128 128
128 128 128
128 128 128
0 0 0
0 0 0
0 0 0
128 128 128
128 128 128
0 0 0
128 128 128
128 128 128
0 0 0
0 0 0
128 128 128
128 128 128
128 128 128
0 0 0
0 0 0
128 128 128
128 128 128
128 128 128
128 128 128
0 0 0
0 0 0
0 0 0
0 0 0
0 0 0
0 0 0
0 0 0
0 0 0
0 0 0
0 0 0
128 128 128
0 0 0
0 0 0
128 128 128
128 128 128
128 128 128
128 128 128
128 128 128
128 128 128
128 128 128
128 128 128
128 128 128
128 128 128
128 128 128
128 128 128
128 128 128
128 128 128
128 128 128
128 128 128
128 128 128
128 128 128
128 128 128
128 128 128
128 128 128
128 128 128
128 128 128
128 128 128
128 128 128
128 128 128
128 128 128
128 128 128
128 128 128
128 128 128
128 128 128
128 128 128
128 128 128
128 128 128
128 128 128
128 128 128
128 128 128
128 128 128
128 128 128
128 128 128
128 128 128
0 0 0
128 128 128
128 128 128
128 128 128
128 128 128
128 128 128
128 128 128
128 128 128
128 128 128
128 128 128
128 128 128
0 0 0
128 128 128
128 128 128
128 128 128
128 128 128
128 128 128
128 128 128
128 128 128
128 128 128
128 128 128
128 128 128
128 128 128
128 128 128
128 128 128
128 128 128
128 128 128
128 128 128
128 128 128
128 128 128
128 128 128
128 128 128
128 128 128
128 128 128
128 128 128
128 128 128
128 128 128
128 128 128
128 128 128
128 128 128
128 128 128
128 128 128
128 128 128
128 128 128
128 128 128
128 128 128
128 128 128
128 128 128
128 128 128
128 128 128
128 128 128
128 128 128
128 128 128
128 128 128
128 128 128
128 128 128
128 128 128
128 128 128
128 128 128
128 128 128
128 128 128
128 128 128
0 0 0
0 0 0
0 0 0
0 0 0
0 0 0
0 0 0
0 0 0
128 128 128
128 128 128
128 128 128
128 128 128
128 128 128
128 128 128
128 128 128
128 128 128
128 128 128
128 128 128
128 128 128
0 0 0
0 0 0
0 0 0
128 128 128
128 128 128
0 0 0
128 128 128
128 128 128
128 128 128
0 0 0
0 0 0
128 128 128
128 128 128
128 128 128
0 0 0
0 0 0
128 128 128
128 128 128
128 128 128
128 128 128
0 0 0
128 128 128
0 0 0
0 0 0
0 0 0
0 0 0
128 128 128
0 0 0
0 0 0
0 0 0
128 128 128
0 0 0
0 0 0
128 128 128
0 0 0
128 128 128
128 128 128
128 128 128
128 128 128
128 128 128
128 128 128
128 128 128
128 128 128
128 128 128
128 128 128
128 128 128
128 128 128
128 128 128
128 128 128
128 128 128
128 128 128
128 128 128
128 128 128
128 128 128
128 128 128
128 128 128
128 128 128
128 128 128
128 128 128
128 128 128
128 128 128
128 128 128
128 128 128
128 128 128
128 128 128
128 128 128
128 128 128
128 128 128
128 128 128
128 128 128
128 128 128
128 128 128
128 128 128
128 128 128
0 0 0
128 128 128
128 128 128
128 128 128
128 128 128
128 128 128
128 128 128
128 128 128
128 128 128
128 128 128
128 128 128
128 128 128
0 0 0
128 128 128
128 128 128
128 128 128
128 128 128
128 128 128
128 128 128
128 128 128
128 128 128
128 128 128
128 128 128
128 128 128
128 128 128
128 128 128
128 128 128
128 128 128
128 128 128
128 128 128
128 128 128
128 128 128
128 128 128
128 128 128
128 128 128
128 128 128
128 128 128
128 128 128
128 128 128
128 128 128
128 128 128
128 128 128
128 128 128
128 128 128
128 128 128
128 128 128
128 128 128
128 128 128
128 128 128
128 128 128
128 128 128
128 128 128
128 128 128
128 128 128
128 128 128
128 128 128
128 128 128
128 128 128
128 128 128
128 128 128
128 128 128
128 128 128
0 0 0
0 0 0
0 0 0
0 0 0
0 0 0
0 0 0
0 0 0
0 0 0
128 128 128
128 128 128
128 128 128
128 128 128
128 128 128
128 128 128
128 128 128
128 128 128
128 128 128
128 128 128
0 0 0
0 0 0
0 0 0
128 128 128
128 128 128
128 128 128
0 0 0
128 128 128
0 0 0
0 0 0
0 0 0
128 128 128
128 128 128
0 0 0
0 0 0
128 128 128
128 128 128
128 128 128
128 128 128
128 128 128
128 128 128
128 128 128
128 128 128
128 128 128
0 0 0
0 0 0
128 128 128
0 0 0
0 0 0
128 128 128
128 128 128
0 0 0
0 0 0
0 0 0
128 128 128
128 128 128
128 128 128
128 128 128
128 128 128
128 128 128
128 128 128
128 128 128
128 128 128
128 128 128
128 128 128
128 128 128
128 128 128
128 128 128
128 128 128
128 128 128
128 128 128
128 128 128
128 128 128
128 128 128
128 128 128
128 128 128
128 128 128
128 128 128
128 128 128
128 128 128
128 128 128
128 128 128
128 128 128
128 128 128
128 128 128
128 128 128
128 128 128
128 128 128
0 0 0
128 128 128
128 128 128
128 128 128
128 128 128
128 128 128
0 0 0
128 128 128
128 128 128
128 128 128
128 128 128
128 128 128
128 128 128
128 128 128
0 0 0
128 128 128
128 128 128
128 128 128
0 0 0
128 128 128
128 128 128
128 128 128
128 128 128
128 128 128
128 128 128
128 128 128
128 128 128
128 128 128
128 128 128
128 128 128
128 128 128
128 128 128
128 128 128
128 128 128
128 128 128
128 128 128
128 128 128
128 128 128
128 128 128
128 128 128
128 128 128
128 128 128
128 128 128
128 128 128
128 128 128
128 128 128
128 128 128
128 128 128
128 128 128
128 128 128
128 128 128
128 128 128
128 128 128
128 128 128
128 128 128
128 128 128
128 128 128
128 128 128
128 128 128
128 128 128
128 128 128
128 128 128
128 128 128
128 128 128
128 128 128
128 128 128
128 128 128
0 0 0
0 0 0
0 0 0
0 0 0
0 0 0
0 0 0
0 0 0
0 0 0
0 0 0
128 128 128
128 128 128
128 128 128
128 128 128
128 128 128
128 128 128
128 128 128
128 128 128
128 128 128
128 128 128
128 128 128
0 0 0
128 128 128
128 128 128
128 128 128
128 128 128
0 0 0
128 128 128
0 0 0
0 0 0
0 0 0
128 128 128
128 128 128
0 0 0
0 0 0
128 128 128
128 128 128
128 128 128
128 128 128
128 128 128
128 128 128
128 128 128
128 128 128
128 128 128
128 128 128
0 0 0
128 128 128
0 0 0
0 0 0
128 128 128
128 128 128
0 0 0
128 128 128
0 0 0
0 0 0
128 128 128
128 128 128
128 128 128
128 128 128
128 128 128
128 128 128
128 128 128
128 128 128
128 128 128
128 128 128
128 128 128
128 128 128
128 128 128
128 128 128
128 128 128
128 128 128
128 128 128
128 128 128
128 128 128
128 128 128
128 128 128
128 128 128
128 128 128
128 128 128
128 128 128
128 128 128
128 128 128
128 128 128
128 128 128
128 128 128
128 128 128
128 128 128
128 128 128
0 0 0
128 128 128
128 128 128
128 128 128
128 128 128
128 128 128
128 128 128
0 0 0
128 128 128
128 128 128
128 128 128
128 128 128
128 128 128
128 128 128
0 0 0
128 128 128
128 128 128
128 128 128
0 0 0
128 128 128
128 128 128
128 128 128
128 128 128
128 128 128
128 128 128
128 128 128
128 128 128
128 128 128
128 128 128
128 128 128
128 128 128
128 128 128
128 128 128
128 128 128
128 128 128
128 128 128
128 128 128
128 128 128
128 128 128
128 128 128
128 128 128
128 128 128
128 128 128
128 128 128
128 128 128
128 128 128
128 128 128
128 128 128
128 128 128
128 128 128
128 128 128
128 128 128
128 128 128
128 128 128
128 128 128
128 128 128
128 128 128
128 128 128
128 128 128
128 128 128
128 128 128
128 128 128
128 128 128
128 128 128
128 128 128
128 128 128
128 128 128
0 0 0
0 0 0
0 0 0
0 0 0
0 0 0
0 0 0
0 0 0
0 0 0
0 0 0
128 128 128
128 128 128
128 128 128
128 128 128
128 128 128
128 128 128
128 128 128
128 128 128
128 128 128
128 128 128
0 0 0
0 0 0
128 128 128
128 128 128
128 128 128
128 128 128
0 0 0
128 128 128
0 0 0
0 0 0
0 0 0
0 0 0
0 0 0
0 0 0
0 0 0
128 128 128
128 128 128
128 128 128
128 128 128
0 0 0
128 128 128
128 128 128
128 128 128
128 128 128
128 128 128
128 128 128
128 128 128
0 0 0
128 128 128
128 128 128
128 128 128
0 0 0
128 128 128
0 0 0
0 0 0
0 0 0
128 128 128
0 0 0
128 128 128
128 128 128
128 128 128
128 128 128
128 128 128
128 128 128
128 128 128
128 128 128
128 128 128
128 128 128
128 128 128
128 128 128
128 128 128
128 128 128
128 128 128
128 128 128
128 128 128
128 128 128
128 128 128
128 128 128
128 128 128
128 128 128
128 128 128
128 128 128
128 128 128
128 128 128
128 128 128
128 128 128
128 128 128
0 0 0
128 128 128
128 128 128
128 128 128
128 128 128
128 128 128
128 128 128
128 128 128
0 0 0
128 128 128
128 128 128
128 128 128
128 128 128
128 128 128
0 0 0
0 0 0
128 128 128
128 128 128
128 128 128
0 0 0
128 128 128
128 128 128
128 128 128
128 128 128
128 128 128
128 128 128
128 128 128
128 128 128
128 128 128
128 128 128
128 128 128
128 128 128
128 128 128
128 128 128
128 128 128
128 128 128
128 128 128
128 128 128
128 128 128
128 128 128
128 128 128
128 128 128
128 128 128
128 128 128
128 128 128
128 128 128
128 128 128
128 128 128
128 128 128
128 128 128
128 128 128
128 128 128
128 128 128
128 128 128
128 128 128
128 128 128
128 128 128
128 128 128
128 128 128
128 128 128
128 128 128
128 128 128
128 128 128
128 128 128
128 128 128
128 128 128
128 128 128
128 128 128
0 0 0
0 0 0
0 0 0
0 0 0
0 0 0
0 0 0
0 0 0
0 0 0
0 0 0
128 128 128
128 128 128
128 128 128
128 128 128
128 128 128
128 128 128
128 128 128
128 128 128
128 128 128
128 128 128
0 0 0
0 0 0
128 128 128
128 128 128
128 128 128
0 0 0
0 0 0
0 0 0
0 0 0
0 0 0
0 0 0
0 0 0
0 0 0
0 0 0
128 128 128
128 128 128
128 128 128
128 128 128
128 128 128
0 0 0
128 128 128
128 128 128
128 128 128
128 128 128
128 128 128
128 128 128
128 128 128
0 0 0
128 128 128
128 128 128
128 128 128
0 0 0
128 128 128
128 128 128
0 0 0
0 0 0
128 128 128
128 128 128
128 128 128
128 128 128
128 128 128
128 128 128
128 128 128
128 128 128
128 128 128
128 128 128
128 128 128
128 128 128
128 128 128
128 128 128
128 128 128
128 128 128
128 128 128
128 128 128
128 128 128
128 128 128
128 128 128
128 128 128
128 128 128
128 128 128
128 128 128
128 128 128
128 128 128
0 0 0
128 128 128
128 128 128
128 128 128
0 0 0
128 128 128
128 128 128
128 128 128
128 128 128
128 128 128
128 128 128
128 128 128
0 0 0
128 128 128
128 128 128
128 128 128
128 128 128
0 0 0
0 0 0
0 0 0
0 0 0
128 128 128
128 128 128
0 0 0
128 128 128
128 128 128
128 128 128
128 128 128
128 128 128
128 128 128
128 128 128
0 0 0
128 128 128
128 128 128
0 0 0
128 128 128
128 128 128
128 128 128
128 128 128
128 128 128
128 128 128
128 128 128
128 128 128
128 128 128
128 128 128
128 128 128
128 128 128
128 128 128
128 128 128
128 128 128
128 128 128
128 128 128
128 128 128
128 128 128
128 128 128
128 128 128
128 128 128
128 128 128
128 128 128
128 128 128
128 128 128
128 128 128
128 128 128
128 128 128
128 128 128
128 128 128
128 128 128
128 128 128
128 128 128
128 128 128
128 128 128
0 0 0
0 0 0
0 0 0
0 0 0
0 0 0
0 0 0
0 0 0
0 0 0
0 0 0
0 0 0
0 0 0
128 128 128
128 128 128
128 128 128
128 128 128
128 128 128
128 128 128
128 128 128
128 128 128
128 128 128
0 0 0
0 0 0
128 128 128
128 128 128
0 0 0
0 0 0
0 0 0
0 0 0
0 0 0
0 0 0
128 128 128
0 0 0
0 0 0
0 0 0
128 128 128
128 128 128
128 128 128
128 128 128
128 128 128
128 128 128
128 128 128
128 128 128
128 128 128
128 128 128
128 128 128
128 128 128
128 128 128
0 0 0
128 128 128
128 128 128
128 128 128
0 0 0
128 128 128
128 128 128
0 0 0
0 0 0
0 0 0
128 128 128
128 128 128
128 128 128
128 128 128
128 128 128
128 128 128
128 128 128
128 128 128
128 128 128
128 128 128
128 128 128
128 128 128
128 128 128
128 128 128
128 128 128
128 128 128
128 128 128
128 128 128
128 128 128
128 128 128
128 128 128
128 128 128
128 128 128
128 128 128
128 128 128
128 128 128
128 128 128
128 128 128
128 128 128
128 128 128
128 128 128
128 128 128
128 128 128
128 128 128
128 128 128
128 128 128
128 128 128
128 128 128
0 0 0
0 0 0
128 128 128
128 128 128
128 128 128
0 0 0
0 0 0
128 128 128
0 0 0
128 128 128
128 128 128
128 128 128
0 0 0
128 128 128
0 0 0
0 0 0
128 128 128
128 128 128
128 128 128
0 0 0
128 128 128
0 0 0
128 128 128
128 128 128
128 128 128
0 0 0
128 128 128
128 128 128
128 128 128
128 128 128
128 128 128
128 128 128
128 128 128
128 128 128
128 128 128
128 128 128
128 128 128
128 128 128
128 128 128
128 128 128
128 128 128
128 128 128
128 128 128
128 128 128
128 128 128
128 128 128
128 128 128
128 128 128
128 128 128
128 128 128
128 128 128
128 128 128
128 128 128
128 128 128
128 128 128
128 128 128
128 128 128
128 128 128
128 128 128
0 0 0
0 0 0
0 0 0
0 0 0
0 0 0
0 0 0
0 0 0
0 0 0
0 0 0
0 0 0
0 0 0
0 0 0
128 128 128
128 128 128
128 128 128
128 128 128
128 128 128
128 128 128
128 128 128
128 128 128
0 0 0
0 0 0
128 128 128
0 0 0
0 0 0
0 0 0
0 0 0
0 0 0
0 0 0
128 128 128
128 128 128
0 0 0
0 0 0
0 0 0
128 128 128
128 128 128
128 128 128
128 128 128
0 0 0
0 0 0
128 128 128
128 128 128
128 128 128
128 128 128
128 128 128
128 128 128
0 0 0
0 0 0
128 128 128
128 128 128
128 128 128
0 0 0
128 128 128
128 128 128
0 0 0
0 0 0
0 0 0
128 128 128
128 128 128
128 128 128
128 128 128
0 0 0
128 128 128
128 128 128
128 128 128
128 128 128
128 128 128
128 128 128
128 128 128
128 128 128
128 128 128
128 128 128
128 128 128
128 128 128
128 128 128
128 128 128
128 128 128
128 128 128
128 128 128
128 128 128
128 128 128
128 128 128
128 128 128
128 128 128
128 128 128
128 128 128
0 0 0
128 128 128
128 128 128
128 128 128
128 128 128
128 128 128
128 128 128
128 128 128
128 128 128
0 0 0
0 0 0
128 128 128
128 128 128
128 128 128
128 128 128
128 128 128
128 128 128
0 0 0
128 128 128
0 0 0
128 128 128
128 128 128
128 128 128
128 128 128
128 128 128
128 128 128
128 128 128
0 0 0
0 0 0
128 128 128
128 128 128
128 128 128
128 128 128
128 128 128
128 128 128
128 128 128
128 128 128
128 128 128
128 128 128
128 128 128
128 128 128
128 128 128
128 128 128
128 128 128
128 128 128
128 128 128
128 128 128
128 128 128
128 128 128
128 128 128
128 128 128
128 128 128
128 128 128
128 128 128
128 128 128
128 128 128
128 128 128
128 128 128
128 128 128
128 128 128
128 128 128
128 128 128
128 128 128
128 128 128
128 128 128
128 128 128
128 128 128
128 128 128
0 0 0
0 0 0
0 0 0
0 0 0
0 0 0
0 0 0
0 0 0
0 0 0
0 0 0
0 0 0
0 0 0
0 0 0
128 128 128
128 128 128
128 128 128
128 128 128
128 128 128
128 128 128
128 128 128
128 128 128
0 0 0
0 0 0
128 128 128
0 0 0
0 0 0
0 0 0
0 0 0
0 0 0
0 0 0
0 0 0
0 0 0
0 0 0
0 0 0
0 0 0
128 128 128
128 128 128
128 128 128
128 128 128
0 0 0
128 128 128
128 128 128
128 128 128
128 128 128
128 128 128
128 128 128
128 128 128
0 0 0
0 0 0
128 128 128
128 128 128
128 128 128
0 0 0
128 128 128
128 128 128
0 0 0
0 0 0
0 0 0
0 0 0
128 128 128
128 128 128
128 128 128
0 0 0
128 128 128
128 128 128
128 128 128
128 128 128
128 128 128
128 128 128
128 128 128
128 128 128
128 128 128
128 128 128
128 128 128
128 128 128
128 128 128
128 128 128
128 128 128
128 128 128
128 128 128
128 128 128
128 128 128
128 128 128
128 128 128
128 128 128
128 128 128
128 128 128
0 0 0
128 128 128
128 128 128
128 128 128
128 128 128
128 128 128
128 128 128
128 128 128
128 128 128
0 0 0
0 0 0
128 128 128
128 128 128
128 128 128
0 0 0
128 128 128
128 128 128
0 0 0
128 128 128
0 0 0
128 128 128
128 128 128
128 128 128
128 128 128
128 128 128
128 128 128
128 128 128
0 0 0
0 0 0
0 0 0
0 0 0
128 128 128
128 128 128
0 0 0
0 0 0
0 0 0
0 0 0
0 0 0
0 0 0
0 0 0
0 0 0
128 128 128
128 128 128
0 0 0
0 0 0
128 128 128
128 128 128
0 0 0
0 0 0
128 128 128
128 128 128
128 128 128
128 128 128
128 128 128
128 128 128
128 128 128
128 128 128
128 128 128
128 128 128
128 128 128
128 128 128
128 128 128
128 128 128
128 128 128
128 128 128
128 128 128
128 128 128
128 128 128
0 0 0
0 0 0
0 0 0
0 0 0
0 0 0
0 0 0
0 0 0
0 0 0
0 0 0
0 0 0
0 0 0
0 0 0
0 0 0
128 128 128
0 0 0
0 0 0
128 128 128
0 0 0
128 128 128
128 128 128
0 0 0
0 0 0
128 128 128
0 0 0
0 0 0
0 0 0
0 0 0
0 0 0
0 0 0
0 0 0
0 0 0
0 0 0
0 0 0
0 0 0
128 128 128
128 128 128
128 128 128
0 0 0
0 0 0
128 128 128
128 128 128
128 128 128
128 128 128
128 128 128
128 128 128
128 128 128
0 0 0
0 0 0
128 128 128
128 128 128
0 0 0
128 128 128
128 128 128
0 0 0
0 0 0
0 0 0
128 128 128
0 0 0
128 128 128
128 128 128
128 128 128
128 128 128
128 128 128
128 128 128
128 128 128
128 128 128
128 128 128
128 128 128
128 128 128
128 128 128
128 128 128
128 128 128
128 128 128
128 128 128
128 128 128
128 128 128
128 128 128
128 128 128
128 128 128
128 128 128
128 128 128
128 128 128
128 128 128
128 128 128
0 0 0
0 0 0
0 0 0
128 128 128
128 128 128
128 128 128
128 128 128
128 128 128
128 128 128
128 128 128
128 128 128
0 0 0
0 0 0
128 128 128
128 128 128
0 0 0
128 128 128
128 128 128
128 128 128
0 0 0
0 0 0
0 0 0
128 128 128
128 128 128
128 128 128
128 128 128
128 128 128
128 128 128
128 128 128
0 0 0
128 128 128
0 0 0
0 0 0
128 128 128
0 0 0
0 0 0
0 0 0
0 0 0
0 0 0
0 0 0
0 0 0
0 0 0
0 0 0
0 0 0
0 0 0
0 0 0
0 0 0
0 0 0
0 0 0
0 0 0
0 0 0
0 0 0
0 0 0
0 0 0
0 0 0
0 0 0
0 0 0
0 0 0
0 0 0
0 0 0
0 0 0
0 0 0
0 0 0
0 0 0
0 0 0
0 0 0
0 0 0
0 0 0
0 0 0
0 0 0
0 0 0
0 0 0
0 0 0
0 0 0
0 0 0
0 0 0
0 0 0
0 0 0
0 0 0
0 0 0
0 0 0
0 0 0
0 0 0
0 0 0
0 0 0
0 0 0
0 0 0
0 0 0
0 0 0
0 0 0
0 0 0
0 0 0
128 128 128
0 0 0
0 0 0
0 0 0
0 0 0
0 0 0
0 0 0
0 0 0
0 0 0
0 0 0
0 0 0
0 0 0
0 0 0
0 0 0
0 0 0
0 0 0
0 0 0
0 0 0
0 0 0
0 0 0
0 0 0
0 0 0
0 0 0
0 0 0
0 0 0
0 0 0
0 0 0
0 0 0
0 0 0
0 0 0
128 128 128
0 0 0
0 0 0
0 0 0
0 0 0
0 0 0
0 0 0
0 0 0
128 128 128
128 128 128
128 128 128
128 128 128
128 128 128
128 128 128
128 128 128
128 128 128
128 128 128
128 128 128
128 128 128
0 0 0
0 0 0
0 0 0
0 0 0
0 0 0
0 0 0
0 0 0
0 0 0
0 0 0
0 0 0
0 0 0
0 0 0
0 0 0
0 0 0
0 0 0
0 0 0
0 0 0
0 0 0
0 0 0
0 0 0
0 0 0
0 0 0
0 0 0
128 128 128
0 0 0
0 0 0
128 128 128
0 0 0
0 0 0
0 0 0
0 0 0
128 128 128
0 0 0
0 0 0
0 0 0
128 128 128
128 128 128
0 0 0
128 128 128
128 128 128
128 128 128
128 128 128
0 0 0
0 0 0
0 0 0
0 0 0
0 0 0
0 0 0
0 0 0
0 0 0
0 0 0
0 0 0
0 0 0
0 0 0
0 0 0
0 0 0
0 0 0
0 0 0
0 0 0
0 0 0
0 0 0
0 0 0
0 0 0
0 0 0
0 0 0
0 0 0
0 0 0
0 0 0
0 0 0
0 0 0
0 0 0
0 0 0
0 0 0
0 0 0
0 0 0
0 0 0
0 0 0
0 0 0
0 0 0
0 0 0
0 0 0
0 0 0
0 0 0
0 0 0
0 0 0
0 0 0
0 0 0
0 0 0
0 0 0
0 0 0
0 0 0
0 0 0
0 0 0
0 0 0
0 0 0
0 0 0
0 0 0
0 0 0
0 0 0
0 0 0
0 0 0
0 0 0
0 0 0
0 0 0
0 0 0
0 0 0
0 0 0
0 0 0
0 0 0
0 0 0
0 0 0
0 0 0
0 0 0
0 0 0
0 0 0
0 0 0
0 0 0
0 0 0
0 0 0
0 0 0
0 0 0
0 0 0
0 0 0
0 0 0
0 0 0
0 0 0
0 0 0
0 0 0
0 0 0
0 0 0
0 0 0
0 0 0
0 0 0
0 0 0
0 0 0
128 128 128
0 0 0
0 0 0
0 0 0
0 0 0
0 0 0
0 0 0
0 0 0
0 0 0
0 0 0
0 0 0
0 0 0
0 0 0
0 0 0
0 0 0
0 0 0
0 0 0
0 0 0
0 0 0
0 0 0
0 0 0
0 0 0
0 0 0
0 0 0
0 0 0
0 0 0
0 0 0
0 0 0
0 0 0
0 0 0
0 0 0
0 0 0
0 0 0
0 0 0
0 0 0
0 0 0
0 0 0
0 0 0
0 0 0
0 0 0
0 0 0
0 0 0
0 0 0
0 0 0
0 0 0
0 0 0
0 0 0
0 0 0
0 0 0
128 128 128
128 128 128
128 128 128
0 0 0
0 0 0
128 128 128
128 128 128
0 0 0
128 128 128
128 128 128
0 0 0
128 128 128
0 0 0
0 0 0
0 0 0
0 0 0
0 0 0
0 0 0
0 0 0
0 0 0
0 0 0
0 0 0
0 0 0
0 0 0
0 0 0
0 0 0
0 0 0
0 0 0
0 0 0
0 0 0
0 0 0
0 0 0
0 0 0
0 0 0
0 0 0
0 0 0
0 0 0
0 0 0
0 0 0
0 0 0
0 0 0
0 0 0
0 0 0
0 0 0
0 0 0
0 0 0
0 0 0
0 0 0
0 0 0
0 0 0
0 0 0
0 0 0
0 0 0
0 0 0
0 0 0
0 0 0
0 0 0
0 0 0
0 0 0
0 0 0
0 0 0
0 0 0
0 0 0
0 0 0
0 0 0
0 0 0
0 0 0
0 0 0
0 0 0
0 0 0
0 0 0
0 0 0
0 0 0
0 0 0
0 0 0
0 0 0
0 0 0
0 0 0
0 0 0
0 0 0
0 0 0
0 0 0
0 0 0
0 0 0
0 0 0
0 0 0
0 0 0
0 0 0
0 0 0
0 0 0
0 0 0
0 0 0
0 0 0
0 0 0
0 0 0
0 0 0
0 0 0
0 0 0
0 0 0
0 0 0
0 0 0
0 0 0
0 0 0
0 0 0
128 128 128
128 128 128
0 0 0
0 0 0
0 0 0
0 0 0
0 0 0
0 0 0
0 0 0
0 0 0
0 0 0
0 0 0
0 0 0
0 0 0
0 0 0
0 0 0
0 0 0
0 0 0
0 0 0
128 128 128
0 0 0
128 128 128
128 128 128
128 128 128
128 128 128
128 128 128
128 128 128
128 128 128
0 0 0
0 0 0
0 0 0
0 0 0
0 0 0
0 0 0
0 0 0
0 0 0
0 0 0
0 0 0
0 0 0
0 0 0
0 0 0
0 0 0
0 0 0
0 0 0
0 0 0
0 0 0
0 0 0
128 128 128
0 0 0
128 128 128
0 0 0
128 128 128
0 0 0
128 128 128
128 128 128
128 128 128
128 128 128
128 128 128
128 128 128
128 128 128
128 128 128
128 128 128
0 0 0
0 0 0
0 0 0
0 0 0
0 0 0
0 0 0
0 0 0
0 0 0
0 0 0
0 0 0
0 0 0
0 0 0
0 0 0
0 0 0
0 0 0
0 0 0
0 0 0
0 0 0
0 0 0
0 0 0
0 0 0
0 0 0
0 0 0
0 0 0
0 0 0
0 0 0
0 0 0
0 0 0
0 0 0
0 0 0
0 0 0
0 0 0
0 0 0
0 0 0
0 0 0
0 0 0
0 0 0
0 0 0
0 0 0
0 0 0
0 0 0
0 0 0
0 0 0
0 0 0
0 0 0
0 0 0
0 0 0
0 0 0
0 0 0
0 0 0
0 0 0
0 0 0
0 0 0
0 0 0
0 0 0
0 0 0
0 0 0
0 0 0
0 0 0
0 0 0
0 0 0
0 0 0
0 0 0
0 0 0
0 0 0
0 0 0
0 0 0
0 0 0
0 0 0
0 0 0
0 0 0
0 0 0
0 0 0
0 0 0
0 0 0
0 0 0
0 0 0
0 0 0
0 0 0
0 0 0
0 0 0
0 0 0
0 0 0
0 0 0
0 0 0
0 0 0
0 0 0
0 0 0
0 0 0
0 0 0
0 0 0
0 0 0
0 0 0
0 0 0
0 0 0
0 0 0
0 0 0
0 0 0
0 0 0
0 0 0
0 0 0
0 0 0
0 0 0
0 0 0
0 0 0
0 0 0
128 128 128
0 0 0
0 0 0
0 0 0
0 0 0
0 0 0
0 0 0
0 0 0
0 0 0
0 0 0
0 0 0
0 0 0
0 0 0
0 0 0
0 0 0
0 0 0
0 0 0
0 0 0
0 0 0
0 0 0
0 0 0
0 0 0
0 0 0
0 0 0
0 0 0
0 0 0
0 0 0
0 0 0
0 0 0
0 0 0
0 0 0
0 0 0
0 0 0
128 128 128
0 0 0
128 128 128
128 128 128
128 128 128
128 128 128
128 128 128
128 128 128
128 128 128
128 128 128
128 128 128
128 128 128
128 128 128
0 0 0
128 128 128
0 0 0
0 0 0
0 0 0
0 0 0
0 0 0
0 0 0
0 0 0
0 0 0
0 0 0
0 0 0
0 0 0
0 0 0
0 0 0
0 0 0
0 0 0
0 0 0
0 0 0
0 0 0
0 0 0
0 0 0
0 0 0
0 0 0
0 0 0
0 0 0
0 0 0
0 0 0
0 0 0
0 0 0
0 0 0
0 0 0
0 0 0
0 0 0
0 0 0
0 0 0
0 0 0
0 0 0
0 0 0
128 128 128
128 128 128
0 0 0
0 0 0
0 0 0
0 0 0
0 0 0
0 0 0
0 0 0
0 0 0
0 0 0
0 0 0
128 128 128
0 0 0
0 0 0
0 0 0
0 0 0
0 0 0
0 0 0
0 0 0
0 0 0
0 0 0
128 128 128
0 0 0
0 0 0
0 0 0
128 128 128
0 0 0
0 0 0
0 0 0
0 0 0
0 0 0
128 128 128
0 0 0
0 0 0
0 0 0
128 128 128
0 0 0
0 0 0
0 0 0
0 0 0
0 0 0
0 0 0
0 0 0
0 0 0
0 0 0
0 0 0
0 0 0
0 0 0
0 0 0
0 0 0
0 0 0
0 0 0
0 0 0
128 128 128
128 128 128
0 0 0
0 0 0
0 0 0
0 0 0
0 0 0
0 0 0
0 0 0
0 0 0
0 0 0
0 0 0
0 0 0
128 128 128
128 128 128
128 128 128
128 128 128
128 128 128
0 0 0
128 128 128
0 0 0
0 0 0
0 0 0
0 0 0
0 0 0
0 0 0
0 0 0
0 0 0
0 0 0
0 0 0
0 0 0
0 0 0
0 0 0
0 0 0
0 0 0
0 0 0
0 0 0
0 0 0
0 0 0
0 0 0
0 0 0
0 0 0
0 0 0
0 0 0
0 0 0
0 0 0
0 0 0
0 0 0
0 0 0
0 0 0
0 0 0
0 0 0
128 128 128
0 0 0
128 128 128
128 128 128
128 128 128
128 128 128
128 128 128
128 128 128
128 128 128
128 128 128
128 128 128
0 0 0
0 0 0
0 0 0
0 0 0
0 0 0
0 0 0
0 0 0
0 0 0
0 0 0
0 0 0
0 0 0
0 0 0
0 0 0
0 0 0
0 0 0
0 0 0
0 0 0
0 0 0
0 0 0
0 0 0
0 0 0
0 0 0
0 0 0
0 0 0
0 0 0
0 0 0
0 0 0
0 0 0
0 0 0
0 0 0
0 0 0
0 0 0
0 0 0
0 0 0
0 0 0
0 0 0
0 0 0
0 0 0
0 0 0
0 0 0
0 0 0
0 0 0
0 0 0
0 0 0
0 0 0
128 128 128
128 128 128
128 128 128
0 0 0
0 0 0
0 0 0
0 0 0
0 0 0
0 0 0
0 0 0
0 0 0
128 128 128
0 0 0
128 128 128
0 0 0
0 0 0
0 0 0
0 0 0
128 128 128
0 0 0
0 0 0
0 0 0
0 0 0
0 0 0
0 0 0
0 0 0
0 0 0
0 0 0
0 0 0
0 0 0
0 0 0
0 0 0
0 0 0
128 128 128
0 0 0
0 0 0
0 0 0
0 0 0
0 0 0
0 0 0
0 0 0
0 0 0
0 0 0
128 128 128
128 128 128
0 0 0
128 128 128
128 128 128
0 0 0
0 0 0
0 0 0
0 0 0
0 0 0
0 0 0
0 0 0
0 0 0
0 0 0
0 0 0
128 128 128
128 128 128
128 128 128
128 128 128
128 128 128
128 128 128
128 128 128
128 128 128
128 128 128
128 128 128
128 128 128
128 128 128
128 128 128
128 128 128
128 128 128
128 128 128
0 0 0
0 0 0
0 0 0
0 0 0
128 128 128
0 0 0
0 0 0
128 128 128
0 0 0
128 128 128
128 128 128
128 128 128
0 0 0
0 0 0
0 0 0
0 0 0
0 0 0
0 0 0
0 0 0
0 0 0
0 0 0
0 0 0
0 0 0
0 0 0
128 128 128
0 0 0
128 128 128
0 0 0
0 0 0
0 0 0
0 0 0
0 0 0
128 128 128
128 128 128
128 128 128
0 0 0
0 0 0
0 0 0
0 0 0
128 128 128
0 0 0
0 0 0
128 128 128
128 128 128
128 128 128
128 128 128
128 128 128
128 128 128
128 128 128
128 128 128
0 0 0
0 0 0
0 0 0
0 0 0
0 0 0
0 0 0
0 0 0
0 0 0
0 0 0
0 0 0
0 0 0
0 0 0
0 0 0
0 0 0
0 0 0
0 0 0
0 0 0
0 0 0
0 0 0
0 0 0
0 0 0
0 0 0
0 0 0
0 0 0
0 0 0
0 0 0
0 0 0
0 0 0
0 0 0
0 0 0
128 128 128
128 128 128
128 128 128
128 128 128
128 128 128
128 128 128
128 128 128
128 128 128
128 128 128
128 128 128
128 128 128
128 128 128
128 128 128
0 0 0
0 0 0
128 128 128
0 0 0
0 0 0
128 128 128
0 0 0
0 0 0
0 0 0
0 0 0
0 0 0
0 0 0
0 0 0
0 0 0
0 0 0
0 0 0
0 0 0
0 0 0
0 0 0
0 0 0
0 0 0
0 0 0
0 0 0
0 0 0
0 0 0
0 0 0
0 0 0
0 0 0
0 0 0
0 0 0
0 0 0
0 0 0
0 0 0
128 128 128
0 0 0
0 0 0
0 0 0
0 0 0
0 0 0
0 0 0
0 0 0
0 0 0
0 0 0
0 0 0
0 0 0
0 0 0
0 0 0
0 0 0
0 0 0
0 0 0
0 0 0
0 0 0
0 0 0
0 0 0
0 0 0
0 0 0
0 0 0
0 0 0
0 0 0
0 0 0
128 128 128
128 128 128
128 128 128
0 0 0
0 0 0
0 0 0
0 0 0
0 0 0
128 128 128
0 0 0
0 0 0
0 0 0
0 0 0
0 0 0
0 0 0
0 0 0
0 0 0
0 0 0
0 0 0
0 0 0
0 0 0
0 0 0
0 0 0
0 0 0
0 0 0
128 128 128
0 0 0
0 0 0
128 128 128
0 0 0
0 0 0
0 0 0
0 0 0
128 128 128
0 0 0
0 0 0
0 0 0
0 0 0
0 0 0
128 128 128
128 128 128
0 0 0
0 0 0
0 0 0
128 128 128
128 128 128
128 128 128
128 128 128
128 128 128
128 128 128
128 128 128
0 0 0
0 0 0
0 0 0
128 128 128
0 0 0
0 0 0
0 0 0
0 0 0
0 0 0
0 0 0
0 0 0
0 0 0
0 0 0
0 0 0
0 0 0
0 0 0
0 0 0
0 0 0
0 0 0
0 0 0
0 0 0
0 0 0
0 0 0
0 0 0
0 0 0
0 0 0
0 0 0
0 0 0
0 0 0
0 0 0
128 128 128
128 128 128
128 128 128
128 128 128
128 128 128
128 128 128
128 128 128
0 0 0
0 0 0
0 0 0
0 0 0
0 0 0
0 0 0
0 0 0
0 0 0
0 0 0
0 0 0
0 0 0
128 128 128
0 0 0
0 0 0
0 0 0
0 0 0
0 0 0
128 128 128
0 0 0
0 0 0
0 0 0
0 0 0
0 0 0
0 0 0
0 0 0
0 0 0
0 0 0
0 0 0
0 0 0
0 0 0
0 0 0
0 0 0
0 0 0
0 0 0
0 0 0
0 0 0
0 0 0
0 0 0
128 128 128
128 128 128
128 128 128
0 0 0
0 0 0
0 0 0
0 0 0
128 128 128
128 128 128
0 0 0
0 0 0
128 128 128
128 128 128
0 0 0
0 0 0
0 0 0
0 0 0
0 0 0
0 0 0
0 0 0
0 0 0
0 0 0
0 0 0
0 0 0
0 0 0
0 0 0
0 0 0
0 0 0
0 0 0
0 0 0
0 0 0
0 0 0
0 0 0
0 0 0
0 0 0
0 0 0
0 0 0
0 0 0
0 0 0
0 0 0
0 0 0
0 0 0
0 0 0
0 0 0
0 0 0
0 0 0
0 0 0
0 0 0
0 0 0
0 0 0
0 0 0
0 0 0
0 0 0
0 0 0
0 0 0
0 0 0
0 0 0
0 0 0
0 0 0
0 0 0
0 0 0
128 128 128
128 128 128
128 128 128
0 0 0
0 0 0
0 0 0
128 128 128
0 0 0
0 0 0
0 0 0
0 0 0
0 0 0
0 0 0
0 0 0
0 0 0
0 0 0
0 0 0
0 0 0
0 0 0
0 0 0
0 0 0
128 128 128
0 0 0
0 0 0
0 0 0
0 0 0
0 0 0
0 0 0
0 0 0
0 0 0
0 0 0
0 0 0
0 0 0
0 0 0
0 0 0
0 0 0
0 0 0
0 0 0
0 0 0
0 0 0
0 0 0
0 0 0
0 0 0
0 0 0
0 0 0
128 128 128
0 0 0
128 128 128
128 128 128
128 128 128
128 128 128
128 128 128
128 128 128
128 128 128
128 128 128
0 0 0
0 0 0
0 0 0
0 0 0
0 0 0
0 0 0
0 0 0
128 128 128
0 0 0
0 0 0
0 0 0
128 128 128
0 0 0
0 0 0
0 0 0
0 0 0
0 0 0
128 128 128
0 0 0
0 0 0
0 0 0
0 0 0
0 0 0
0 0 0
0 0 0
0 0 0
0 0 0
0 0 0
0 0 0
0 0 0
0 0 0
0 0 0
0 0 0
0 0 0
0 0 0
0 0 0
0 0 0
0 0 0
128 128 128
128 128 128
0 0 0
0 0 0
0 0 0
0 0 0
0 0 0
0 0 0
0 0 0
0 0 0
0 0 0
0 0 0
0 0 0
0 0 0
0 0 0
0 0 0
0 0 0
0 0 0
0 0 0
0 0 0
0 0 0
0 0 0
0 0 0
0 0 0
0 0 0
0 0 0
0 0 0
0 0 0
0 0 0
0 0 0
0 0 0
0 0 0
0 0 0
0 0 0
0 0 0
0 0 0
0 0 0
0 0 0
0 0 0
0 0 0
0 0 0
0 0 0
0 0 0
0 0 0
0 0 0
0 0 0
0 0 0
0 0 0
0 0 0
0 0 0
0 0 0
0 0 0
0 0 0
0 0 0
0 0 0
0 0 0
128 128 128
0 0 0
0 0 0
0 0 0
0 0 0
128 128 128
0 0 0
0 0 0
0 0 0
0 0 0
0 0 0
0 0 0
0 0 0
0 0 0
0 0 0
0 0 0
0 0 0
0 0 0
0 0 0
0 0 0
0 0 0
0 0 0
0 0 0
0 0 0
0 0 0
0 0 0
0 0 0
0 0 0
0 0 0
0 0 0
0 0 0
0 0 0
0 0 0
0 0 0
0 0 0
0 0 0
0 0 0
0 0 0
0 0 0
0 0 0
0 0 0
0 0 0
0 0 0
0 0 0
0 0 0
0 0 0
0 0 0
0 0 0
0 0 0
0 0 0
0 0 0
0 0 0
0 0 0
128 128 128
128 128 128
128 128 128
128 128 128
128 128 128
128 128 128
128 128 128
0 0 0
0 0 0
0 0 0
0 0 0
0 0 0
0 0 0
0 0 0
0 0 0
0 0 0
0 0 0
0 0 0
128 128 128
128 128 128
0 0 0
0 0 0
0 0 0
0 0 0
0 0 0
0 0 0
128 128 128
0 0 0
0 0 0
0 0 0
0 0 0
0 0 0
128 128 128
0 0 0
0 0 0
0 0 0
0 0 0
0 0 0
0 0 0
0 0 0
0 0 0
0 0 0
0 0 0
0 0 0
0 0 0
128 128 128
0 0 0
0 0 0
0 0 0
0 0 0
0 0 0
0 0 0
0 0 0
0 0 0
0 0 0
0 0 0
0 0 0
0 0 0
0 0 0
0 0 0
0 0 0
0 0 0
0 0 0
0 0 0
0 0 0
0 0 0
0 0 0
0 0 0
0 0 0
0 0 0
0 0 0
0 0 0
0 0 0
0 0 0
0 0 0
0 0 0
0 0 0
0 0 0
0 0 0
0 0 0
0 0 0
0 0 0
0 0 0
0 0 0
0 0 0
0 0 0
0 0 0
0 0 0
0 0 0
0 0 0
0 0 0
0 0 0
0 0 0
0 0 0
0 0 0
0 0 0
0 0 0
0 0 0
0 0 0
0 0 0
0 0 0
128 128 128
0 0 0
0 0 0
0 0 0
0 0 0
0 0 0
0 0 0
0 0 0
0 0 0
0 0 0
0 0 0
0 0 0
0 0 0
0 0 0
0 0 0
0 0 0
0 0 0
0 0 0
0 0 0
0 0 0
0 0 0
0 0 0
0 0 0
0 0 0
0 0 0
0 0 0
0 0 0
0 0 0
0 0 0
0 0 0
0 0 0
0 0 0
0 0 0
0 0 0
0 0 0
0 0 0
0 0 0
0 0 0
0 0 0
0 0 0
0 0 0
0 0 0
0 0 0
0 0 0
0 0 0
0 0 0
0 0 0
0 0 0
0 0 0
0 0 0
0 0 0
0 0 0
128 128 128
128 128 128
128 128 128
128 128 128
128 128 128
128 128 128
128 128 128
128 128 128
0 0 0
0 0 0
0 0 0
0 0 0
0 0 0
0 0 0
0 0 0
128 128 128
0 0 0
0 0 0
0 0 0
128 128 128
128 128 128
128 128 128
0 0 0
0 0 0
0 0 0
0 0 0
0 0 0
128 128 128
128 128 128
128 128 128
128 128 128
0 0 0
128 128 128
128 128 128
0 0 0
0 0 0
0 0 0
0 0 0
0 0 0
0 0 0
0 0 0
0 0 0
0 0 0
0 0 0
0 0 0
0 0 0
128 128 128
0 0 0
0 0 0
0 0 0
0 0 0
0 0 0
0 0 0
0 0 0
0 0 0
0 0 0
0 0 0
0 0 0
0 0 0
0 0 0
0 0 0
0 0 0
0 0 0
0 0 0
0 0 0
0 0 0
0 0 0
0 0 0
0 0 0
0 0 0
0 0 0
0 0 0
0 0 0
0 0 0
0 0 0
0 0 0
0 0 0
0 0 0
0 0 0
0 0 0
0 0 0
0 0 0
0 0 0
0 0 0
0 0 0
0 0 0
0 0 0
0 0 0
0 0 0
0 0 0
0 0 0
0 0 0
0 0 0
0 0 0
0 0 0
0 0 0
0 0 0
0 0 0
0 0 0
0 0 0
0 0 0
0 0 0
128 128 128
0 0 0
0 0 0
0 0 0
0 0 0
128 128 128
0 0 0
0 0 0
0 0 0
0 0 0
0 0 0
0 0 0
0 0 0
0 0 0
0 0 0
0 0 0
0 0 0
0 0 0
0 0 0
0 0 0
0 0 0
0 0 0
0 0 0
0 0 0
0 0 0
0 0 0
0 0 0
0 0 0
0 0 0
0 0 0
0 0 0
0 0 0
0 0 0
0 0 0
0 0 0
0 0 0
0 0 0
0 0 0
0 0 0
0 0 0
0 0 0
0 0 0
0 0 0
0 0 0
0 0 0
0 0 0
0 0 0
0 0 0
0 0 0
0 0 0
0 0 0
0 0 0
128 128 128
128 128 128
128 128 128
128 128 128
128 128 128
128 128 128
128 128 128
128 128 128
0 0 0
0 0 0
0 0 0
0 0 0
0 0 0
0 0 0
0 0 0
128 128 128
0 0 0
0 0 0
0 0 0
128 128 128
128 128 128
128 128 128
128 128 128
0 0 0
0 0 0
0 0 0
0 0 0
128 128 128
128 128 128
128 128 128
0 0 0
0 0 0
128 128 128
128 128 128
0 0 0
0 0 0
0 0 0
0 0 0
0 0 0
0 0 0
0 0 0
0 0 0
0 0 0
0 0 0
0 0 0
0 0 0
128 128 128
0 0 0
0 0 0
0 0 0
0 0 0
0 0 0
0 0 0
0 0 0
0 0 0
0 0 0
0 0 0
0 0 0
0 0 0
0 0 0
0 0 0
0 0 0
0 0 0
0 0 0
0 0 0
0 0 0
0 0 0
0 0 0
0 0 0
0 0 0
0 0 0
0 0 0
0 0 0
0 0 0
0 0 0
0 0 0
0 0 0
0 0 0
0 0 0
0 0 0
0 0 0
0 0 0
0 0 0
0 0 0
0 0 0
0 0 0
0 0 0
0 0 0
0 0 0
0 0 0
0 0 0
0 0 0
0 0 0
0 0 0
0 0 0
0 0 0
0 0 0
0 0 0
0 0 0
0 0 0
0 0 0
0 0 0
128 128 128
0 0 0
0 0 0
0 0 0
0 0 0
0 0 0
0 0 0
0 0 0
0 0 0
0 0 0
0 0 0
0 0 0
0 0 0
0 0 0
0 0 0
0 0 0
0 0 0
0 0 0
0 0 0
0 0 0
0 0 0
0 0 0
0 0 0
0 0 0
0 0 0
0 0 0
0 0 0
0 0 0
0 0 0
0 0 0
0 0 0
0 0 0
0 0 0
0 0 0
0 0 0
0 0 0
0 0 0
0 0 0
0 0 0
0 0 0
0 0 0
0 0 0
0 0 0
0 0 0
0 0 0
0 0 0
0 0 0
0 0 0
0 0 0
0 0 0
0 0 0
128 128 128
128 128 128
128 128 128
128 128 128
128 128 128
0 0 0
128 128 128
128 128 128
128 128 128
128 128 128
0 0 0
0 0 0
0 0 0
0 0 0
0 0 0
0 0 0
128 128 128
0 0 0
0 0 0
128 128 128
128 128 128
128 128 128
128 128 128
128 128 128
0 0 0
128 128 128
0 0 0
128 128 128
128 128 128
128 128 128
0 0 0
0 0 0
0 0 0
128 128 128
128 128 128
0 0 0
0 0 0
0 0 0
0 0 0
0 0 0
0 0 0
0 0 0
0 0 0
0 0 0
0 0 0
0 0 0
128 128 128
128 128 128
0 0 0
0 0 0
0 0 0
128 128 128
0 0 0
0 0 0
0 0 0
0 0 0
0 0 0
0 0 0
0 0 0
0 0 0
0 0 0
0 0 0
0 0 0
0 0 0
0 0 0
0 0 0
0 0 0
0 0 0
0 0 0
0 0 0
0 0 0
0 0 0
0 0 0
0 0 0
0 0 0
0 0 0
0 0 0
0 0 0
0 0 0
0 0 0
0 0 0
0 0 0
0 0 0
0 0 0
0 0 0
0 0 0
0 0 0
0 0 0
0 0 0
0 0 0
0 0 0
0 0 0
0 0 0
0 0 0
0 0 0
0 0 0
0 0 0
0 0 0
0 0 0
0 0 0
0 0 0
0 0 0
0 0 0
0 0 0
0 0 0
0 0 0
0 0 0
0 0 0
0 0 0
0 0 0
0 0 0
0 0 0
0 0 0
0 0 0
0 0 0
0 0 0
0 0 0
0 0 0
0 0 0
0 0 0
0 0 0
0 0 0
0 0 0
0 0 0
0 0 0
0 0 0
0 0 0
0 0 0
0 0 0
0 0 0
0 0 0
0 0 0
0 0 0
0 0 0
0 0 0
0 0 0
0 0 0
0 0 0
0 0 0
0 0 0
0 0 0
0 0 0
0 0 0
0 0 0
0 0 0
0 0 0
0 0 0
0 0 0
0 0 0
0 0 0
0 0 0
0 0 0
0 0 0
0 0 0
128 128 128
128 128 128
128 128 128
128 128 128
128 128 128
0 0 0
128 128 128
128 128 128
128 128 128
0 0 0
0 0 0
0 0 0
0 0 0
0 0 0
0 0 0
0 0 0
128 128 128
0 0 0
0 0 0
128 128 128
128 128 128
128 128 128
128 128 128
0 0 0
0 0 0
0 0 0
0 0 0
128 128 128
128 128 128
128 128 128
0 0 0
0 0 0
128 128 128
128 128 128
128 128 128
0 0 0
0 0 0
0 0 0
0 0 0
0 0 0
0 0 0
0 0 0
0 0 0
0 0 0
0 0 0
0 0 0
128 128 128
128 128 128
128 128 128
0 0 0
0 0 0
128 128 128
0 0 0
0 0 0
0 0 0
0 0 0
0 0 0
0 0 0
128 128 128
0 0 0
0 0 0
0 0 0
0 0 0
0 0 0
0 0 0
0 0 0
0 0 0
0 0 0
0 0 0
0 0 0
0 0 0
0 0 0
0 0 0
0 0 0
0 0 0
0 0 0
0 0 0
0 0 0
0 0 0
0 0 0
0 0 0
0 0 0
0 0 0
0 0 0
0 0 0
0 0 0
0 0 0
0 0 0
0 0 0
0 0 0
0 0 0
0 0 0
0 0 0
0 0 0
0 0 0
0 0 0
0 0 0
0 0 0
0 0 0
0 0 0
0 0 0
0 0 0
0 0 0
0 0 0
0 0 0
0 0 0
0 0 0
0 0 0
0 0 0
0 0 0
0 0 0
0 0 0
0 0 0
0 0 0
0 0 0
0 0 0
0 0 0
0 0 0
0 0 0
0 0 0
0 0 0
0 0 0
0 0 0
0 0 0
0 0 0
0 0 0
0 0 0
0 0 0
0 0 0
0 0 0
0 0 0
0 0 0
0 0 0
0 0 0
0 0 0
0 0 0
0 0 0
0 0 0
0 0 0
0 0 0
0 0 0
0 0 0
0 0 0
0 0 0
0 0 0
0 0 0
0 0 0
0 0 0
0 0 0
0 0 0
0 0 0
0 0 0
0 0 0
0 0 0
128 128 128
128 128 128
128 128 128
128 128 128
128 128 128
128 128 128
128 128 128
128 128 128
128 128 128
128 128 128
0 0 0
0 0 0
0 0 0
0 0 0
0 0 0
0 0 0
128 128 128
0 0 0
0 0 0
128 128 128
128 128 128
128 128 128
128 128 128
0 0 0
0 0 0
0 0 0
0 0 0
128 128 128
128 128 128
0 0 0
0 0 0
0 0 0
128 128 128
128 128 128
128 128 128
0 0 0
0 0 0
0 0 0
0 0 0
0 0 0
0 0 0
0 0 0
0 0 0
0 0 0
0 0 0
0 0 0
128 128 128
128 128 128
0 0 0
0 0 0
0 0 0
128 128 128
0 0 0
0 0 0
0 0 0
0 0 0
0 0 0
0 0 0
128 128 128
0 0 0
128 128 128
0 0 0
0 0 0
128 128 128
0 0 0
0 0 0
0 0 0
128 128 128
0 0 0
0 0 0
128 128 128
0 0 0
0 0 0
0 0 0
0 0 0
0 0 0
0 0 0
0 0 0
0 0 0
0 0 0
0 0 0
0 0 0
0 0 0
0 0 0
0 0 0
0 0 0
0 0 0
0 0 0
0 0 0
0 0 0
0 0 0
0 0 0
0 0 0
0 0 0
0 0 0
0 0 0
0 0 0
0 0 0
0 0 0
0 0 0
0 0 0
0 0 0
0 0 0
0 0 0
0 0 0
0 0 0
0 0 0
0 0 0
0 0 0
0 0 0
0 0 0
0 0 0
0 0 0
0 0 0
0 0 0
0 0 0
0 0 0
0 0 0
0 0 0
0 0 0
0 0 0
0 0 0
0 0 0
0 0 0
0 0 0
0 0 0
0 0 0
0 0 0
0 0 0
0 0 0
0 0 0
0 0 0
0 0 0
0 0 0
0 0 0
0 0 0
0 0 0
0 0 0
0 0 0
0 0 0
0 0 0
0 0 0
0 0 0
0 0 0
0 0 0
0 0 0
0 0 0
0 0 0
0 0 0
0 0 0
0 0 0
0 0 0
0 0 0
0 0 0
0 0 0
128 128 128
128 128 128
128 128 128
128 128 128
0 0 0
0 0 0
0 0 0
128 128 128
0 0 0
0 0 0
0 0 0
0 0 0
0 0 0
0 0 0
0 0 0
0 0 0
0 0 0
0 0 0
128 128 128
128 128 128
128 128 128
0 0 0
0 0 0
0 0 0
0 0 0
0 0 0
0 0 0
0 0 0
0 0 0
0 0 0
128 128 128
128 128 128
0 0 0
0 0 0
0 0 0
0 0 0
0 0 0
0 0 0
0 0 0
0 0 0
0 0 0
0 0 0
0 0 0
0 0 0
128 128 128
128 128 128
128 128 128
128 128 128
0 0 0
0 0 0
128 128 128
128 128 128
0 0 0
0 0 0
0 0 0
0 0 0
128 128 128
0 0 0
0 0 0
0 0 0
0 0 0
0 0 0
0 0 0
0 0 0
128 128 128
0 0 0
128 128 128
0 0 0
128 128 128
0 0 0
128 128 128
0 0 0
0 0 0
0 0 0
0 0 0
0 0 0
0 0 0
0 0 0
0 0 0
0 0 0
0 0 0
0 0 0
0 0 0
0 0 0
0 0 0
0 0 0
0 0 0
0 0 0
0 0 0
0 0 0
0 0 0
0 0 0
0 0 0
0 0 0
0 0 0
0 0 0
0 0 0
0 0 0
0 0 0
0 0 0
0 0 0
0 0 0
0 0 0
0 0 0
0 0 0
0 0 0
0 0 0
128 128 128
0 0 0
0 0 0
0 0 0
0 0 0
0 0 0
0 0 0
0 0 0
0 0 0
0 0 0
0 0 0
0 0 0
0 0 0
0 0 0
0 0 0
0 0 0
0 0 0
0 0 0
0 0 0
0 0 0
0 0 0
0 0 0
0 0 0
0 0 0
0 0 0
0 0 0
0 0 0
0 0 0
0 0 0
0 0 0
0 0 0
0 0 0
0 0 0
0 0 0
0 0 0
0 0 0
0 0 0
0 0 0
0 0 0
0 0 0
0 0 0
0 0 0
0 0 0
0 0 0
0 0 0
0 0 0
0 0 0
0 0 0
0 0 0
0 0 0
0 0 0
0 0 0
0 0 0
0 0 0
0 0 0
0 0 0
0 0 0
0 0 0
0 0 0
0 0 0
0 0 0
0 0 0
0 0 0
0 0 0
0 0 0
128 128 128
128 128 128
0 0 0
0 0 0
0 0 0
0 0 0
0 0 0
0 0 0
0 0 0
128 128 128
128 128 128
0 0 0
128 128 128
0 0 0
0 0 0
0 0 0
0 0 0
0 0 0
0 0 0
0 0 0
0 0 0
0 0 0
0 0 0
0 0 0
0 0 0
0 0 0
128 128 128
128 128 128
128 128 128
128 128 128
0 0 0
128 128 128
0 0 0
0 0 0
0 0 0
0 0 0
0 0 0
0 0 0
128 128 128
0 0 0
0 0 0
128 128 128
0 0 0
0 0 0
0 0 0
0 0 0
0 0 0
0 0 0
128 128 128
0 0 0
0 0 0
0 0 0
128 128 128
0 0 0
0 0 0
0 0 0
0 0 0
0 0 0
0 0 0
0 0 0
0 0 0
0 0 0
0 0 0
0 0 0
0 0 0
0 0 0
0 0 0
0 0 0
0 0 0
0 0 0
0 0 0
0 0 0
0 0 0
0 0 0
0 0 0
0 0 0
0 0 0
0 0 0
0 0 0
0 0 0
0 0 0
0 0 0
0 0 0
0 0 0
0 0 0
0 0 0
0 0 0
0 0 0
0 0 0
128 128 128
128 128 128
0 0 0
0 0 0
0 0 0
0 0 0
0 0 0
0 0 0
0 0 0
0 0 0
0 0 0
0 0 0
0 0 0
0 0 0
0 0 0
0 0 0
0 0 0
0 0 0
0 0 0
0 0 0
0 0 0
0 0 0
0 0 0
0 0 0
0 0 0
0 0 0
0 0 0
0 0 0
0 0 0
0 0 0
0 0 0
0 0 0
0 0 0
0 0 0
0 0 0
0 0 0
0 0 0
0 0 0
0 0 0
0 0 0
0 0 0
0 0 0
0 0 0
0 0 0
0 0 0
0 0 0
0 0 0
0 0 0
0 0 0
0 0 0
0 0 0
0 0 0
0 0 0
0 0 0
0 0 0
0 0 0
0 0 0
0 0 0
0 0 0
0 0 0
0 0 0
0 0 0
0 0 0
128 128 128
0 0 0
0 0 0
0 0 0
0 0 0
0 0 0
0 0 0
0 0 0
0 0 0
128 128 128
128 128 128
128 128 128
0 0 0
0 0 0
128 128 128
0 0 0
0 0 0
0 0 0
0 0 0
0 0 0
0 0 0
0 0 0
0 0 0
0 0 0
0 0 0
0 0 0
0 0 0
0 0 0
128 128 128
128 128 128
128 128 128
0 0 0
0 0 0
128 128 128
128 128 128
0 0 0
0 0 0
0 0 0
0 0 0
0 0 0
128 128 128
0 0 0
0 0 0
0 0 0
0 0 0
0 0 0
0 0 0
0 0 0
0 0 0
0 0 0
0 0 0
0 0 0
0 0 0
128 128 128
0 0 0
0 0 0
0 0 0
0 0 0
0 0 0
0 0 0
0 0 0
0 0 0
0 0 0
0 0 0
0 0 0
0 0 0
0 0 0
0 0 0
0 0 0
0 0 0
0 0 0
0 0 0
0 0 0
0 0 0
0 0 0
0 0 0
0 0 0
0 0 0
0 0 0
0 0 0
0 0 0
0 0 0
0 0 0
0 0 0
0 0 0
0 0 0
0 0 0
128 128 128
0 0 0
0 0 0
0 0 0
128 128 128
128 128 128
0 0 0
0 0 0
0 0 0
0 0 0
0 0 0
0 0 0
0 0 0
0 0 0
0 0 0
0 0 0
0 0 0
0 0 0
0 0 0
0 0 0
0 0 0
0 0 0
0 0 0
0 0 0
0 0 0
0 0 0
0 0 0
0 0 0
0 0 0
0 0 0
0 0 0
0 0 0
0 0 0
0 0 0
0 0 0
0 0 0
0 0 0
0 0 0
0 0 0
0 0 0
0 0 0
0 0 0
0 0 0
0 0 0
0 0 0
0 0 0
0 0 0
0 0 0
0 0 0
0 0 0
0 0 0
0 0 0
0 0 0
0 0 0
0 0 0
0 0 0
0 0 0
0 0 0
0 0 0
0 0 0
0 0 0
0 0 0
0 0 0
0 0 0
0 0 0
0 0 0
0 0 0
0 0 0
0 0 0
0 0 0
0 0 0
0 0 0
0 0 0
0 0 0
0 0 0
0 0 0
0 0 0
0 0 0
0 0 0
0 0 0
0 0 0
0 0 0
0 0 0
0 0 0
0 0 0
0 0 0
0 0 0
0 0 0
0 0 0
0 0 0
0 0 0
0 0 0
0 0 0
0 0 0
0 0 0
128 128 128
128 128 128
128 128 128
0 0 0
128 128 128
128 128 128
128 128 128
128 128 128
0 0 0
0 0 0
0 0 0
0 0 0
0 0 0
0 0 0
0 0 0
0 0 0
0 0 0
0 0 0
0 0 0
0 0 0
0 0 0
0 0 0
0 0 0
0 0 0
128 128 128
0 0 0
0 0 0
0 0 0
0 0 0
0 0 0
0 0 0
0 0 0
0 0 0
0 0 0
0 0 0
0 0 0
0 0 0
0 0 0
0 0 0
0 0 0
0 0 0
0 0 0
0 0 0
0 0 0
0 0 0
0 0 0
0 0 0
0 0 0
0 0 0
0 0 0
0 0 0
0 0 0
0 0 0
0 0 0
0 0 0
0 0 0
0 0 0
0 0 0
0 0 0
128 128 128
0 0 0
0 0 0
0 0 0
128 128 128
128 128 128
0 0 0
0 0 0
0 0 0
0 0 0
0 0 0
0 0 0
0 0 0
0 0 0
0 0 0
0 0 0
0 0 0
0 0 0
0 0 0
0 0 0
0 0 0
0 0 0
0 0 0
0 0 0
0 0 0
0 0 0
0 0 0
0 0 0
0 0 0
0 0 0
0 0 0
0 0 0
0 0 0
0 0 0
0 0 0
0 0 0
0 0 0
0 0 0
0 0 0
0 0 0
0 0 0
0 0 0
0 0 0
0 0 0
0 0 0
0 0 0
0 0 0
0 0 0
0 0 0
0 0 0
0 0 0
0 0 0
0 0 0
0 0 0
0 0 0
0 0 0
0 0 0
0 0 0
0 0 0
0 0 0
0 0 0
0 0 0
0 0 0
0 0 0
0 0 0
0 0 0
0 0 0
0 0 0
0 0 0
0 0 0
0 0 0
0 0 0
0 0 0
0 0 0
0 0 0
0 0 0
0 0 0
0 0 0
0 0 0
0 0 0
0 0 0
0 0 0
0 0 0
0 0 0
0 0 0
0 0 0
0 0 0
0 0 0
0 0 0
0 0 0
0 0 0
0 0 0
0 0 0
0 0 0
0 0 0
128 128 128
128 128 128
0 0 0
0 0 0
128 128 128
128 128 128
128 128 128
128 128 128
0 0 0
0 0 0
0 0 0
0 0 0
0 0 0
0 0 0
0 0 0
0 0 0
0 0 0
0 0 0
0 0 0
0 0 0
0 0 0
0 0 0
0 0 0
128 128 128
0 0 0
0 0 0
0 0 0
0 0 0
0 0 0
0 0 0
0 0 0
0 0 0
0 0 0
0 0 0
0 0 0
0 0 0
0 0 0
0 0 0
0 0 0
0 0 0
0 0 0
0 0 0
0 0 0
0 0 0
0 0 0
0 0 0
0 0 0
0 0 0
0 0 0
0 0 0
0 0 0
0 0 0
0 0 0
0 0 0
0 0 0
0 0 0
0 0 0
0 0 0
0 0 0
128 128 128
0 0 0
0 0 0
0 0 0
0 0 0
128 128 128
0 0 0
0 0 0
0 0 0
0 0 0
0 0 0
0 0 0
0 0 0
0 0 0
0 0 0
0 0 0
0 0 0
0 0 0
0 0 0
0 0 0
0 0 0
0 0 0
0 0 0
0 0 0
0 0 0
0 0 0
0 0 0
0 0 0
0 0 0
0 0 0
0 0 0
0 0 0
0 0 0
0 0 0
0 0 0
0 0 0
0 0 0
0 0 0
0 0 0
0 0 0
0 0 0
0 0 0
0 0 0
0 0 0
0 0 0
0 0 0
0 0 0
0 0 0
0 0 0
0 0 0
0 0 0
0 0 0
0 0 0
0 0 0
0 0 0
0 0 0
0 0 0
0 0 0
0 0 0
0 0 0
0 0 0
0 0 0
0 0 0
0 0 0
0 0 0
0 0 0
0 0 0
0 0 0
0 0 0
0 0 0
0 0 0
0 0 0
0 0 0
0 0 0
0 0 0
0 0 0
0 0 0
0 0 0
0 0 0
0 0 0
0 0 0
0 0 0
0 0 0
0 0 0
0 0 0
0 0 0
0 0 0
0 0 0
0 0 0
0 0 0
0 0 0
0 0 0
0 0 0
0 0 0
0 0 0
0 0 0
128 128 128
0 0 0
0 0 0
0 0 0
0 0 0
0 0 0
0 0 0
0 0 0
0 0 0
0 0 0
0 0 0
0 0 0
0 0 0
128 128 128
0 0 0
0 0 0
0 0 0
0 0 0
0 0 0
0 0 0
0 0 0
0 0 0
128 128 128
0 0 0
0 0 0
0 0 0
0 0 0
0 0 0
0 0 0
0 0 0
0 0 0
0 0 0
0 0 0
0 0 0
0 0 0
0 0 0
0 0 0
0 0 0
0 0 0
0 0 0
0 0 0
0 0 0
0 0 0
0 0 0
0 0 0
0 0 0
0 0 0
0 0 0
0 0 0
0 0 0
0 0 0
0 0 0
0 0 0
0 0 0
0 0 0
0 0 0
0 0 0
0 0 0
128 128 128
0 0 0
0 0 0
0 0 0
0 0 0
128 128 128
0 0 0
0 0 0
0 0 0
0 0 0
0 0 0
0 0 0
0 0 0
0 0 0
0 0 0
0 0 0
0 0 0
0 0 0
0 0 0
0 0 0
0 0 0
0 0 0
0 0 0
0 0 0
0 0 0
0 0 0
0 0 0
0 0 0
0 0 0
0 0 0
0 0 0
0 0 0
0 0 0
0 0 0
0 0 0
0 0 0
0 0 0
0 0 0
0 0 0
0 0 0
0 0 0
0 0 0
0 0 0
0 0 0
0 0 0
0 0 0
0 0 0
0 0 0
0 0 0
0 0 0
0 0 0
0 0 0
0 0 0
0 0 0
0 0 0
0 0 0
0 0 0
0 0 0
0 0 0
0 0 0
0 0 0
0 0 0
0 0 0
0 0 0
0 0 0
0 0 0
0 0 0
0 0 0
0 0 0
0 0 0
0 0 0
0 0 0
0 0 0
0 0 0
0 0 0
0 0 0
0 0 0
0 0 0
0 0 0
0 0 0
0 0 0
0 0 0
0 0 0
0 0 0
0 0 0
0 0 0
0 0 0
0 0 0
0 0 0
0 0 0
0 0 0
0 0 0
0 0 0
0 0 0
0 0 0
0 0 0
0 0 0
0 0 0
0 0 0
0 0 0
0 0 0
0 0 0
0 0 0
0 0 0
0 0 0
0 0 0
0 0 0
0 0 0
0 0 0
0 0 0
0 0 0
0 0 0
0 0 0
0 0 0
0 0 0
0 0 0
0 0 0
128 128 128
128 128 128
0 0 0
0 0 0
0 0 0
0 0 0
0 0 0
0 0 0
0 0 0
0 0 0
0 0 0
0 0 0
0 0 0
0 0 0
0 0 0
0 0 0
0 0 0
0 0 0
0 0 0
0 0 0
0 0 0
0 0 0
0 0 0
0 0 0
0 0 0
0 0 0
0 0 0
0 0 0
0 0 0
0 0 0
0 0 0
0 0 0
0 0 0
0 0 0
0 0 0
0 0 0
0 0 0
128 128 128
0 0 0
0 0 0
0 0 0
0 0 0
128 128 128
0 0 0
0 0 0
0 0 0
0 0 0
0 0 0
0 0 0
0 0 0
0 0 0
0 0 0
0 0 0
0 0 0
0 0 0
0 0 0
0 0 0
0 0 0
0 0 0
0 0 0
0 0 0
0 0 0
0 0 0
0 0 0
0 0 0
0 0 0
0 0 0
0 0 0
0 0 0
0 0 0
0 0 0
0 0 0
0 0 0
0 0 0
0 0 0
0 0 0
0 0 0
0 0 0
0 0 0
0 0 0
0 0 0
0 0 0
0 0 0
0 0 0
0 0 0
0 0 0
0 0 0
0 0 0
0 0 0
0 0 0
0 0 0
0 0 0
0 0 0
0 0 0
0 0 0
0 0 0
0 0 0
0 0 0
0 0 0
0 0 0
0 0 0
0 0 0
0 0 0
0 0 0
0 0 0
0 0 0
0 0 0
0 0 0
0 0 0
0 0 0
0 0 0
0 0 0
0 0 0
0 0 0
0 0 0
0 0 0
0 0 0
0 0 0
0 0 0
0 0 0
0 0 0
0 0 0
0 0 0
0 0 0
0 0 0
0 0 0
0 0 0
0 0 0
0 0 0
0 0 0
0 0 0
0 0 0
0 0 0
0 0 0
0 0 0
0 0 0
0 0 0
0 0 0
0 0 0
0 0 0
0 0 0
0 0 0
0 0 0
0 0 0
0 0 0
0 0 0
0 0 0
0 0 0
0 0 0
0 0 0
0 0 0
0 0 0
0 0 0
0 0 0
0 0 0
0 0 0
128 128 128
128 128 128
128 128 128
128 128 128
128 128 128
128 128 128
0 0 0
128 128 128
128 128 128
128 128 128
0 0 0
0 0 0
0 0 0
0 0 0
0 0 0
0 0 0
0 0 0
0 0 0
0 0 0
0 0 0
0 0 0
0 0 0
0 0 0
0 0 0
0 0 0
0 0 0
0 0 0
0 0 0
0 0 0
0 0 0
0 0 0
0 0 0
128 128 128
0 0 0
0 0 0
128 128 128
0 0 0
0 0 0
0 0 0
0 0 0
128 128 128
0 0 0
0 0 0
0 0 0
0 0 0
0 0 0
0 0 0
0 0 0
0 0 0
0 0 0
0 0 0
0 0 0
0 0 0
0 0 0
0 0 0
0 0 0
0 0 0
0 0 0
0 0 0
0 0 0
0 0 0
0 0 0
0 0 0
0 0 0
0 0 0
0 0 0
0 0 0
0 0 0
0 0 0
0 0 0
0 0 0
0 0 0
0 0 0
0 0 0
0 0 0
0 0 0
0 0 0
0 0 0
0 0 0
0 0 0
0 0 0
0 0 0
0 0 0
0 0 0
0 0 0
0 0 0
0 0 0
0 0 0
0 0 0
0 0 0
0 0 0
0 0 0
0 0 0
0 0 0
0 0 0
0 0 0
0 0 0
0 0 0
0 0 0
0 0 0
0 0 0
0 0 0
0 0 0
0 0 0
0 0 0
0 0 0
128 128 128
0 0 0
0 0 0
0 0 0
0 0 0
0 0 0
0 0 0
0 0 0
0 0 0
0 0 0
0 0 0
0 0 0
0 0 0
0 0 0
0 0 0
0 0 0
0 0 0
0 0 0
0 0 0
0 0 0
0 0 0
0 0 0
0 0 0
0 0 0
0 0 0
0 0 0
0 0 0
0 0 0
0 0 0
0 0 0
0 0 0
0 0 0
0 0 0
0 0 0
0 0 0
0 0 0
0 0 0
0 0 0
0 0 0
0 0 0
0 0 0
0 0 0
0 0 0
0 0 0
0 0 0
0 0 0
0 0 0
0 0 0
0 0 0
0 0 0
128 128 128
128 128 128
128 128 128
0 0 0
0 0 0
128 128 128
0 0 0
0 0 0
0 0 0
0 0 0
0 0 0
0 0 0
0 0 0
0 0 0
0 0 0
0 0 0
0 0 0
0 0 0
0 0 0
0 0 0
0 0 0
0 0 0
0 0 0
0 0 0
0 0 0
0 0 0
0 0 0
0 0 0
0 0 0
128 128 128
128 128 128
0 0 0
0 0 0
128 128 128
0 0 0
0 0 0
0 0 0
0 0 0
128 128 128
0 0 0
0 0 0
0 0 0
0 0 0
0 0 0
0 0 0
0 0 0
0 0 0
0 0 0
0 0 0
0 0 0
0 0 0
0 0 0
0 0 0
0 0 0
0 0 0
0 0 0
0 0 0
0 0 0
0 0 0
0 0 0
0 0 0
0 0 0
0 0 0
0 0 0
0 0 0
0 0 0
0 0 0
0 0 0
0 0 0
0 0 0
0 0 0
0 0 0
0 0 0
0 0 0
0 0 0
0 0 0
0 0 0
0 0 0
0 0 0
0 0 0
0 0 0
0 0 0
0 0 0
0 0 0
0 0 0
0 0 0
0 0 0
0 0 0
0 0 0
0 0 0
0 0 0
0 0 0
0 0 0
0 0 0
0 0 0
0 0 0
0 0 0
0 0 0
0 0 0
0 0 0
0 0 0
0 0 0
0 0 0
0 0 0
0 0 0
0 0 0
0 0 0
0 0 0
0 0 0
0 0 0
0 0 0
0 0 0
0 0 0
0 0 0
0 0 0
0 0 0
0 0 0
0 0 0
0 0 0
0 0 0
0 0 0
0 0 0
0 0 0
0 0 0
0 0 0
0 0 0
0 0 0
0 0 0
0 0 0
0 0 0
0 0 0
0 0 0
0 0 0
0 0 0
0 0 0
0 0 0
0 0 0
0 0 0
0 0 0
0 0 0
0 0 0
0 0 0
0 0 0
128 128 128
0 0 0
0 0 0
0 0 0
0 0 0
0 0 0
0 0 0
0 0 0
0 0 0
0 0 0
0 0 0
0 0 0
128 128 128
0 0 0
0 0 0
128 128 128
0 0 0
0 0 0
0 0 0
0 0 0
0 0 0
0 0 0
0 0 0
0 0 0
0 0 0
0 0 0
0 0 0
0 0 0
0 0 0
0 0 0
0 0 0
0 0 0
0 0 0
0 0 0
0 0 0
0 0 0
0 0 0
0 0 0
0 0 0
0 0 0
128 128 128
128 128 128
0 0 0
0 0 0
0 0 0
0 0 0
0 0 0
0 0 0
0 0 0
128 128 128
0 0 0
0 0 0
0 0 0
0 0 0
0 0 0
0 0 0
0 0 0
0 0 0
0 0 0
0 0 0
0 0 0
0 0 0
0 0 0
0 0 0
0 0 0
0 0 0
0 0 0
0 0 0
0 0 0
0 0 0
0 0 0
0 0 0
0 0 0
0 0 0
0 0 0
0 0 0
0 0 0
0 0 0
0 0 0
0 0 0
0 0 0
0 0 0
0 0 0
0 0 0
0 0 0
0 0 0
0 0 0
0 0 0
0 0 0
0 0 0
0 0 0
0 0 0
0 0 0
0 0 0
0 0 0
0 0 0
0 0 0
0 0 0
0 0 0
0 0 0
0 0 0
0 0 0
0 0 0
0 0 0
0 0 0
0 0 0
0 0 0
0 0 0
0 0 0
0 0 0
0 0 0
0 0 0
0 0 0
0 0 0
128 128 128
0 0 0
0 0 0
0 0 0
0 0 0
0 0 0
0 0 0
0 0 0
0 0 0
0 0 0
0 0 0
0 0 0
0 0 0
0 0 0
0 0 0
0 0 0
0 0 0
0 0 0
0 0 0
0 0 0
0 0 0
0 0 0
0 0 0
0 0 0
0 0 0
0 0 0
0 0 0
0 0 0
0 0 0
0 0 0
0 0 0
0 0 0
0 0 0
0 0 0
0 0 0
0 0 0
0 0 0
0 0 0
0 0 0
0 0 0
0 0 0
128 128 128
0 0 0
0 0 0
0 0 0
0 0 0
0 0 0
0 0 0
0 0 0
0 0 0
0 0 0
0 0 0
0 0 0
0 0 0
128 128 128
128 128 128
0 0 0
0 0 0
0 0 0
0 0 0
128 128 128
0 0 0
0 0 0
128 128 128
0 0 0
0 0 0
0 0 0
0 0 0
0 0 0
0 0 0
0 0 0
0 0 0
0 0 0
0 0 0
0 0 0
0 0 0
0 0 0
0 0 0
0 0 0
0 0 0
128 128 128
128 128 128
0 0 0
0 0 0
128 128 128
0 0 0
0 0 0
0 0 0
0 0 0
128 128 128
0 0 0
0 0 0
0 0 0
0 0 0
0 0 0
0 0 0
0 0 0
0 0 0
0 0 0
0 0 0
0 0 0
0 0 0
0 0 0
0 0 0
0 0 0
0 0 0
0 0 0
0 0 0
0 0 0
0 0 0
0 0 0
0 0 0
0 0 0
0 0 0
0 0 0
0 0 0
0 0 0
0 0 0
0 0 0
0 0 0
0 0 0
0 0 0
0 0 0
0 0 0
0 0 0
0 0 0
0 0 0
0 0 0
0 0 0
0 0 0
0 0 0
0 0 0
0 0 0
0 0 0
0 0 0
0 0 0
0 0 0
0 0 0
0 0 0
0 0 0
0 0 0
0 0 0
0 0 0
0 0 0
0 0 0
0 0 0
0 0 0
0 0 0
0 0 0
0 0 0
0 0 0
0 0 0
0 0 0
0 0 0
0 0 0
0 0 0
0 0 0
0 0 0
0 0 0
0 0 0
0 0 0
0 0 0
0 0 0
0 0 0
0 0 0
0 0 0
0 0 0
0 0 0
0 0 0
0 0 0
0 0 0
0 0 0
0 0 0
0 0 0
0 0 0
0 0 0
0 0 0
0 0 0
0 0 0
0 0 0
0 0 0
0 0 0
0 0 0
0 0 0
0 0 0
0 0 0
0 0 0
0 0 0
0 0 0
0 0 0
0 0 0
0 0 0
0 0 0
0 0 0
0 0 0
128 128 128
0 0 0
0 0 0
0 0 0
0 0 0
0 0 0
0 0 0
0 0 0
0 0 0
0 0 0
0 0 0
0 0 0
0 0 0
0 0 0
0 0 0
0 0 0
0 0 0
0 0 0
0 0 0
0 0 0
0 0 0
0 0 0
0 0 0
0 0 0
0 0 0
0 0 0
0 0 0
0 0 0
0 0 0
0 0 0
0 0 0
0 0 0
0 0 0
0 0 0
0 0 0
0 0 0
0 0 0
0 0 0
0 0 0
128 128 128
128 128 128
0 0 0
0 0 0
0 0 0
0 0 0
0 0 0
0 0 0
0 0 0
128 128 128
0 0 0
0 0 0
0 0 0
0 0 0
0 0 0
0 0 0
0 0 0
0 0 0
0 0 0
0 0 0
0 0 0
0 0 0
0 0 0
0 0 0
0 0 0
0 0 0
0 0 0
0 0 0
0 0 0
0 0 0
0 0 0
0 0 0
0 0 0
0 0 0
0 0 0
0 0 0
0 0 0
0 0 0
0 0 0
0 0 0
0 0 0
0 0 0
0 0 0
0 0 0
0 0 0
0 0 0
0 0 0
0 0 0
0 0 0
0 0 0
0 0 0
0 0 0
0 0 0
0 0 0
0 0 0
0 0 0
0 0 0
0 0 0
0 0 0
0 0 0
0 0 0
0 0 0
0 0 0
0 0 0
0 0 0
0 0 0
0 0 0
0 0 0
0 0 0
0 0 0
0 0 0
0 0 0
0 0 0
0 0 0
128 128 128
0 0 0
0 0 0
0 0 0
0 0 0
0 0 0
0 0 0
0 0 0
0 0 0
0 0 0
0 0 0
0 0 0
0 0 0
0 0 0
0 0 0
0 0 0
0 0 0
0 0 0
0 0 0
0 0 0
0 0 0
0 0 0
0 0 0
0 0 0
0 0 0
0 0 0
0 0 0
0 0 0
0 0 0
0 0 0
0 0 0
0 0 0
0 0 0
0 0 0
0 0 0
0 0 0
0 0 0
0 0 0
0 0 0
0 0 0
0 0 0
0 0 0
128 128 128
0 0 0
0 0 0
0 0 0
0 0 0
0 0 0
0 0 0
0 0 0
0 0 0
0 0 0
0 0 0
0 0 0
0 0 0
0 0 0
0 0 0
0 0 0
0 0 0
0 0 0
0 0 0
0 0 0
0 0 0
0 0 0
0 0 0
0 0 0
0 0 0
0 0 0
0 0 0
0 0 0
0 0 0
0 0 0
0 0 0
0 0 0
0 0 0
0 0 0
0 0 0
0 0 0
0 0 0
0 0 0
128 128 128
128 128 128
0 0 0
0 0 0
128 128 128
0 0 0
0 0 0
0 0 0
0 0 0
128 128 128
0 0 0
0 0 0
0 0 0
0 0 0
0 0 0
0 0 0
0 0 0
0 0 0
0 0 0
0 0 0
0 0 0
0 0 0
0 0 0
0 0 0
0 0 0
0 0 0
0 0 0
0 0 0
0 0 0
0 0 0
0 0 0
0 0 0
0 0 0
0 0 0
0 0 0
0 0 0
0 0 0
0 0 0
0 0 0
0 0 0
0 0 0
0 0 0
0 0 0
0 0 0
0 0 0
0 0 0
0 0 0
0 0 0
0 0 0
0 0 0
128 128 128
128 128 128
128 128 128
128 128 128
128 128 128
128 128 128
128 128 128
128 128 128
0 0 0
128 128 128
128 128 128
128 128 128
0 0 0
0 0 0
0 0 0
0 0 0
0 0 0
0 0 0
0 0 0
0 0 0
0 0 0
0 0 0
0 0 0
0 0 0
0 0 0
128 128 128
0 0 0
0 0 0
0 0 0
0 0 0
0 0 0
0 0 0
0 0 0
0 0 0
0 0 0
0 0 0
0 0 0
0 0 0
0 0 0
0 0 0
0 0 0
0 0 0
0 0 0
0 0 0
0 0 0
0 0 0
0 0 0
0 0 0
0 0 0
0 0 0
0 0 0
0 0 0
0 0 0
0 0 0
0 0 0
0 0 0
0 0 0
0 0 0
0 0 0
0 0 0
0 0 0
0 0 0
0 0 0
0 0 0
0 0 0
0 0 0
128 128 128
0 0 0
0 0 0
0 0 0
0 0 0
0 0 0
0 0 0
0 0 0
0 0 0
0 0 0
0 0 0
0 0 0
0 0 0
0 0 0
0 0 0
0 0 0
0 0 0
0 0 0
0 0 0
0 0 0
0 0 0
0 0 0
0 0 0
0 0 0
0 0 0
0 0 0
0 0 0
0 0 0
0 0 0
0 0 0
0 0 0
0 0 0
0 0 0
0 0 0
0 0 0
0 0 0
0 0 0
0 0 0
128 128 128
128 128 128
0 0 0
0 0 0
128 128 128
0 0 0
0 0 0
0 0 0
0 0 0
128 128 128
0 0 0
0 0 0
0 0 0
0 0 0
0 0 0
0 0 0
0 0 0
0 0 0
128 128 128
0 0 0
0 0 0
0 0 0
0 0 0
0 0 0
128 128 128
128 128 128
0 0 0
0 0 0
0 0 0
0 0 0
0 0 0
0 0 0
0 0 0
0 0 0
0 0 0
0 0 0
0 0 0
0 0 0
0 0 0
0 0 0
0 0 0
0 0 0
0 0 0
0 0 0
0 0 0
0 0 0
128 128 128
128 128 128
0 0 0
0 0 0
0 0 0
0 0 0
128 128 128
0 0 0
0 0 0
0 0 0
128 128 128
0 0 0
0 0 0
0 0 0
0 0 0
128 128 128
0 0 0
0 0 0
0 0 0
0 0 0
0 0 0
0 0 0
128 128 128
0 0 0
0 0 0
0 0 0
0 0 0
0 0 0
0 0 0
0 0 0
0 0 0
0 0 0
0 0 0
0 0 0
0 0 0
0 0 0
0 0 0
0 0 0
0 0 0
0 0 0
0 0 0
0 0 0
0 0 0
0 0 0
0 0 0
0 0 0
0 0 0
0 0 0
0 0 0
0 0 0
0 0 0
0 0 0
0 0 0
0 0 0
0 0 0
0 0 0
0 0 0
0 0 0
0 0 0
0 0 0
0 0 0
0 0 0
0 0 0
0 0 0
0 0 0
0 0 0
0 0 0
0 0 0
0 0 0
0 0 0
0 0 0
128 128 128
128 128 128
0 0 0
0 0 0
0 0 0
0 0 0
0 0 0
0 0 0
0 0 0
0 0 0
0 0 0
0 0 0
0 0 0
0 0 0
0 0 0
0 0 0
0 0 0
0 0 0
0 0 0
0 0 0
0 0 0
0 0 0
0 0 0
0 0 0
0 0 0
0 0 0
0 0 0
0 0 0
0 0 0
0 0 0
0 0 0
0 0 0
0 0 0
0 0 0
0 0 0
0 0 0
0 0 0
0 0 0
128 128 128
0 0 0
0 0 0
128 128 128
0 0 0
0 0 0
0 0 0
0 0 0
128 128 128
0 0 0
0 0 0
0 0 0
0 0 0
0 0 0
0 0 0
0 0 0
0 0 0
0 0 0
0 0 0
0 0 0
0 0 0
0 0 0
0 0 0
0 0 0
0 0 0
0 0 0
0 0 0
0 0 0
0 0 0
0 0 0
0 0 0
0 0 0
0 0 0
128 128 128
0 0 0
0 0 0
0 0 0
0 0 0
0 0 0
0 0 0
128 128 128
0 0 0
0 0 0
0 0 0
128 128 128
128 128 128
128 128 128
0 0 0
0 0 0
0 0 0
0 0 0
128 128 128
128 128 128
0 0 0
0 0 0
0 0 0
0 0 0
0 0 0
0 0 0
0 0 0
0 0 0
0 0 0
0 0 0
0 0 0
0 0 0
128 128 128
128 128 128
128 128 128
0 0 0
0 0 0
0 0 0
0 0 0
0 0 0
0 0 0
0 0 0
0 0 0
0 0 0
0 0 0
0 0 0
0 0 0
0 0 0
0 0 0
0 0 0
0 0 0
0 0 0
0 0 0
0 0 0
0 0 0
0 0 0
0 0 0
0 0 0
0 0 0
0 0 0
0 0 0
0 0 0
0 0 0
0 0 0
0 0 0
0 0 0
0 0 0
0 0 0
0 0 0
0 0 0
0 0 0
0 0 0
0 0 0
0 0 0
0 0 0
0 0 0
0 0 0
0 0 0
0 0 0
0 0 0
0 0 0
0 0 0
0 0 0
0 0 0
0 0 0
0 0 0
0 0 0
0 0 0
0 0 0
0 0 0
0 0 0
0 0 0
0 0 0
0 0 0
0 0 0
0 0 0
0 0 0
0 0 0
0 0 0
0 0 0
0 0 0
0 0 0
0 0 0
0 0 0
0 0 0
0 0 0
0 0 0
0 0 0
0 0 0
0 0 0
0 0 0
0 0 0
0 0 0
0 0 0
0 0 0
0 0 0
0 0 0
0 0 0
0 0 0
0 0 0
0 0 0
128 128 128
0 0 0
0 0 0
128 128 128
0 0 0
0 0 0
0 0 0
0 0 0
128 128 128
128 128 128
0 0 0
0 0 0
0 0 0
0 0 0
0 0 0
0 0 0
0 0 0
0 0 0
128 128 128
0 0 0
0 0 0
0 0 0
0 0 0
0 0 0
0 0 0
0 0 0
0 0 0
0 0 0
0 0 0
0 0 0
0 0 0
0 0 0
128 128 128
0 0 0
128 128 128
128 128 128
128 128 128
0 0 0
0 0 0
0 0 0
0 0 0
0 0 0
0 0 0
0 0 0
0 0 0
128 128 128
0 0 0
0 0 0
0 0 0
0 0 0
128 128 128
128 128 128
0 0 0
0 0 0
128 128 128
0 0 0
0 0 0
0 0 0
0 0 0
0 0 0
0 0 0
0 0 0
0 0 0
128 128 128
128 128 128
0 0 0
128 128 128
0 0 0
0 0 0
0 0 0
0 0 0
0 0 0
128 128 128
0 0 0
0 0 0
0 0 0
0 0 0
0 0 0
0 0 0
0 0 0
0 0 0
0 0 0
0 0 0
0 0 0
0 0 0
0 0 0
0 0 0
0 0 0
0 0 0
0 0 0
0 0 0
0 0 0
0 0 0
0 0 0
0 0 0
0 0 0
0 0 0
0 0 0
0 0 0
0 0 0
0 0 0
0 0 0
0 0 0
0 0 0
0 0 0
0 0 0
0 0 0
0 0 0
0 0 0
0 0 0
0 0 0
0 0 0
0 0 0
0 0 0
0 0 0
0 0 0
0 0 0
0 0 0
0 0 0
0 0 0
0 0 0
0 0 0
0 0 0
0 0 0
0 0 0
0 0 0
0 0 0
0 0 0
0 0 0
0 0 0
0 0 0
0 0 0
0 0 0
0 0 0
0 0 0
0 0 0
0 0 0
0 0 0
0 0 0
0 0 0
0 0 0
0 0 0
0 0 0
0 0 0
0 0 0
0 0 0
0 0 0
0 0 0
0 0 0
0 0 0
0 0 0
0 0 0
0 0 0
0 0 0
128 128 128
0 0 0
0 0 0
128 128 128
0 0 0
0 0 0
0 0 0
0 0 0
128 128 128
128 128 128
0 0 0
0 0 0
0 0 0
0 0 0
0 0 0
128 128 128
128 128 128
128 128 128
128 128 128
0 0 0
0 0 0
0 0 0
0 0 0
0 0 0
0 0 0
0 0 0
128 128 128
128 128 128
128 128 128
0 0 0
0 0 0
0 0 0
0 0 0
0 0 0
0 0 0
0 0 0
0 0 0
0 0 0
0 0 0
0 0 0
0 0 0
0 0 0
128 128 128
0 0 0
0 0 0
0 0 0
0 0 0
0 0 0
0 0 0
0 0 0
0 0 0
0 0 0
0 0 0
0 0 0
0 0 0
0 0 0
0 0 0
0 0 0
0 0 0
0 0 0
0 0 0
0 0 0
0 0 0
0 0 0
0 0 0
0 0 0
128 128 128
0 0 0
0 0 0
0 0 0
0 0 0
0 0 0
128 128 128
0 0 0
0 0 0
0 0 0
0 0 0
0 0 0
0 0 0
0 0 0
0 0 0
0 0 0
0 0 0
0 0 0
0 0 0
0 0 0
0 0 0
0 0 0
0 0 0
0 0 0
0 0 0
0 0 0
0 0 0
0 0 0
0 0 0
0 0 0
0 0 0
0 0 0
0 0 0
0 0 0
0 0 0
0 0 0
0 0 0
0 0 0
0 0 0
0 0 0
0 0 0
0 0 0
0 0 0
0 0 0
0 0 0
0 0 0
0 0 0
0 0 0
0 0 0
0 0 0
0 0 0
0 0 0
0 0 0
0 0 0
0 0 0
0 0 0
0 0 0
0 0 0
0 0 0
0 0 0
0 0 0
0 0 0
0 0 0
0 0 0
0 0 0
0 0 0
0 0 0
0 0 0
0 0 0
0 0 0
0 0 0
0 0 0
0 0 0
0 0 0
0 0 0
0 0 0
0 0 0
0 0 0
0 0 0
0 0 0
0 0 0
0 0 0
0 0 0
0 0 0
0 0 0
0 0 0
0 0 0
0 0 0
128 128 128
128 128 128
0 0 0
128 128 128
0 0 0
0 0 0
0 0 0
0 0 0
0 0 0
0 0 0
0 0 0
0 0 0
0 0 0
0 0 0
0 0 0
0 0 0
0 0 0
0 0 0
0 0 0
0 0 0
128 128 128
128 128 128
0 0 0
0 0 0
0 0 0
0 0 0
0 0 0
0 0 0
0 0 0
0 0 0
0 0 0
0 0 0
0 0 0
0 0 0
0 0 0
0 0 0
0 0 0
0 0 0
0 0 0
0 0 0
0 0 0
0 0 0
0 0 0
0 0 0
0 0 0
0 0 0
0 0 0
0 0 0
0 0 0
0 0 0
0 0 0
0 0 0
0 0 0
0 0 0
0 0 0
0 0 0
0 0 0
0 0 0
0 0 0
0 0 0
0 0 0
0 0 0
0 0 0
0 0 0
0 0 0
0 0 0
128 128 128
0 0 0
0 0 0
0 0 0
0 0 0
0 0 0
0 0 0
128 128 128
0 0 0
0 0 0
0 0 0
0 0 0
0 0 0
0 0 0
0 0 0
0 0 0
0 0 0
0 0 0
0 0 0
0 0 0
0 0 0
0 0 0
0 0 0
0 0 0
0 0 0
0 0 0
0 0 0
0 0 0
0 0 0
0 0 0
0 0 0
0 0 0
0 0 0
0 0 0
0 0 0
0 0 0
0 0 0
0 0 0
0 0 0
0 0 0
0 0 0
0 0 0
0 0 0
0 0 0
0 0 0
0 0 0
0 0 0
0 0 0
0 0 0
0 0 0
0 0 0
0 0 0
0 0 0
0 0 0
0 0 0
0 0 0
0 0 0
0 0 0
0 0 0
0 0 0
0 0 0
0 0 0
0 0 0
0 0 0
0 0 0
0 0 0
0 0 0
0 0 0
0 0 0
0 0 0
0 0 0
0 0 0
0 0 0
0 0 0
0 0 0
0 0 0
0 0 0
0 0 0
0 0 0
0 0 0
0 0 0
0 0 0
0 0 0
0 0 0
0 0 0
0 0 0
0 0 0
0 0 0
128 128 128
0 0 0
0 0 0
128 128 128
0 0 0
0 0 0
0 0 0
0 0 0
0 0 0
0 0 0
0 0 0
0 0 0
0 0 0
0 0 0
0 0 0
0 0 0
0 0 0
128 128 128
0 0 0
0 0 0
0 0 0
128 128 128
0 0 0
0 0 0
128 128 128
0 0 0
0 0 0
128 128 128
128 128 128
128 128 128
128 128 128
128 128 128
128 128 128
0 0 0
0 0 0
0 0 0
0 0 0
0 0 0
0 0 0
0 0 0
128 128 128
128 128 128
128 128 128
128 128 128
0 0 0
0 0 0
0 0 0
0 0 0
0 0 0
0 0 0
0 0 0
0 0 0
0 0 0
0 0 0
0 0 0
0 0 0
0 0 0
0 0 0
0 0 0
0 0 0
0 0 0
0 0 0
0 0 0
0 0 0
0 0 0
128 128 128
0 0 0
0 0 0
0 0 0
0 0 0
0 0 0
0 0 0
0 0 0
128 128 128
0 0 0
0 0 0
0 0 0
0 0 0
0 0 0
0 0 0
0 0 0
0 0 0
128 128 128
0 0 0
0 0 0
0 0 0
0 0 0
0 0 0
0 0 0
0 0 0
0 0 0
0 0 0
0 0 0
0 0 0
0 0 0
0 0 0
0 0 0
0 0 0
0 0 0
0 0 0
0 0 0
0 0 0
0 0 0
0 0 0
0 0 0
0 0 0
0 0 0
0 0 0
0 0 0
0 0 0
0 0 0
0 0 0
0 0 0
0 0 0
0 0 0
0 0 0
0 0 0
0 0 0
0 0 0
0 0 0
0 0 0
0 0 0
0 0 0
0 0 0
0 0 0
0 0 0
0 0 0
0 0 0
0 0 0
0 0 0
0 0 0
0 0 0
0 0 0
0 0 0
0 0 0
0 0 0
0 0 0
0 0 0
0 0 0
0 0 0
0 0 0
0 0 0
0 0 0
0 0 0
0 0 0
0 0 0
0 0 0
0 0 0
0 0 0
0 0 0
0 0 0
0 0 0
0 0 0
0 0 0
128 128 128
0 0 0
0 0 0
128 128 128
0 0 0
0 0 0
0 0 0
0 0 0
0 0 0
0 0 0
0 0 0
0 0 0
0 0 0
0 0 0
0 0 0
0 0 0
128 128 128
0 0 0
0 0 0
0 0 0
128 128 128
128 128 128
0 0 0
0 0 0
128 128 128
128 128 128
128 128 128
128 128 128
0 0 0
0 0 0
0 0 0
0 0 0
0 0 0
0 0 0
0 0 0
0 0 0
0 0 0
0 0 0
0 0 0
0 0 0
0 0 0
0 0 0
0 0 0
0 0 0
0 0 0
0 0 0
0 0 0
0 0 0
0 0 0
0 0 0
0 0 0
0 0 0
0 0 0
0 0 0
0 0 0
0 0 0
0 0 0
0 0 0
0 0 0
0 0 0
0 0 0
128 128 128
128 128 128
0 0 0
0 0 0
0 0 0
0 0 0
0 0 0
128 128 128
0 0 0
0 0 0
128 128 128
128 128 128
128 128 128
128 128 128
128 128 128
0 0 0
0 0 0
128 128 128
0 0 0
0 0 0
0 0 0
128 128 128
128 128 128
0 0 0
0 0 0
0 0 0
0 0 0
0 0 0
0 0 0
0 0 0
0 0 0
0 0 0
128 128 128
0 0 0
0 0 0
0 0 0
0 0 0
0 0 0
0 0 0
0 0 0
0 0 0
0 0 0
0 0 0
0 0 0
0 0 0
0 0 0
0 0 0
0 0 0
0 0 0
0 0 0
0 0 0
0 0 0
0 0 0
0 0 0
0 0 0
0 0 0
0 0 0
0 0 0
0 0 0
0 0 0
0 0 0
0 0 0
0 0 0
0 0 0
0 0 0
0 0 0
0 0 0
0 0 0
0 0 0
0 0 0
0 0 0
0 0 0
0 0 0
0 0 0
0 0 0
0 0 0
0 0 0
0 0 0
0 0 0
0 0 0
0 0 0
0 0 0
0 0 0
0 0 0
0 0 0
0 0 0
0 0 0
0 0 0
0 0 0
0 0 0
0 0 0
0 0 0
0 0 0
128 128 128
0 0 0
0 0 0
128 128 128
0 0 0
0 0 0
0 0 0
0 0 0
0 0 0
0 0 0
0 0 0
0 0 0
128 128 128
0 0 0
0 0 0
0 0 0
128 128 128
128 128 128
0 0 0
0 0 0
0 0 0
0 0 0
0 0 0
0 0 0
128 128 128
128 128 128
128 128 128
128 128 128
128 128 128
0 0 0
0 0 0
0 0 0
0 0 0
0 0 0
0 0 0
0 0 0
0 0 0
0 0 0
0 0 0
0 0 0
128 128 128
128 128 128
0 0 0
0 0 0
0 0 0
0 0 0
0 0 0
0 0 0
0 0 0
0 0 0
128 128 128
128 128 128
0 0 0
128 128 128
128 128 128
0 0 0
0 0 0
0 0 0
0 0 0
0 0 0
128 128 128
128 128 128
128 128 128
0 0 0
0 0 0
0 0 0
0 0 0
0 0 0
128 128 128
0 0 0
0 0 0
128 128 128
128 128 128
128 128 128
128 128 128
128 128 128
128 128 128
128 128 128
128 128 128
128 128 128
0 0 0
0 0 0
128 128 128
128 128 128
0 0 0
0 0 0
0 0 0
0 0 0
0 0 0
0 0 0
0 0 0
0 0 0
128 128 128
0 0 0
0 0 0
0 0 0
128 128 128
128 128 128
0 0 0
0 0 0
0 0 0
0 0 0
0 0 0
0 0 0
0 0 0
0 0 0
0 0 0
0 0 0
0 0 0
0 0 0
0 0 0
0 0 0
0 0 0
0 0 0
0 0 0
0 0 0
0 0 0
0 0 0
0 0 0
0 0 0
0 0 0
0 0 0
0 0 0
0 0 0
0 0 0
0 0 0
0 0 0
0 0 0
0 0 0
0 0 0
0 0 0
0 0 0
0 0 0
0 0 0
0 0 0
0 0 0
0 0 0
0 0 0
0 0 0
0 0 0
0 0 0
0 0 0
0 0 0
0 0 0
0 0 0
0 0 0
0 0 0
0 0 0
0 0 0
0 0 0
0 0 0
0 0 0
0 0 0
0 0 0
0 0 0
0 0 0
0 0 0
128 128 128
0 0 0
0 0 0
0 0 0
0 0 0
0 0 0
0 0 0
0 0 0
0 0 0
0 0 0
0 0 0
0 0 0
0 0 0
0 0 0
0 0 0
0 0 0
0 0 0
128 128 128
0 0 0
0 0 0
0 0 0
0 0 0
0 0 0
0 0 0
0 0 0
0 0 0
0 0 0
0 0 0
0 0 0
0 0 0
0 0 0
0 0 0
0 0 0
0 0 0
0 0 0
128 128 128
128 128 128
0 0 0
0 0 0
0 0 0
0 0 0
0 0 0
0 0 0
0 0 0
0 0 0
128 128 128
128 128 128
128 128 128
128 128 128
128 128 128
128 128 128
128 128 128
0 0 0
0 0 0
0 0 0
0 0 0
0 0 0
0 0 0
128 128 128
0 0 0
0 0 0
0 0 0
0 0 0
0 0 0
0 0 0
0 0 0
128 128 128
128 128 128
0 0 0
128 128 128
128 128 128
128 128 128
128 128 128
128 128 128
128 128 128
128 128 128
128 128 128
128 128 128
128 128 128
128 128 128
128 128 128
0 0 0
0 0 0
0 0 0
0 0 0
0 0 0
128 128 128
0 0 0
128 128 128
0 0 0
0 0 0
0 0 0
0 0 0
128 128 128
128 128 128
128 128 128
128 128 128
0 0 0
0 0 0
0 0 0
128 128 128
0 0 0
0 0 0
0 0 0
0 0 0
0 0 0
0 0 0
0 0 0
0 0 0
0 0 0
0 0 0
0 0 0
0 0 0
0 0 0
0 0 0
0 0 0
0 0 0
0 0 0
0 0 0
0 0 0
0 0 0
0 0 0
0 0 0
0 0 0
0 0 0
0 0 0
0 0 0
0 0 0
0 0 0
0 0 0
0 0 0
0 0 0
0 0 0
0 0 0
0 0 0
0 0 0
0 0 0
0 0 0
0 0 0
0 0 0
0 0 0
0 0 0
0 0 0
0 0 0
0 0 0
0 0 0
0 0 0
0 0 0
0 0 0
0 0 0
0 0 0
0 0 0
0 0 0
0 0 0
128 128 128
0 0 0
0 0 0
0 0 0
0 0 0
0 0 0
0 0 0
0 0 0
0 0 0
128 128 128
128 128 128
0 0 0
0 0 0
0 0 0
0 0 0
0 0 0
0 0 0
128 128 128
0 0 0
0 0 0
0 0 0
0 0 0
0 0 0
0 0 0
0 0 0
0 0 0
0 0 0
0 0 0
0 0 0
0 0 0
0 0 0
0 0 0
0 0 0
0 0 0
128 128 128
128 128 128
128 128 128
0 0 0
0 0 0
0 0 0
0 0 0
0 0 0
128 128 128
128 128 128
128 128 128
128 128 128
128 128 128
0 0 0
0 0 0
0 0 0
0 0 0
0 0 0
0 0 0
0 0 0
0 0 0
0 0 0
0 0 0
0 0 0
0 0 0
0 0 0
0 0 0
0 0 0
0 0 0
0 0 0
128 128 128
128 128 128
128 128 128
128 128 128
128 128 128
128 128 128
128 128 128
128 128 128
128 128 128
128 128 128
128 128 128
128 128 128
128 128 128
0 0 0
0 0 0
0 0 0
0 0 0
128 128 128
0 0 0
0 0 0
0 0 0
128 128 128
128 128 128
128 128 128
0 0 0
0 0 0
128 128 128
0 0 0
0 0 0
128 128 128
128 128 128
128 128 128
128 128 128
0 0 0
0 0 0
128 128 128
128 128 128
128 128 128
128 128 128
128 128 128
0 0 0
0 0 0
0 0 0
0 0 0
0 0 0
0 0 0
0 0 0
0 0 0
0 0 0
0 0 0
0 0 0
0 0 0
0 0 0
0 0 0
0 0 0
0 0 0
0 0 0
0 0 0
0 0 0
0 0 0
0 0 0
0 0 0
0 0 0
0 0 0
0 0 0
0 0 0
0 0 0
0 0 0
0 0 0
0 0 0
0 0 0
0 0 0
0 0 0
0 0 0
0 0 0
0 0 0
0 0 0
0 0 0
0 0 0
0 0 0
0 0 0
0 0 0
0 0 0
0 0 0
0 0 0
0 0 0
0 0 0
0 0 0
0 0 0
0 0 0
128 128 128
0 0 0
0 0 0
0 0 0
0 0 0
0 0 0
0 0 0
0 0 0
0 0 0
0 0 0
0 0 0
0 0 0
128 128 128
0 0 0
0 0 0
0 0 0
0 0 0
128 128 128
128 128 128
128 128 128
128 128 128
128 128 128
128 128 128
0 0 0
0 0 0
128 128 128
128 128 128
128 128 128
128 128 128
128 128 128
128 128 128
128 128 128
128 128 128
128 128 128
128 128 128
128 128 128
128 128 128
128 128 128
128 128 128
128 128 128
128 128 128
128 128 128
128 128 128
128 128 128
128 128 128
128 128 128
0 0 0
0 0 0
0 0 0
0 0 0
0 0 0
0 0 0
0 0 0
128 128 128
128 128 128
0 0 0
0 0 0
0 0 0
0 0 0
0 0 0
0 0 0
0 0 0
0 0 0
128 128 128
128 128 128
128 128 128
128 128 128
128 128 128
128 128 128
128 128 128
128 128 128
128 128 128
128 128 128
128 128 128
128 128 128
128 128 128
128 128 128
128 128 128
128 128 128
128 128 128
128 128 128
128 128 128
0 0 0
0 0 0
128 128 128
0 0 0
128 128 128
0 0 0
0 0 0
128 128 128
128 128 128
0 0 0
0 0 0
128 128 128
128 128 128
128 128 128
128 128 128
128 128 128
128 128 128
128 128 128
128 128 128
128 128 128
128 128 128
128 128 128
128 128 128
0 0 0
0 0 0
0 0 0
0 0 0
0 0 0
0 0 0
0 0 0
0 0 0
0 0 0
0 0 0
0 0 0
0 0 0
0 0 0
0 0 0
0 0 0
0 0 0
0 0 0
0 0 0
0 0 0
0 0 0
0 0 0
0 0 0
0 0 0
0 0 0
0 0 0
0 0 0
0 0 0
0 0 0
0 0 0
0 0 0
0 0 0
0 0 0
0 0 0
0 0 0
0 0 0
0 0 0
0 0 0
0 0 0
0 0 0
0 0 0
0 0 0
0 0 0
0 0 0
0 0 0
0 0 0
0 0 0
0 0 0
0 0 0
0 0 0
128 128 128
0 0 0
0 0 0
0 0 0
0 0 0
0 0 0
0 0 0
0 0 0
0 0 0
0 0 0
128 128 128
128 128 128
128 128 128
128 128 128
128 128 128
128 128 128
128 128 128
128 128 128
128 128 128
128 128 128
128 128 128
128 128 128
128 128 128
128 128 128
128 128 128
128 128 128
128 128 128
128 128 128
128 128 128
128 128 128
128 128 128
128 128 128
128 128 128
128 128 128
128 128 128
128 128 128
128 128 128
128 128 128
128 128 128
128 128 128
128 128 128
128 128 128
128 128 128
128 128 128
128 128 128
128 128 128
0 0 0
0 0 0
0 0 0
128 128 128
128 128 128
128 128 128
128 128 128
128 128 128
128 128 128
0 0 0
0 0 0
0 0 0
0 0 0
0 0 0
0 0 0
128 128 128
128 128 128
128 128 128
128 128 128
128 128 128
128 128 128
128 128 128
128 128 128
128 128 128
128 128 128
128 128 128
128 128 128
128 128 128
128 128 128
128 128 128
128 128 128
128 128 128
128 128 128
128 128 128
128 128 128
128 128 128
0 0 0
0 0 0
128 128 128
0 0 0
128 128 128
0 0 0
128 128 128
128 128 128
0 0 0
0 0 0
128 128 128
128 128 128
128 128 128
128 128 128
128 128 128
128 128 128
128 128 128
128 128 128
128 128 128
128 128 128
128 128 128
128 128 128
128 128 128
128 128 128
128 128 128
128 128 128
128 128 128
0 0 0
0 0 0
0 0 0
0 0 0
0 0 0
0 0 0
0 0 0
0 0 0
0 0 0
0 0 0
0 0 0
0 0 0
0 0 0
0 0 0
0 0 0
0 0 0
0 0 0
0 0 0
0 0 0
128 128 128
128 128 128
0 0 0
128 128 128
128 128 128
128 128 128
128 128 128
128 128 128
128 128 128
128 128 128
128 128 128
128 128 128
128 128 128
0 0 0
128 128 128
128 128 128
128 128 128
128 128 128
128 128 128
128 128 128
128 128 128
0 0 0
0 0 0
128 128 128
0 0 0
0 0 0
128 128 128
0 0 0
128 128 128
128 128 128
128 128 128
0 0 0
0 0 0
0 0 0
0 0 0
0 0 0
128 128 128
128 128 128
128 128 128
128 128 128
128 128 128
128 128 128
128 128 128
128 128 128
128 128 128
128 128 128
128 128 128
128 128 128
128 128 128
128 128 128
128 128 128
128 128 128
128 128 128
128 128 128
128 128 128
128 128 128
128 128 128
128 128 128
128 128 128
128 128 128
128 128 128
128 128 128
128 128 128
128 128 128
128 128 128
128 128 128
128 128 128
128 128 128
128 128 128
128 128 128
128 128 128
0 0 0
0 0 0
0 0 0
0 0 0
128 128 128
128 128 128
128 128 128
128 128 128
128 128 128
0 0 0
0 0 0
0 0 0
0 0 0
0 0 0
128 128 128
128 128 128
128 128 128
128 128 128
128 128 128
128 128 128
128 128 128
128 128 128
128 128 128
128 128 128
128 128 128
128 128 128
128 128 128
128 128 128
128 128 128
128 128 128
128 128 128
128 128 128
128 128 128
128 128 128
128 128 128
128 128 128
128 128 128
0 0 0
128 128 128
128 128 128
128 128 128
0 0 0
0 0 0
128 128 128
128 128 128
0 0 0
0 0 0
128 128 128
128 128 128
128 128 128
128 128 128
128 128 128
128 128 128
128 128 128
128 128 128
128 128 128
128 128 128
128 128 128
128 128 128
128 128 128
128 128 128
128 128 128
0 0 0
0 0 0
0 0 0
0 0 0
0 0 0
0 0 0
0 0 0
0 0 0
0 0 0
0 0 0
0 0 0
0 0 0
0 0 0
0 0 0
0 0 0
0 0 0
0 0 0
0 0 0
0 0 0
0 0 0
0 0 0
128 128 128
128 128 128
0 0 0
128 128 128
128 128 128
128 128 128
128 128 128
128 128 128
128 128 128
128 128 128
128 128 128
128 128 128
128 128 128
0 0 0
128 128 128
128 128 128
128 128 128
128 128 128
128 128 128
128 128 128
128 128 128
0 0 0
0 0 0
0 0 0
0 0 0
128 128 128
128 128 128
128 128 128
128 128 128
128 128 128
128 128 128
0 0 0
0 0 0
128 128 128
128 128 128
128 128 128
128 128 128
128 128 128
128 128 128
128 128 128
128 128 128
128 128 128
128 128 128
128 128 128
128 128 128
128 128 128
128 128 128
128 128 128
128 128 128
128 128 128
128 128 128
128 128 128
128 128 128
128 128 128
128 128 128
128 128 128
128 128 128
128 128 128
128 128 128
128 128 128
128 128 128
128 128 128
128 128 128
128 128 128
128 128 128
128 128 128
128 128 128
128 128 128
128 128 128
128 128 128
128 128 128
0 0 0
0 0 0
0 0 0
128 128 128
128 128 128
128 128 128
128 128 128
128 128 128
0 0 0
0 0 0
0 0 0
0 0 0
0 0 0
128 128 128
128 128 128
128 128 128
128 128 128
128 128 128
128 128 128
128 128 128
128 128 128
128 128 128
128 128 128
128 128 128
128 128 128
128 128 128
128 128 128
128 128 128
128 128 128
128 128 128
128 128 128
128 128 128
128 128 128
128 128 128
128 128 128
128 128 128
128 128 128
128 128 128
128 128 128
128 128 128
0 0 0
0 0 0
0 0 0
128 128 128
128 128 128
0 0 0
0 0 0
128 128 128
128 128 128
128 128 128
128 128 128
128 128 128
128 128 128
128 128 128
128 128 128
128 128 128
128 128 128
128 128 128
128 128 128
128 128 128
128 128 128
0 0 0
128 128 128
128 128 128
128 128 128
128 128 128
0 0 0
0 0 0
0 0 0
0 0 0
0 0 0
0 0 0
0 0 0
0 0 0
0 0 0
0 0 0
0 0 0
0 0 0
0 0 0
0 0 0
0 0 0
0 0 0
128 128 128
128 128 128
128 128 128
0 0 0
0 0 0
128 128 128
128 128 128
128 128 128
128 128 128
128 128 128
128 128 128
128 128 128
128 128 128
0 0 0
0 0 0
0 0 0
128 128 128
0 0 0
0 0 0
128 128 128
128 128 128
128 128 128
0 0 0
0 0 0
0 0 0
0 0 0
128 128 128
128 128 128
128 128 128
128 128 128
128 128 128
128 128 128
0 0 0
0 0 0
128 128 128
128 128 128
128 128 128
128 128 128
128 128 128
128 128 128
128 128 128
128 128 128
128 128 128
128 128 128
128 128 128
128 128 128
128 128 128
128 128 128
128 128 128
128 128 128
128 128 128
128 128 128
128 128 128
128 128 128
128 128 128
128 128 128
128 128 128
128 128 128
128 128 128
128 128 128
128 128 128
128 128 128
128 128 128
128 128 128
128 128 128
128 128 128
128 128 128
128 128 128
128 128 128
128 128 128
128 128 128
128 128 128
0 0 0
0 0 0
0 0 0
0 0 0
128 128 128
128 128 128
128 128 128
128 128 128
0 0 0
0 0 0
0 0 0
0 0 0
0 0 0
128 128 128
128 128 128
128 128 128
128 128 128
128 128 128
128 128 128
128 128 128
128 128 128
128 128 128
128 128 128
128 128 128
128 128 128
128 128 128
128 128 128
128 128 128
128 128 128
128 128 128
128 128 128
128 128 128
128 128 128
128 128 128
128 128 128
128 128 128
128 128 128
128 128 128
0 0 0
0 0 0
0 0 0
0 0 0
128 128 128
128 128 128
0 0 0
0 0 0
0 0 0
128 128 128
128 128 128
128 128 128
128 128 128
128 128 128
128 128 128
128 128 128
128 128 128
128 128 128
128 128 128
128 128 128
128 128 128
128 128 128
128 128 128
128 128 128
128 128 128
128 128 128
128 128 128
128 128 128
0 0 0
0 0 0
0 0 0
0 0 0
0 0 0
0 0 0
0 0 0
0 0 0
0 0 0
0 0 0
0 0 0
0 0 0
0 0 0
0 0 0
0 0 0
0 0 0
128 128 128
0 0 0
0 0 0
0 0 0
0 0 0
0 0 0
0 0 0
0 0 0
128 128 128
128 128 128
128 128 128
128 128 128
0 0 0
0 0 0
0 0 0
0 0 0
0 0 0
0 0 0
0 0 0
0 0 0
0 0 0
0 0 0
0 0 0
0 0 0
0 0 0
0 0 0
0 0 0
128 128 128
128 128 128
128 128 128
128 128 128
128 128 128
0 0 0
0 0 0
128 128 128
128 128 128
128 128 128
128 128 128
128 128 128
128 128 128
128 128 128
128 128 128
128 128 128
128 128 128
128 128 128
128 128 128
128 128 128
128 128 128
128 128 128
128 128 128
128 128 128
128 128 128
128 128 128
128 128 128
128 128 128
128 128 128
128 128 128
128 128 128
128 128 128
128 128 128
128 128 128
128 128 128
128 128 128
128 128 128
128 128 128
128 128 128
128 128 128
128 128 128
128 128 128
128 128 128
128 128 128
128 128 128
0 0 0
0 0 0
0 0 0
0 0 0
128 128 128
128 128 128
0 0 0
0 0 0
0 0 0
0 0 0
0 0 0
0 0 0
0 0 0
128 128 128
128 128 128
128 128 128
128 128 128
128 128 128
128 128 128
128 128 128
128 128 128
128 128 128
128 128 128
128 128 128
128 128 128
128 128 128
128 128 128
128 128 128
128 128 128
128 128 128
128 128 128
128 128 128
128 128 128
128 128 128
128 128 128
128 128 128
128 128 128
128 128 128
128 128 128
0 0 0
0 0 0
0 0 0
0 0 0
128 128 128
0 0 0
0 0 0
0 0 0
128 128 128
128 128 128
128 128 128
128 128 128
128 128 128
128 128 128
128 128 128
128 128 128
128 128 128
128 128 128
128 128 128
128 128 128
128 128 128
128 128 128
128 128 128
128 128 128
128 128 128
128 128 128
128 128 128
128 128 128
0 0 0
0 0 0
0 0 0
0 0 0
0 0 0
0 0 0
0 0 0
0 0 0
0 0 0
0 0 0
0 0 0
0 0 0
0 0 0
128 128 128
128 128 128
128 128 128
128 128 128
0 0 0
0 0 0
128 128 128
128 128 128
0 0 0
0 0 0
0 0 0
0 0 0
0 0 0
0 0 0
0 0 0
0 0 0
0 0 0
0 0 0
0 0 0
0 0 0
0 0 0
0 0 0
0 0 0
0 0 0
0 0 0
0 0 0
0 0 0
0 0 0
0 0 0
128 128 128
128 128 128
128 128 128
128 128 128
128 128 128
0 0 0
0 0 0
128 128 128
128 128 128
128 128 128
128 128 128
128 128 128
128 128 128
128 128 128
128 128 128
128 128 128
128 128 128
128 128 128
128 128 128
128 128 128
128 128 128
128 128 128
128 128 128
128 128 128
128 128 128
128 128 128
128 128 128
128 128 128
128 128 128
128 128 128
128 128 128
128 128 128
128 128 128
128 128 128
128 128 128
128 128 128
128 128 128
128 128 128
128 128 128
128 128 128
128 128 128
128 128 128
128 128 128
128 128 128
128 128 128
128 128 128
0 0 0
0 0 0
0 0 0
0 0 0
0 0 0
0 0 0
0 0 0
0 0 0
0 0 0
0 0 0
0 0 0
0 0 0
0 0 0
128 128 128
128 128 128
128 128 128
128 128 128
128 128 128
128 128 128
128 128 128
128 128 128
128 128 128
128 128 128
128 128 128
128 128 128
128 128 128
128 128 128
128 128 128
128 128 128
128 128 128
128 128 128
128 128 128
128 128 128
128 128 128
128 128 128
0 0 0
0 0 0
128 128 128
0 0 0
0 0 0
0 0 0
128 128 128
0 0 0
0 0 0
0 0 0
128 128 128
128 128 128
128 128 128
128 128 128
128 128 128
128 128 128
128 128 128
128 128 128
128 128 128
128 128 128
128 128 128
128 128 128
0 0 0
128 128 128
0 0 0
0 0 0
0 0 0
0 0 0
0 0 0
0 0 0
0 0 0
0 0 0
0 0 0
0 0 0
0 0 0
0 0 0
0 0 0
0 0 0
0 0 0
0 0 0
128 128 128
128 128 128
128 128 128
128 128 128
128 128 128
128 128 128
0 0 0
0 0 0
0 0 0
0 0 0
0 0 0
0 0 0
0 0 0
0 0 0
0 0 0
0 0 0
0 0 0
0 0 0
0 0 0
0 0 0
0 0 0
0 0 0
0 0 0
0 0 0
0 0 0
0 0 0
0 0 0
0 0 0
0 0 0
0 0 0
0 0 0
0 0 0
0 0 0
128 128 128
128 128 128
0 0 0
0 0 0
128 128 128
0 0 0
0 0 0
128 128 128
128 128 128
128 128 128
128 128 128
128 128 128
128 128 128
128 128 128
128 128 128
128 128 128
128 128 128
128 128 128
128 128 128
128 128 128
128 128 128
128 128 128
128 128 128
128 128 128
128 128 128
128 128 128
128 128 128
128 128 128
128 128 128
128 128 128
128 128 128
128 128 128
128 128 128
128 128 128
128 128 128
128 128 128
128 128 128
128 128 128
128 128 128
128 128 128
0 0 0
128 128 128
128 128 128
128 128 128
128 128 128
128 128 128
0 0 0
0 0 0
0 0 0
0 0 0
0 0 0
0 0 0
0 0 0
0 0 0
0 0 0
0 0 0
0 0 0
128 128 128
128 128 128
128 128 128
128 128 128
128 128 128
128 128 128
128 128 128
128 128 128
128 128 128
128 128 128
128 128 128
128 128 128
128 128 128
128 128 128
128 128 128
128 128 128
128 128 128
128 128 128
128 128 128
128 128 128
128 128 128
128 128 128
128 128 128
0 0 0
0 0 0
0 0 0
0 0 0
0 0 0
0 0 0
128 128 128
0 0 0
0 0 0
0 0 0
128 128 128
128 128 128
128 128 128
128 128 128
128 128 128
128 128 128
128 128 128
128 128 128
128 128 128
0 0 0
0 0 0
0 0 0
0 0 0
0 0 0
0 0 0
0 0 0
0 0 0
0 0 0
128 128 128
128 128 128
128 128 128
128 128 128
128 128 128
0 0 0
0 0 0
0 0 0
0 0 0
0 0 0
0 0 0
0 0 0
0 0 0
0 0 0
0 0 0
128 128 128
0 0 0
0 0 0
0 0 0
0 0 0
0 0 0
0 0 0
0 0 0
0 0 0
0 0 0
0 0 0
0 0 0
0 0 0
0 0 0
0 0 0
0 0 0
0 0 0
0 0 0
0 0 0
0 0 0
0 0 0
0 0 0
0 0 0
0 0 0
0 0 0
0 0 0
0 0 0
0 0 0
0 0 0
0 0 0
0 0 0
128 128 128
0 0 0
0 0 0
0 0 0
0 0 0
0 0 0
0 0 0
128 128 128
128 128 128
128 128 128
128 128 128
128 128 128
128 128 128
128 128 128
128 128 128
128 128 128
128 128 128
128 128 128
128 128 128
128 128 128
128 128 128
128 128 128
128 128 128
128 128 128
128 128 128
128 128 128
128 128 128
128 128 128
128 128 128
128 128 128
128 128 128
128 128 128
128 128 128
128 128 128
128 128 128
128 128 128
128 128 128
128 128 128
128 128 128
128 128 128
0 0 0
128 128 128
128 128 128
128 128 128
128 128 128
0 0 0
0 0 0
0 0 0
0 0 0
0 0 0
0 0 0
0 0 0
0 0 0
0 0 0
0 0 0
128 128 128
128 128 128
128 128 128
0 0 0
128 128 128
128 128 128
128 128 128
128 128 128
128 128 128
128 128 128
128 128 128
128 128 128
128 128 128
128 128 128
128 128 128
128 128 128
128 128 128
128 128 128
128 128 128
128 128 128
128 128 128
128 128 128
128 128 128
128 128 128
0 0 0
0 0 0
0 0 0
0 0 0
0 0 0
0 0 0
0 0 0
128 128 128
0 0 0
0 0 0
0 0 0
128 128 128
128 128 128
128 128 128
128 128 128
0 0 0
0 0 0
128 128 128
128 128 128
0 0 0
0 0 0
0 0 0
0 0 0
0 0 0
0 0 0
0 0 0
0 0 0
0 0 0
0 0 0
0 0 0
0 0 0
0 0 0
0 0 0
0 0 0
0 0 0
0 0 0
0 0 0
0 0 0
0 0 0
0 0 0
0 0 0
0 0 0
0 0 0
128 128 128
128 128 128
0 0 0
0 0 0
0 0 0
0 0 0
0 0 0
0 0 0
0 0 0
0 0 0
0 0 0
0 0 0
0 0 0
0 0 0
0 0 0
0 0 0
0 0 0
0 0 0
0 0 0
0 0 0
0 0 0
0 0 0
0 0 0
0 0 0
0 0 0
0 0 0
0 0 0
0 0 0
0 0 0
0 0 0
0 0 0
0 0 0
128 128 128
0 0 0
0 0 0
0 0 0
0 0 0
0 0 0
0 0 0
128 128 128
128 128 128
128 128 128
128 128 128
128 128 128
128 128 128
128 128 128
128 128 128
128 128 128
128 128 128
128 128 128
128 128 128
128 128 128
128 128 128
128 128 128
128 128 128
128 128 128
128 128 128
128 128 128
128 128 128
128 128 128
128 128 128
128 128 128
128 128 128
128 128 128
128 128 128
128 128 128
128 128 128
128 128 128
128 128 128
128 128 128
128 128 128
128 128 128
0 0 0
128 128 128
128 128 128
128 128 128
0 0 0
0 0 0
0 0 0
0 0 0
0 0 0
0 0 0
0 0 0
0 0 0
0 0 0
128 128 128
128 128 128
128 128 128
128 128 128
0 0 0
0 0 0
128 128 128
128 128 128
128 128 128
128 128 128
128 128 128
128 128 128
128 128 128
128 128 128
128 128 128
128 128 128
128 128 128
128 128 128
128 128 128
128 128 128
128 128 128
128 128 128
128 128 128
128 128 128
128 128 128
128 128 128
0 0 0
0 0 0
0 0 0
0 0 0
0 0 0
0 0 0
128 128 128
0 0 0
0 0 0
0 0 0
128 128 128
128 128 128
0 0 0
0 0 0
0 0 0
0 0 0
0 0 0
0 0 0
0 0 0
0 0 0
0 0 0
0 0 0
0 0 0
0 0 0
0 0 0
0 0 0
0 0 0
0 0 0
0 0 0
0 0 0
0 0 0
0 0 0
0 0 0
0 0 0
0 0 0
0 0 0
0 0 0
0 0 0
0 0 0
0 0 0
0 0 0
0 0 0
0 0 0
0 0 0
0 0 0
0 0 0
0 0 0
0 0 0
0 0 0
0 0 0
0 0 0
0 0 0
0 0 0
0 0 0
0 0 0
0 0 0
0 0 0
0 0 0
0 0 0
0 0 0
0 0 0
0 0 0
0 0 0
0 0 0
0 0 0
0 0 0
0 0 0
0 0 0
0 0 0
0 0 0
0 0 0
0 0 0
0 0 0
0 0 0
0 0 0
128 128 128
128 128 128
0 0 0
0 0 0
0 0 0
0 0 0
0 0 0
128 128 128
128 128 128
128 128 128
128 128 128
128 128 128
128 128 128
128 128 128
128 128 128
128 128 128
128 128 128
128 128 128
128 128 128
128 128 128
128 128 128
128 128 128
128 128 128
128 128 128
128 128 128
128 128 128
128 128 128
128 128 128
128 128 128
128 128 128
128 128 128
128 128 128
128 128 128
128 128 128
128 128 128
128 128 128
128 128 128
128 128 128
128 128 128
128 128 128
0 0 0
128 128 128
128 128 128
128 128 128
0 0 0
0 0 0
0 0 0
0 0 0
0 0 0
0 0 0
0 0 0
0 0 0
128 128 128
128 128 128
128 128 128
128 128 128
128 128 128
128 128 128
128 128 128
128 128 128
128 128 128
128 128 128
128 128 128
128 128 128
128 128 128
128 128 128
128 128 128
128 128 128
128 128 128
128 128 128
128 128 128
128 128 128
128 128 128
128 128 128
128 128 128
128 128 128
0 0 0
0 0 0
0 0 0
0 0 0
0 0 0
0 0 0
0 0 0
0 0 0
0 0 0
0 0 0
0 0 0
0 0 0
0 0 0
128 128 128
0 0 0
0 0 0
0 0 0
0 0 0
0 0 0
0 0 0
0 0 0
0 0 0
0 0 0
0 0 0
0 0 0
0 0 0
0 0 0
0 0 0
0 0 0
0 0 0
0 0 0
0 0 0
0 0 0
0 0 0
0 0 0
0 0 0
0 0 0
0 0 0
0 0 0
0 0 0
0 0 0
0 0 0
0 0 0
0 0 0
0 0 0
0 0 0
0 0 0
0 0 0
0 0 0
0 0 0
0 0 0
0 0 0
0 0 0
0 0 0
0 0 0
0 0 0
0 0 0
0 0 0
0 0 0
0 0 0
0 0 0
0 0 0
0 0 0
0 0 0
0 0 0
0 0 0
0 0 0
0 0 0
0 0 0
0 0 0
0 0 0
0 0 0
0 0 0
0 0 0
0 0 0
0 0 0
0 0 0
0 0 0
128 128 128
128 128 128
0 0 0
0 0 0
0 0 0
0 0 0
0 0 0
128 128 128
128 128 128
128 128 128
128 128 128
128 128 128
128 128 128
128 128 128
128 128 128
128 128 128
128 128 128
128 128 128
128 128 128
128 128 128
128 128 128
128 128 128
128 128 128
128 128 128
128 128 128
128 128 128
128 128 128
128 128 128
128 128 128
128 128 128
128 128 128
128 128 128
128 128 128
128 128 128
128 128 128
128 128 128
128 128 128
128 128 128
128 128 128
128 128 128
0 0 0
128 128 128
128 128 128
128 128 128
0 0 0
0 0 0
0 0 0
0 0 0
0 0 0
0 0 0
0 0 0
128 128 128
128 128 128
128 128 128
128 128 128
128 128 128
128 128 128
128 128 128
128 128 128
128 128 128
128 128 128
128 128 128
128 128 128
128 128 128
128 128 128
128 128 128
128 128 128
128 128 128
128 128 128
128 128 128
128 128 128
128 128 128
128 128 128
128 128 128
128 128 128
128 128 128
128 128 128
128 128 128
128 128 128
0 0 0
0 0 0
0 0 0
0 0 0
0 0 0
0 0 0
0 0 0
0 0 0
0 0 0
128 128 128
0 0 0
0 0 0
0 0 0
0 0 0
0 0 0
0 0 0
0 0 0
0 0 0
0 0 0
0 0 0
0 0 0
0 0 0
0 0 0
0 0 0
0 0 0
0 0 0
0 0 0
0 0 0
0 0 0
0 0 0
0 0 0
0 0 0
0 0 0
0 0 0
0 0 0
0 0 0
0 0 0
0 0 0
0 0 0
0 0 0
0 0 0
0 0 0
0 0 0
0 0 0
0 0 0
0 0 0
0 0 0
0 0 0
0 0 0
0 0 0
0 0 0
0 0 0
0 0 0
0 0 0
0 0 0
0 0 0
0 0 0
0 0 0
0 0 0
0 0 0
0 0 0
0 0 0
0 0 0
0 0 0
0 0 0
0 0 0
0 0 0
0 0 0
0 0 0
0 0 0
0 0 0
0 0 0
0 0 0
0 0 0
0 0 0
0 0 0
128 128 128
0 0 0
0 0 0
0 0 0
0 0 0
0 0 0
128 128 128
128 128 128
128 128 128
128 128 128
128 128 128
128 128 128
128 128 128
128 128 128
128 128 128
128 128 128
128 128 128
128 128 128
128 128 128
128 128 128
128 128 128
128 128 128
128 128 128
128 128 128
128 128 128
128 128 128
128 128 128
128 128 128
128 128 128
128 128 128
128 128 128
128 128 128
128 128 128
128 128 128
128 128 128
128 128 128
128 128 128
128 128 128
128 128 128
0 0 0
0 0 0
128 128 128
128 128 128
0 0 0
0 0 0
0 0 0
0 0 0
0 0 0
0 0 0
128 128 128
128 128 128
128 128 128
128 128 128
128 128 128
128 128 128
128 128 128
128 128 128
128 128 128
128 128 128
128 128 128
128 128 128
128 128 128
128 128 128
128 128 128
128 128 128
128 128 128
128 128 128
128 128 128
128 128 128
128 128 128
128 128 128
128 128 128
128 128 128
128 128 128
128 128 128
128 128 128
128 128 128
128 128 128
128 128 128
0 0 0
0 0 0
0 0 0
0 0 0
0 0 0
0 0 0
0 0 0
0 0 0
0 0 0
0 0 0
0 0 0
0 0 0
0 0 0
0 0 0
0 0 0
0 0 0
0 0 0
0 0 0
0 0 0
0 0 0
0 0 0
0 0 0
0 0 0
0 0 0
0 0 0
0 0 0
0 0 0
0 0 0
0 0 0
0 0 0
0 0 0
0 0 0
0 0 0
0 0 0
0 0 0
0 0 0
0 0 0
0 0 0
0 0 0
0 0 0
0 0 0
0 0 0
0 0 0
0 0 0
0 0 0
0 0 0
0 0 0
0 0 0
0 0 0
0 0 0
0 0 0
0 0 0
0 0 0
0 0 0
0 0 0
0 0 0
0 0 0
0 0 0
0 0 0
0 0 0
0 0 0
0 0 0
0 0 0
0 0 0
0 0 0
0 0 0
0 0 0
0 0 0
0 0 0
0 0 0
0 0 0
0 0 0
0 0 0
0 0 0
0 0 0
128 128 128
0 0 0
0 0 0
0 0 0
0 0 0
0 0 0
128 128 128
128 128 128
128 128 128
128 128 128
128 128 128
128 128 128
128 128 128
128 128 128
128 128 128
128 128 128
128 128 128
128 128 128
128 128 128
128 128 128
128 128 128
128 128 128
128 128 128
128 128 128
128 128 128
128 128 128
128 128 128
128 128 128
128 128 128
128 128 128
128 128 128
128 128 128
128 128 128
128 128 128
128 128 128
128 128 128
128 128 128
128 128 128
128 128 128
0 0 0
0 0 0
128 128 128
0 0 0
0 0 0
0 0 0
0 0 0
0 0 0
0 0 0
0 0 0
128 128 128
128 128 128
128 128 128
128 128 128
128 128 128
128 128 128
128 128 128
128 128 128
128 128 128
128 128 128
128 128 128
128 128 128
128 128 128
128 128 128
128 128 128
128 128 128
128 128 128
128 128 128
128 128 128
128 128 128
128 128 128
128 128 128
128 128 128
128 128 128
128 128 128
128 128 128
128 128 128
0 0 0
128 128 128
128 128 128
0 0 0
0 0 0
0 0 0
0 0 0
0 0 0
0 0 0
0 0 0
128 128 128
0 0 0
0 0 0
0 0 0
0 0 0
0 0 0
0 0 0
0 0 0
0 0 0
0 0 0
0 0 0
0 0 0
0 0 0
0 0 0
0 0 0
0 0 0
0 0 0
0 0 0
0 0 0
0 0 0
0 0 0
0 0 0
0 0 0
0 0 0
0 0 0
0 0 0
0 0 0
0 0 0
0 0 0
0 0 0
0 0 0
0 0 0
0 0 0
0 0 0
0 0 0
0 0 0
0 0 0
0 0 0
0 0 0
0 0 0
0 0 0
0 0 0
0 0 0
0 0 0
0 0 0
0 0 0
0 0 0
0 0 0
0 0 0
0 0 0
0 0 0
0 0 0
0 0 0
0 0 0
0 0 0
0 0 0
0 0 0
0 0 0
0 0 0
0 0 0
0 0 0
0 0 0
0 0 0
0 0 0
0 0 0
0 0 0
0 0 0
0 0 0
128 128 128
0 0 0
0 0 0
0 0 0
0 0 0
0 0 0
128 128 128
128 128 128
128 128 128
128 128 128
128 128 128
128 128 128
128 128 128
128 128 128
128 128 128
128 128 128
128 128 128
128 128 128
128 128 128
128 128 128
128 128 128
128 128 128
128 128 128
128 128 128
128 128 128
128 128 128
128 128 128
128 128 128
128 128 128
128 128 128
128 128 128
128 128 128
128 128 128
128 128 128
128 128 128
128 128 128
128 128 128
128 128 128
128 128 128
0 0 0
0 0 0
0 0 0
0 0 0
0 0 0
0 0 0
0 0 0
0 0 0
0 0 0
0 0 0
128 128 128
128 128 128
128 128 128
128 128 128
128 128 128
128 128 128
128 128 128
128 128 128
128 128 128
128 128 128
128 128 128
128 128 128
128 128 128
128 128 128
128 128 128
128 128 128
128 128 128
128 128 128
128 128 128
128 128 128
128 128 128
128 128 128
128 128 128
128 128 128
128 128 128
128 128 128
128 128 128
128 128 128
128 128 128
128 128 128
0 0 0
0 0 0
0 0 0
0 0 0
0 0 0
0 0 0
128 128 128
128 128 128
128 128 128
128 128 128
128 128 128
128 128 128
0 0 0
0 0 0
0 0 0
0 0 0
0 0 0
0 0 0
0 0 0
0 0 0
0 0 0
0 0 0
0 0 0
0 0 0
0 0 0
0 0 0
0 0 0
0 0 0
0 0 0
0 0 0
0 0 0
0 0 0
0 0 0
0 0 0
0 0 0
0 0 0
0 0 0
0 0 0
0 0 0
0 0 0
0 0 0
0 0 0
0 0 0
0 0 0
0 0 0
0 0 0
0 0 0
0 0 0
0 0 0
0 0 0
0 0 0
0 0 0
0 0 0
0 0 0
0 0 0
0 0 0
0 0 0
0 0 0
0 0 0
0 0 0
0 0 0
0 0 0
0 0 0
0 0 0
0 0 0
0 0 0
0 0 0
0 0 0
0 0 0
0 0 0
0 0 0
0 0 0
0 0 0
0 0 0
0 0 0
0 0 0
0 0 0
0 0 0
0 0 0
0 0 0
0 0 0
128 128 128
128 128 128
128 128 128
128 128 128
128 128 128
128 128 128
128 128 128
128 128 128
128 128 128
128 128 128
128 128 128
128 128 128
128 128 128
128 128 128
128 128 128
128 128 128
128 128 128
128 128 128
128 128 128
128 128 128
128 128 128
128 128 128
128 128 128
128 128 128
128 128 128
128 128 128
128 128 128
128 128 128
128 128 128
128 128 128
128 128 128
128 128 128
128 128 128
0 0 0
0 0 0
0 0 0
0 0 0
128 128 128
0 0 0
0 0 0
0 0 0
0 0 0
0 0 0
128 128 128
128 128 128
128 128 128
128 128 128
128 128 128
128 128 128
128 128 128
128 128 128
128 128 128
128 128 128
0 0 0
128 128 128
128 128 128
128 128 128
128 128 128
128 128 128
128 128 128
128 128 128
128 128 128
128 128 128
128 128 128
128 128 128
128 128 128
128 128 128
128 128 128
128 128 128
128 128 128
128 128 128
128 128 128
128 128 128
0 0 0
0 0 0
0 0 0
0 0 0
0 0 0
128 128 128
128 128 128
128 128 128
128 128 128
128 128 128
128 128 128
128 128 128
128 128 128
128 128 128
128 128 128
128 128 128
0 0 0
0 0 0
0 0 0
0 0 0
0 0 0
0 0 0
0 0 0
0 0 0
0 0 0
0 0 0
0 0 0
0 0 0
0 0 0
0 0 0
0 0 0
0 0 0
0 0 0
0 0 0
0 0 0
0 0 0
0 0 0
0 0 0
0 0 0
0 0 0
0 0 0
0 0 0
0 0 0
0 0 0
0 0 0
0 0 0
0 0 0
0 0 0
0 0 0
0 0 0
0 0 0
0 0 0
0 0 0
0 0 0
0 0 0
128 128 128
128 128 128
128 128 128
128 128 128
128 128 128
0 0 0
0 0 0
128 128 128
128 128 128
128 128 128
128 128 128
128 128 128
0 0 0
0 0 0
0 0 0
0 0 0
0 0 0
0 0 0
0 0 0
0 0 0
0 0 0
0 0 0
0 0 0
0 0 0
0 0 0
0 0 0
128 128 128
128 128 128
128 128 128
128 128 128
128 128 128
128 128 128
128 128 128
128 128 128
128 128 128
128 128 128
128 128 128
128 128 128
128 128 128
128 128 128
128 128 128
128 128 128
128 128 128
128 128 128
128 128 128
128 128 128
128 128 128
128 128 128
128 128 128
128 128 128
128 128 128
128 128 128
128 128 128
128 128 128
128 128 128
128 128 128
128 128 128
128 128 128
128 128 128
0 0 0
0 0 0
0 0 0
0 0 0
0 0 0
0 0 0
0 0 0
0 0 0
0 0 0
0 0 0
128 128 128
128 128 128
128 128 128
128 128 128
128 128 128
0 0 0
0 0 0
0 0 0
0 0 0
0 0 0
0 0 0
0 0 0
0 0 0
0 0 0
0 0 0
0 0 0
0 0 0
0 0 0
128 128 128
128 128 128
128 128 128
128 128 128
128 128 128
128 128 128
128 128 128
128 128 128
128 128 128
128 128 128
128 128 128
128 128 128
0 0 0
0 0 0
0 0 0
0 0 0
128 128 128
128 128 128
128 128 128
128 128 128
128 128 128
128 128 128
128 128 128
128 128 128
128 128 128
128 128 128
128 128 128
128 128 128
128 128 128
128 128 128
128 128 128
128 128 128
128 128 128
128 128 128
0 0 0
0 0 0
0 0 0
0 0 0
0 0 0
0 0 0
0 0 0
0 0 0
0 0 0
0 0 0
0 0 0
0 0 0
0 0 0
0 0 0
0 0 0
0 0 0
0 0 0
0 0 0
0 0 0
0 0 0
0 0 0
0 0 0
0 0 0
0 0 0
0 0 0
0 0 0
0 0 0
0 0 0
0 0 0
0 0 0
0 0 0
0 0 0
0 0 0
0 0 0
0 0 0
0 0 0
0 0 0
0 0 0
0 0 0
0 0 0
0 0 0
0 0 0
0 0 0
0 0 0
0 0 0
0 0 0
0 0 0
0 0 0
0 0 0
0 0 0
0 0 0
0 0 0
0 0 0
0 0 0
0 0 0
0 0 0
0 0 0
0 0 0
0 0 0
128 128 128
128 128 128
128 128 128
128 128 128
128 128 128
128 128 128
128 128 128
128 128 128
128 128 128
128 128 128
128 128 128
128 128 128
128 128 128
128 128 128
128 128 128
128 128 128
128 128 128
128 128 128
128 128 128
128 128 128
128 128 128
128 128 128
128 128 128
128 128 128
128 128 128
128 128 128
128 128 128
128 128 128
128 128 128
128 128 128
128 128 128
128 128 128
128 128 128
0 0 0
0 0 0
0 0 0
0 0 0
0 0 0
0 0 0
0 0 0
0 0 0
0 0 0
0 0 0
0 0 0
128 128 128
128 128 128
128 128 128
128 128 128
128 128 128
128 128 128
128 128 128
0 0 0
0 0 0
0 0 0
0 0 0
0 0 0
0 0 0
0 0 0
0 0 0
128 128 128
128 128 128
128 128 128
128 128 128
128 128 128
128 128 128
128 128 128
128 128 128
128 128 128
128 128 128
128 128 128
128 128 128
128 128 128
0 0 0
0 0 0
0 0 0
0 0 0
128 128 128
128 128 128
128 128 128
128 128 128
128 128 128
128 128 128
128 128 128
128 128 128
128 128 128
128 128 128
128 128 128
128 128 128
128 128 128
128 128 128
128 128 128
128 128 128
128 128 128
128 128 128
128 128 128
128 128 128
128 128 128
128 128 128
128 128 128
0 0 0
0 0 0
0 0 0
0 0 0
0 0 0
0 0 0
0 0 0
0 0 0
0 0 0
0 0 0
0 0 0
0 0 0
0 0 0
0 0 0
0 0 0
0 0 0
0 0 0
0 0 0
0 0 0
0 0 0
0 0 0
0 0 0
0 0 0
0 0 0
0 0 0
0 0 0
0 0 0
0 0 0
0 0 0
0 0 0
0 0 0
0 0 0
0 0 0
0 0 0
0 0 0
0 0 0
0 0 0
0 0 0
0 0 0
0 0 0
0 0 0
0 0 0
0 0 0
0 0 0
0 0 0
0 0 0
0 0 0
0 0 0
0 0 0
0 0 0
0 0 0
0 0 0
0 0 0
0 0 0
0 0 0
128 128 128
128 128 128
128 128 128
128 128 128
128 128 128
128 128 128
128 128 128
128 128 128
128 128 128
128 128 128
128 128 128
128 128 128
128 128 128
128 128 128
128 128 128
128 128 128
128 128 128
128 128 128
128 128 128
128 128 128
128 128 128
128 128 128
128 128 128
128 128 128
128 128 128
128 128 128
128 128 128
128 128 128
128 128 128
128 128 128
128 128 128
128 128 128
128 128 128
0 0 0
0 0 0
0 0 0
0 0 0
0 0 0
0 0 0
0 0 0
0 0 0
0 0 0
0 0 0
0 0 0
128 128 128
128 128 128
128 128 128
128 128 128
128 128 128
128 128 128
128 128 128
128 128 128
128 128 128
128 128 128
128 128 128
128 128 128
128 128 128
128 128 128
128 128 128
128 128 128
128 128 128
128 128 128
128 128 128
128 128 128
128 128 128
128 128 128
128 128 128
128 128 128
128 128 128
128 128 128
128 128 128
128 128 128
0 0 0
0 0 0
0 0 0
0 0 0
128 128 128
128 128 128
128 128 128
128 128 128
128 128 128
128 128 128
128 128 128
128 128 128
128 128 128
128 128 128
128 128 128
128 128 128
128 128 128
128 128 128
128 128 128
128 128 128
128 128 128
128 128 128
128 128 128
128 128 128
128 128 128
128 128 128
128 128 128
128 128 128
128 128 128
0 0 0
0 0 0
0 0 0
0 0 0
0 0 0
0 0 0
0 0 0
0 0 0
0 0 0
0 0 0
0 0 0
0 0 0
0 0 0
0 0 0
0 0 0
0 0 0
0 0 0
0 0 0
0 0 0
0 0 0
0 0 0
0 0 0
0 0 0
0 0 0
0 0 0
0 0 0
0 0 0
0 0 0
0 0 0
0 0 0
0 0 0
0 0 0
0 0 0
0 0 0
0 0 0
0 0 0
0 0 0
0 0 0
0 0 0
0 0 0
0 0 0
0 0 0
0 0 0
0 0 0
0 0 0
0 0 0
0 0 0
0 0 0
0 0 0
0 0 0
0 0 0
0 0 0
0 0 0
128 128 128
128 128 128
128 128 128
128 128 128
128 128 128
128 128 128
128 128 128
128 128 128
128 128 128
128 128 128
128 128 128
128 128 128
128 128 128
128 128 128
128 128 128
128 128 128
128 128 128
128 128 128
128 128 128
128 128 128
128 128 128
128 128 128
128 128 128
128 128 128
128 128 128
128 128 128
128 128 128
128 128 128
128 128 128
128 128 128
128 128 128
128 128 128
128 128 128
128 128 128
0 0 0
0 0 0
0 0 0
0 0 0
0 0 0
0 0 0
0 0 0
0 0 0
0 0 0
0 0 0
128 128 128
128 128 128
128 128 128
128 128 128
0 0 0
0 0 0
0 0 0
0 0 0
0 0 0
128 128 128
128 128 128
128 128 128
128 128 128
128 128 128
128 128 128
128 128 128
128 128 128
128 128 128
128 128 128
128 128 128
128 128 128
128 128 128
128 128 128
128 128 128
128 128 128
128 128 128
128 128 128
0 0 0
0 0 0
0 0 0
0 0 0
0 0 0
128 128 128
128 128 128
128 128 128
128 128 128
128 128 128
128 128 128
128 128 128
128 128 128
128 128 128
128 128 128
128 128 128
128 128 128
128 128 128
128 128 128
128 128 128
128 128 128
128 128 128
128 128 128
128 128 128
128 128 128
128 128 128
128 128 128
128 128 128
128 128 128
128 128 128
128 128 128
128 128 128
0 0 0
0 0 0
0 0 0
0 0 0
0 0 0
0 0 0
0 0 0
0 0 0
0 0 0
0 0 0
0 0 0
0 0 0
0 0 0
0 0 0
0 0 0
0 0 0
0 0 0
0 0 0
0 0 0
0 0 0
0 0 0
0 0 0
0 0 0
0 0 0
0 0 0
0 0 0
0 0 0
0 0 0
0 0 0
0 0 0
0 0 0
0 0 0
0 0 0
0 0 0
0 0 0
0 0 0
0 0 0
0 0 0
0 0 0
0 0 0
0 0 0
0 0 0
0 0 0
0 0 0
0 0 0
0 0 0
0 0 0
0 0 0
0 0 0
0 0 0
0 0 0
128 128 128
128 128 128
128 128 128
128 128 128
128 128 128
128 128 128
128 128 128
128 128 128
128 128 128
128 128 128
128 128 128
128 128 128
128 128 128
128 128 128
128 128 128
128 128 128
128 128 128
128 128 128
0 0 0
0 0 0
128 128 128
128 128 128
128 128 128
128 128 128
128 128 128
128 128 128
128 128 128
128 128 128
128 128 128
128 128 128
128 128 128
128 128 128
128 128 128
128 128 128
0 0 0
0 0 0
0 0 0
0 0 0
0 0 0
0 0 0
0 0 0
0 0 0
0 0 0
128 128 128
128 128 128
128 128 128
128 128 128
128 128 128
128 128 128
128 128 128
128 128 128
128 128 128
128 128 128
128 128 128
128 128 128
128 128 128
128 128 128
128 128 128
128 128 128
128 128 128
128 128 128
128 128 128
128 128 128
128 128 128
128 128 128
128 128 128
128 128 128
128 128 128
128 128 128
128 128 128
128 128 128
128 128 128
0 0 0
0 0 0
0 0 0
0 0 0
128 128 128
128 128 128
128 128 128
128 128 128
128 128 128
128 128 128
128 128 128
128 128 128
128 128 128
128 128 128
128 128 128
128 128 128
128 128 128
128 128 128
128 128 128
128 128 128
128 128 128
128 128 128
128 128 128
128 128 128
128 128 128
128 128 128
128 128 128
128 128 128
128 128 128
128 128 128
128 128 128
128 128 128
128 128 128
128 128 128
0 0 0
0 0 0
0 0 0
0 0 0
0 0 0
0 0 0
0 0 0
0 0 0
0 0 0
0 0 0
0 0 0
0 0 0
0 0 0
0 0 0
0 0 0
0 0 0
0 0 0
0 0 0
0 0 0
0 0 0
0 0 0
0 0 0
0 0 0
0 0 0
0 0 0
0 0 0
0 0 0
0 0 0
0 0 0
0 0 0
0 0 0
0 0 0
0 0 0
0 0 0
0 0 0
0 0 0
0 0 0
0 0 0
0 0 0
0 0 0
0 0 0
0 0 0
0 0 0
0 0 0
0 0 0
0 0 0
0 0 0
0 0 0
128 128 128
128 128 128
128 128 128
128 128 128
128 128 128
128 128 128
128 128 128
128 128 128
128 128 128
128 128 128
128 128 128
128 128 128
128 128 128
128 128 128
128 128 128
128 128 128
0 0 0
0 0 0
0 0 0
128 128 128
128 128 128
128 128 128
128 128 128
128 128 128
128 128 128
128 128 128
128 128 128
128 128 128
128 128 128
128 128 128
128 128 128
128 128 128
128 128 128
128 128 128
0 0 0
0 0 0
0 0 0
0 0 0
0 0 0
0 0 0
0 0 0
0 0 0
0 0 0
0 0 0
128 128 128
128 128 128
128 128 128
128 128 128
128 128 128
128 128 128
128 128 128
128 128 128
128 128 128
128 128 128
128 128 128
128 128 128
128 128 128
128 128 128
128 128 128
128 128 128
128 128 128
128 128 128
128 128 128
128 128 128
128 128 128
128 128 128
128 128 128
128 128 128
128 128 128
128 128 128
128 128 128
0 0 0
0 0 0
0 0 0
0 0 0
0 0 0
128 128 128
128 128 128
128 128 128
128 128 128
128 128 128
128 128 128
128 128 128
128 128 128
128 128 128
128 128 128
128 128 128
128 128 128
128 128 128
128 128 128
128 128 128
128 128 128
128 128 128
128 128 128
128 128 128
128 128 128
128 128 128
128 128 128
128 128 128
128 128 128
128 128 128
128 128 128
128 128 128
128 128 128
0 0 0
128 128 128
128 128 128
0 0 0
0 0 0
0 0 0
0 0 0
0 0 0
0 0 0
0 0 0
0 0 0
0 0 0
0 0 0
0 0 0
0 0 0
0 0 0
0 0 0
0 0 0
0 0 0
0 0 0
0 0 0
0 0 0
0 0 0
0 0 0
0 0 0
0 0 0
0 0 0
0 0 0
0 0 0
0 0 0
0 0 0
0 0 0
0 0 0
0 0 0
0 0 0
0 0 0
0 0 0
0 0 0
0 0 0
0 0 0
0 0 0
0 0 0
0 0 0
0 0 0
0 0 0
0 0 0
0 0 0
0 0 0
0 0 0
0 0 0
128 128 128
128 128 128
128 128 128
128 128 128
128 128 128
128 128 128
128 128 128
128 128 128
128 128 128
128 128 128
128 128 128
128 128 128
128 128 128
128 128 128
0 0 0
0 0 0
0 0 0
0 0 0
0 0 0
128 128 128
128 128 128
128 128 128
128 128 128
128 128 128
128 128 128
128 128 128
128 128 128
128 128 128
128 128 128
128 128 128
128 128 128
128 128 128
128 128 128
128 128 128
0 0 0
0 0 0
0 0 0
0 0 0
0 0 0
0 0 0
0 0 0
0 0 0
0 0 0
0 0 0
128 128 128
128 128 128
128 128 128
128 128 128
128 128 128
128 128 128
128 128 128
128 128 128
128 128 128
128 128 128
128 128 128
128 128 128
128 128 128
128 128 128
128 128 128
128 128 128
128 128 128
128 128 128
128 128 128
128 128 128
128 128 128
128 128 128
128 128 128
128 128 128
128 128 128
128 128 128
128 128 128
0 0 0
0 0 0
0 0 0
0 0 0
128 128 128
128 128 128
128 128 128
128 128 128
128 128 128
128 128 128
128 128 128
128 128 128
128 128 128
128 128 128
128 128 128
128 128 128
128 128 128
128 128 128
128 128 128
0 0 0
128 128 128
128 128 128
128 128 128
128 128 128
128 128 128
128 128 128
128 128 128
128 128 128
128 128 128
128 128 128
128 128 128
128 128 128
128 128 128
128 128 128
128 128 128
128 128 128
128 128 128
0 0 0
0 0 0
0 0 0
0 0 0
0 0 0
0 0 0
0 0 0
0 0 0
0 0 0
0 0 0
0 0 0
0 0 0
0 0 0
0 0 0
0 0 0
0 0 0
0 0 0
0 0 0
0 0 0
0 0 0
0 0 0
0 0 0
0 0 0
0 0 0
0 0 0
0 0 0
0 0 0
0 0 0
0 0 0
0 0 0
0 0 0
0 0 0
0 0 0
0 0 0
0 0 0
0 0 0
0 0 0
0 0 0
0 0 0
0 0 0
0 0 0
0 0 0
0 0 0
0 0 0
0 0 0
0 0 0
128 128 128
128 128 128
128 128 128
128 128 128
128 128 128
128 128 128
128 128 128
128 128 128
128 128 128
128 128 128
128 128 128
128 128 128
0 0 0
0 0 0
0 0 0
0 0 0
0 0 0
0 0 0
128 128 128
128 128 128
128 128 128
128 128 128
128 128 128
128 128 128
128 128 128
128 128 128
128 128 128
128 128 128
128 128 128
128 128 128
128 128 128
0 0 0
128 128 128
0 0 0
0 0 0
0 0 0
0 0 0
0 0 0
0 0 0
0 0 0
0 0 0
0 0 0
0 0 0
0 0 0
128 128 128
128 128 128
128 128 128
128 128 128
128 128 128
0 0 0
128 128 128
128 128 128
128 128 128
128 128 128
128 128 128
128 128 128
128 128 128
0 0 0
128 128 128
128 128 128
128 128 128
128 128 128
128 128 128
128 128 128
128 128 128
128 128 128
128 128 128
128 128 128
128 128 128
128 128 128
128 128 128
0 0 0
0 0 0
0 0 0
0 0 0
128 128 128
128 128 128
128 128 128
128 128 128
128 128 128
128 128 128
128 128 128
128 128 128
128 128 128
128 128 128
128 128 128
128 128 128
128 128 128
128 128 128
128 128 128
128 128 128
128 128 128
128 128 128
128 128 128
128 128 128
128 128 128
128 128 128
128 128 128
128 128 128
128 128 128
128 128 128
128 128 128
128 128 128
128 128 128
128 128 128
128 128 128
128 128 128
128 128 128
128 128 128
128 128 128
0 0 0
0 0 0
0 0 0
0 0 0
0 0 0
0 0 0
0 0 0
0 0 0
0 0 0
0 0 0
0 0 0
0 0 0
0 0 0
0 0 0
0 0 0
0 0 0
0 0 0
0 0 0
0 0 0
0 0 0
0 0 0
0 0 0
0 0 0
0 0 0
0 0 0
0 0 0
0 0 0
0 0 0
0 0 0
0 0 0
0 0 0
0 0 0
0 0 0
0 0 0
0 0 0
0 0 0
0 0 0
0 0 0
0 0 0
0 0 0
0 0 0
0 0 0
0 0 0
0 0 0
128 128 128
128 128 128
128 128 128
128 128 128
128 128 128
128 128 128
128 128 128
128 128 128
128 128 128
128 128 128
128 128 128
0 0 0
0 0 0
0 0 0
0 0 0
0 0 0
0 0 0
0 0 0
128 128 128
128 128 128
128 128 128
128 128 128
128 128 128
128 128 128
128 128 128
0 0 0
0 0 0
0 0 0
0 0 0
0 0 0
0 0 0
0 0 0
0 0 0
0 0 0
0 0 0
0 0 0
0 0 0
0 0 0
0 0 0
0 0 0
0 0 0
0 0 0
0 0 0
0 0 0
128 128 128
128 128 128
128 128 128
128 128 128
128 128 128
128 128 128
128 128 128
128 128 128
128 128 128
128 128 128
128 128 128
128 128 128
128 128 128
128 128 128
128 128 128
128 128 128
128 128 128
128 128 128
128 128 128
128 128 128
128 128 128
128 128 128
128 128 128
128 128 128
128 128 128
128 128 128
128 128 128
0 0 0
0 0 0
0 0 0
0 0 0
128 128 128
128 128 128
128 128 128
128 128 128
128 128 128
128 128 128
128 128 128
128 128 128
128 128 128
128 128 128
128 128 128
128 128 128
128 128 128
128 128 128
128 128 128
128 128 128
128 128 128
128 128 128
128 128 128
128 128 128
128 128 128
128 128 128
128 128 128
128 128 128
128 128 128
128 128 128
128 128 128
128 128 128
128 128 128
128 128 128
128 128 128
128 128 128
128 128 128
128 128 128
128 128 128
0 0 0
0 0 0
0 0 0
128 128 128
128 128 128
128 128 128
0 0 0
0 0 0
0 0 0
0 0 0
0 0 0
0 0 0
0 0 0
0 0 0
0 0 0
0 0 0
0 0 0
0 0 0
0 0 0
0 0 0
0 0 0
0 0 0
0 0 0
0 0 0
0 0 0
0 0 0
128 128 128
0 0 0
0 0 0
0 0 0
0 0 0
0 0 0
0 0 0
0 0 0
0 0 0
0 0 0
0 0 0
0 0 0
0 0 0
0 0 0
0 0 0
0 0 0
0 0 0
0 0 0
128 128 128
128 128 128
128 128 128
128 128 128
128 128 128
128 128 128
128 128 128
128 128 128
128 128 128
128 128 128
128 128 128
0 0 0
0 0 0
0 0 0
0 0 0
0 0 0
0 0 0
0 0 0
0 0 0
0 0 0
0 0 0
0 0 0
128 128 128
128 128 128
0 0 0
0 0 0
0 0 0
0 0 0
0 0 0
0 0 0
0 0 0
0 0 0
0 0 0
0 0 0
0 0 0
0 0 0
0 0 0
0 0 0
0 0 0
0 0 0
0 0 0
0 0 0
0 0 0
0 0 0
128 128 128
128 128 128
128 128 128
128 128 128
128 128 128
128 128 128
128 128 128
128 128 128
128 128 128
128 128 128
128 128 128
128 128 128
128 128 128
128 128 128
128 128 128
128 128 128
128 128 128
128 128 128
128 128 128
128 128 128
128 128 128
128 128 128
128 128 128
128 128 128
128 128 128
0 0 0
0 0 0
0 0 0
0 0 0
0 0 0
0 0 0
128 128 128
128 128 128
128 128 128
128 128 128
128 128 128
128 128 128
128 128 128
128 128 128
128 128 128
128 128 128
128 128 128
128 128 128
128 128 128
128 128 128
128 128 128
128 128 128
128 128 128
128 128 128
128 128 128
128 128 128
128 128 128
128 128 128
128 128 128
128 128 128
128 128 128
128 128 128
128 128 128
128 128 128
128 128 128
128 128 128
128 128 128
128 128 128
128 128 128
128 128 128
128 128 128
0 0 0
0 0 0
0 0 0
128 128 128
128 128 128
128 128 128
128 128 128
0 0 0
0 0 0
0 0 0
0 0 0
0 0 0
0 0 0
0 0 0
0 0 0
0 0 0
128 128 128
128 128 128
0 0 0
0 0 0
0 0 0
128 128 128
128 128 128
0 0 0
0 0 0
0 0 0
128 128 128
128 128 128
128 128 128
0 0 0
0 0 0
0 0 0
0 0 0
0 0 0
0 0 0
0 0 0
0 0 0
0 0 0
0 0 0
0 0 0
0 0 0
0 0 0
0 0 0
0 0 0
128 128 128
128 128 128
128 128 128
128 128 128
128 128 128
128 128 128
128 128 128
128 128 128
128 128 128
128 128 128
128 128 128
128 128 128
128 128 128
128 128 128
0 0 0
128 128 128
0 0 0
0 0 0
0 0 0
0 0 0
0 0 0
0 0 0
0 0 0
0 0 0
0 0 0
0 0 0
0 0 0
0 0 0
0 0 0
0 0 0
0 0 0
0 0 0
0 0 0
0 0 0
0 0 0
0 0 0
0 0 0
0 0 0
0 0 0
0 0 0
0 0 0
0 0 0
0 0 0
0 0 0
0 0 0
0 0 0
0 0 0
128 128 128
128 128 128
128 128 128
128 128 128
128 128 128
128 128 128
128 128 128
0 0 0
128 128 128
128 128 128
128 128 128
128 128 128
128 128 128
128 128 128
128 128 128
0 0 0
128 128 128
128 128 128
128 128 128
128 128 128
0 0 0
0 0 0
0 0 0
0 0 0
0 0 0
0 0 0
0 0 0
0 0 0
0 0 0
128 128 128
128 128 128
128 128 128
128 128 128
128 128 128
128 128 128
128 128 128
128 128 128
128 128 128
128 128 128
128 128 128
128 128 128
128 128 128
128 128 128
128 128 128
128 128 128
128 128 128
128 128 128
128 128 128
128 128 128
128 128 128
128 128 128
128 128 128
128 128 128
128 128 128
128 128 128
128 128 128
128 128 128
128 128 128
128 128 128
128 128 128
128 128 128
128 128 128
128 128 128
0 0 0
0 0 0
0 0 0
128 128 128
128 128 128
0 0 0
0 0 0
128 128 128
0 0 0
128 128 128
128 128 128
0 0 0
0 0 0
0 0 0
0 0 0
0 0 0
128 128 128
128 128 128
0 0 0
128 128 128
128 128 128
128 128 128
128 128 128
128 128 128
0 0 0
0 0 0
128 128 128
128 128 128
128 128 128
0 0 0
0 0 0
0 0 0
0 0 0
0 0 0
0 0 0
0 0 0
0 0 0
0 0 0
0 0 0
0 0 0
0 0 0
0 0 0
0 0 0
0 0 0
128 128 128
128 128 128
128 128 128
128 128 128
128 128 128
128 128 128
128 128 128
128 128 128
128 128 128
128 128 128
128 128 128
128 128 128
128 128 128
128 128 128
128 128 128
128 128 128
128 128 128
128 128 128
0 0 0
0 0 0
128 128 128
0 0 0
0 0 0
128 128 128
128 128 128
128 128 128
128 128 128
128 128 128
128 128 128
128 128 128
128 128 128
0 0 0
128 128 128
0 0 0
0 0 0
0 0 0
0 0 0
0 0 0
0 0 0
0 0 0
0 0 0
0 0 0
0 0 0
0 0 0
0 0 0
0 0 0
0 0 0
0 0 0
0 0 0
0 0 0
0 0 0
0 0 0
128 128 128
0 0 0
0 0 0
0 0 0
0 0 0
128 128 128
128 128 128
128 128 128
0 0 0
128 128 128
0 0 0
0 0 0
0 0 0
128 128 128
128 128 128
128 128 128
0 0 0
0 0 0
0 0 0
0 0 0
0 0 0
0 0 0
0 0 0
0 0 0
0 0 0
128 128 128
128 128 128
128 128 128
128 128 128
128 128 128
128 128 128
128 128 128
128 128 128
128 128 128
128 128 128
128 128 128
128 128 128
128 128 128
128 128 128
128 128 128
128 128 128
128 128 128
128 128 128
128 128 128
128 128 128
128 128 128
128 128 128
128 128 128
128 128 128
128 128 128
128 128 128
128 128 128
128 128 128
128 128 128
128 128 128
128 128 128
128 128 128
128 128 128
0 0 0
0 0 0
0 0 0
128 128 128
128 128 128
128 128 128
0 0 0
128 128 128
128 128 128
128 128 128
128 128 128
128 128 128
128 128 128
128 128 128
128 128 128
128 128 128
128 128 128
128 128 128
128 128 128
128 128 128
128 128 128
128 128 128
128 128 128
128 128 128
0 0 0
0 0 0
128 128 128
128 128 128
128 128 128
128 128 128
128 128 128
128 128 128
0 0 0
0 0 0
0 0 0
0 0 0
0 0 0
0 0 0
0 0 0
0 0 0
0 0 0
0 0 0
0 0 0
0 0 0
128 128 128
128 128 128
128 128 128
128 128 128
128 128 128
128 128 128
128 128 128
128 128 128
128 128 128
128 128 128
128 128 128
128 128 128
128 128 128
128 128 128
128 128 128
128 128 128
128 128 128
128 128 128
128 128 128
128 128 128
128 128 128
128 128 128
128 128 128
128 128 128
128 128 128
128 128 128
128 128 128
128 128 128
128 128 128
128 128 128
0 0 0
0 0 0
0 0 0
128 128 128
0 0 0
0 0 0
0 0 0
0 0 0
128 128 128
0 0 0
0 0 0
0 0 0
0 0 0
0 0 0
0 0 0
0 0 0
0 0 0
0 0 0
0 0 0
128 128 128
0 0 0
0 0 0
0 0 0
0 0 0
0 0 0
0 0 0
0 0 0
0 0 0
128 128 128
128 128 128
128 128 128
128 128 128
0 0 0
0 0 0
0 0 0
0 0 0
128 128 128
0 0 0
0 0 0
128 128 128
0 0 0
0 0 0
0 0 0
0 0 0
0 0 0
0 0 0
128 128 128
128 128 128
128 128 128
128 128 128
128 128 128
128 128 128
128 128 128
128 128 128
128 128 128
128 128 128
128 128 128
128 128 128
128 128 128
128 128 128
128 128 128
128 128 128
128 128 128
128 128 128
128 128 128
128 128 128
128 128 128
128 128 128
128 128 128
128 128 128
128 128 128
128 128 128
128 128 128
128 128 128
128 128 128
128 128 128
128 128 128
128 128 128
128 128 128
0 0 0
0 0 0
0 0 0
0 0 0
0 0 0
128 128 128
128 128 128
128 128 128
128 128 128
128 128 128
128 128 128
128 128 128
128 128 128
128 128 128
128 128 128
128 128 128
128 128 128
128 128 128
128 128 128
128 128 128
128 128 128
128 128 128
128 128 128
128 128 128
0 0 0
0 0 0
128 128 128
128 128 128
128 128 128
128 128 128
128 128 128
128 128 128
128 128 128
0 0 0
0 0 0
0 0 0
0 0 0
0 0 0
0 0 0
0 0 0
0 0 0
0 0 0
0 0 0
0 0 0
0 0 0
128 128 128
128 128 128
128 128 128
128 128 128
128 128 128
128 128 128
128 128 128
128 128 128
128 128 128
128 128 128
128 128 128
128 128 128
128 128 128
128 128 128
128 128 128
128 128 128
128 128 128
128 128 128
128 128 128
128 128 128
128 128 128
128 128 128
128 128 128
128 128 128
128 128 128
128 128 128
128 128 128
128 128 128
128 128 128
128 128 128
128 128 128
128 128 128
0 0 0
128 128 128
128 128 128
128 128 128
0 0 0
0 0 0
0 0 0
0 0 0
0 0 0
0 0 0
0 0 0
0 0 0
0 0 0
0 0 0
128 128 128
128 128 128
128 128 128
128 128 128
128 128 128
128 128 128
128 128 128
0 0 0
0 0 0
0 0 0
0 0 0
128 128 128
0 0 0
128 128 128
128 128 128
128 128 128
128 128 128
128 128 128
128 128 128
128 128 128
128 128 128
128 128 128
0 0 0
0 0 0
128 128 128
128 128 128
128 128 128
128 128 128
128 128 128
128 128 128
128 128 128
128 128 128
128 128 128
128 128 128
128 128 128
128 128 128
128 128 128
128 128 128
128 128 128
128 128 128
128 128 128
128 128 128
128 128 128
128 128 128
128 128 128
128 128 128
128 128 128
128 128 128
128 128 128
128 128 128
128 128 128
128 128 128
128 128 128
128 128 128
128 128 128
128 128 128
128 128 128
128 128 128
128 128 128
0 0 0
128 128 128
128 128 128
128 128 128
128 128 128
0 0 0
0 0 0
0 0 0
0 0 0
128 128 128
128 128 128
128 128 128
128 128 128
128 128 128
128 128 128
128 128 128
128 128 128
128 128 128
128 128 128
128 128 128
128 128 128
128 128 128
128 128 128
128 128 128
128 128 128
128 128 128
128 128 128
128 128 128
128 128 128
0 0 0
0 0 0
128 128 128
128 128 128
128 128 128
128 128 128
128 128 128
128 128 128
0 0 0
0 0 0
0 0 0
0 0 0
0 0 0
0 0 0
0 0 0
0 0 0
0 0 0
0 0 0
0 0 0
0 0 0
128 128 128
128 128 128
128 128 128
128 128 128
128 128 128
128 128 128
128 128 128
128 128 128
128 128 128
128 128 128
128 128 128
128 128 128
128 128 128
128 128 128
128 128 128
128 128 128
128 128 128
128 128 128
128 128 128
128 128 128
128 128 128
128 128 128
128 128 128
128 128 128
128 128 128
128 128 128
128 128 128
128 128 128
128 128 128
128 128 128
128 128 128
128 128 128
128 128 128
0 0 0
128 128 128
128 128 128
0 0 0
0 0 0
128 128 128
128 128 128
128 128 128
128 128 128
128 128 128
128 128 128
128 128 128
0 0 0
128 128 128
128 128 128
128 128 128
128 128 128
128 128 128
128 128 128
128 128 128
128 128 128
128 128 128
0 0 0
128 128 128
128 128 128
128 128 128
128 128 128
128 128 128
128 128 128
128 128 128
128 128 128
128 128 128
128 128 128
128 128 128
128 128 128
128 128 128
128 128 128
128 128 128
128 128 128
128 128 128
128 128 128
128 128 128
128 128 128
128 128 128
128 128 128
128 128 128
128 128 128
128 128 128
128 128 128
128 128 128
128 128 128
128 128 128
128 128 128
128 128 128
128 128 128
0 0 0
128 128 128
128 128 128
128 128 128
128 128 128
128 128 128
128 128 128
128 128 128
128 128 128
128 128 128
128 128 128
128 128 128
128 128 128
128 128 128
128 128 128
128 128 128
128 128 128
128 128 128
128 128 128
128 128 128
128 128 128
128 128 128
128 128 128
128 128 128
128 128 128
128 128 128
128 128 128
128 128 128
128 128 128
128 128 128
128 128 128
128 128 128
128 128 128
128 128 128
128 128 128
128 128 128
128 128 128
128 128 128
128 128 128
128 128 128
128 128 128
128 128 128
128 128 128
128 128 128
128 128 128
128 128 128
128 128 128
0 0 0
128 128 128
128 128 128
128 128 128
128 128 128
128 128 128
128 128 128
0 0 0
0 0 0
0 0 0
0 0 0
0 0 0
0 0 0
0 0 0
0 0 0
0 0 0
0 0 0
0 0 0
0 0 0
128 128 128
128 128 128
128 128 128
128 128 128
128 128 128
128 128 128
128 128 128
128 128 128
128 128 128
128 128 128
128 128 128
128 128 128
128 128 128
128 128 128
128 128 128
128 128 128
128 128 128
128 128 128
128 128 128
128 128 128
128 128 128
128 128 128
128 128 128
128 128 128
128 128 128
128 128 128
128 128 128
128 128 128
128 128 128
128 128 128
128 128 128
128 128 128
128 128 128
128 128 128
128 128 128
0 0 0
128 128 128
128 128 128
0 0 0
128 128 128
128 128 128
128 128 128
128 128 128
128 128 128
128 128 128
128 128 128
128 128 128
128 128 128
128 128 128
128 128 128
128 128 128
128 128 128
128 128 128
0 0 0
0 0 0
128 128 128
128 128 128
128 128 128
128 128 128
128 128 128
128 128 128
128 128 128
128 128 128
128 128 128
128 128 128
128 128 128
128 128 128
128 128 128
128 128 128
128 128 128
128 128 128
128 128 128
128 128 128
128 128 128
128 128 128
128 128 128
128 128 128
128 128 128
128 128 128
128 128 128
128 128 128
128 128 128
128 128 128
128 128 128
128 128 128
128 128 128
128 128 128
128 128 128
128 128 128
128 128 128
128 128 128
128 128 128
128 128 128
128 128 128
128 128 128
128 128 128
128 128 128
128 128 128
128 128 128
128 128 128
128 128 128
128 128 128
128 128 128
128 128 128
128 128 128
128 128 128
128 128 128
128 128 128
128 128 128
128 128 128
128 128 128
128 128 128
128 128 128
128 128 128
128 128 128
128 128 128
128 128 128
128 128 128
128 128 128
128 128 128
128 128 128
128 128 128
128 128 128
128 128 128
128 128 128
128 128 128
128 128 128
128 128 128
128 128 128
128 128 128
128 128 128
128 128 128
128 128 128
128 128 128
128 128 128
128 128 128
128 128 128
128 128 128
128 128 128
128 128 128
128 128 128
128 128 128
0 0 0
0 0 0
0 0 0
0 0 0
0 0 0
0 0 0
0 0 0
0 0 0
128 128 128
0 0 0
0 0 0
0 0 0
128 128 128
128 128 128
128 128 128
128 128 128
128 128 128
128 128 128
128 128 128
128 128 128
128 128 128
128 128 128
128 128 128
128 128 128
128 128 128
128 128 128
128 128 128
128 128 128
128 128 128
128 128 128
128 128 128
128 128 128
128 128 128
128 128 128
128 128 128
128 128 128
128 128 128
128 128 128
128 128 128
128 128 128
128 128 128
128 128 128
128 128 128
128 128 128
128 128 128
128 128 128
128 128 128
128 128 128
128 128 128
128 128 128
128 128 128
128 128 128
128 128 128
128 128 128
128 128 128
128 128 128
128 128 128
128 128 128
128 128 128
128 128 128
128 128 128
128 128 128
128 128 128
128 128 128
128 128 128
128 128 128
128 128 128
128 128 128
128 128 128
128 128 128
128 128 128
128 128 128
128 128 128
128 128 128
128 128 128
128 128 128
128 128 128
128 128 128
128 128 128
128 128 128
128 128 128
128 128 128
128 128 128
128 128 128
128 128 128
128 128 128
128 128 128
128 128 128
128 128 128
128 128 128
128 128 128
128 128 128
128 128 128
128 128 128
128 128 128
128 128 128
128 128 128
128 128 128
128 128 128
128 128 128
128 128 128
128 128 128
128 128 128
0 0 0
128 128 128
128 128 128
128 128 128
128 128 128
128 128 128
128 128 128
128 128 128
128 128 128
128 128 128
128 128 128
128 128 128
128 128 128
128 128 128
128 128 128
128 128 128
128 128 128
128 128 128
128 128 128
128 128 128
128 128 128
128 128 128
128 128 128
128 128 128
128 128 128
128 128 128
128 128 128
128 128 128
128 128 128
128 128 128
128 128 128
128 128 128
128 128 128
128 128 128
128 128 128
128 128 128
128 128 128
128 128 128
128 128 128
128 128 128
128 128 128
128 128 128
128 128 128
128 128 128
128 128 128
128 128 128
128 128 128
128 128 128
128 128 128
128 128 128
128 128 128
0 0 0
0 0 0
0 0 0
0 0 0
0 0 0
0 0 0
0 0 0
0 0 0
128 128 128
0 0 0
0 0 0
0 0 0
128 128 128
128 128 128
128 128 128
128 128 128
128 128 128
128 128 128
128 128 128
128 128 128
128 128 128
128 128 128
128 128 128
128 128 128
128 128 128
128 128 128
128 128 128
128 128 128
128 128 128
128 128 128
128 128 128
128 128 128
128 128 128
128 128 128
128 128 128
128 128 128
128 128 128
128 128 128
128 128 128
128 128 128
128 128 128
128 128 128
128 128 128
128 128 128
128 128 128
128 128 128
128 128 128
128 128 128
128 128 128
128 128 128
128 128 128
128 128 128
128 128 128
128 128 128
128 128 128
128 128 128
128 128 128
128 128 128
128 128 128
128 128 128
128 128 128
128 128 128
128 128 128
128 128 128
128 128 128
128 128 128
128 128 128
128 128 128
128 128 128
128 128 128
128 128 128
128 128 128
128 128 128
128 128 128
128 128 128
128 128 128
128 128 128
128 128 128
128 128 128
128 128 128
128 128 128
128 128 128
128 128 128
128 128 128
128 128 128
128 128 128
128 128 128
128 128 128
128 128 128
128 128 128
128 128 128
128 128 128
128 128 128
128 128 128
0 0 0
128 128 128
128 128 128
128 128 128
128 128 128
128 128 128
128 128 128
128 128 128
128 128 128
128 128 128
0 0 0
128 128 128
128 128 128
128 128 128
128 128 128
128 128 128
128 128 128
128 128 128
128 128 128
128 128 128
128 128 128
128 128 128
128 128 128
128 128 128
128 128 128
128 128 128
128 128 128
128 128 128
128 128 128
128 128 128
128 128 128
128 128 128
128 128 128
128 128 128
128 128 128
128 128 128
128 128 128
128 128 128
128 128 128
128 128 128
128 128 128
128 128 128
128 128 128
128 128 128
128 128 128
128 128 128
128 128 128
128 128 128
128 128 128
128 128 128
128 128 128
128 128 128
128 128 128
128 128 128
128 128 128
128 128 128
128 128 128
128 128 128
128 128 128
128 128 128
0 0 0
0 0 0
0 0 0
0 0 0
0 0 0
0 0 0
0 0 0
0 0 0
0 0 0
128 128 128
0 0 0
0 0 0
128 128 128
128 128 128
128 128 128
128 128 128
128 128 128
128 128 128
128 128 128
128 128 128
128 128 128
128 128 128
128 128 128
128 128 128
128 128 128
128 128 128
128 128 128
128 128 128
128 128 128
128 128 128
128 128 128
128 128 128
128 128 128
128 128 128
128 128 128
128 128 128
128 128 128
128 128 128
128 128 128
128 128 128
128 128 128
128 128 128
128 128 128
128 128 128
0 0 0
128 128 128
128 128 128
128 128 128
128 128 128
128 128 128
128 128 128
128 128 128
128 128 128
128 128 128
128 128 128
128 128 128
128 128 128
128 128 128
128 128 128
128 128 128
128 128 128
128 128 128
128 128 128
128 128 128
128 128 128
128 128 128
128 128 128
128 128 128
128 128 128
128 128 128
128 128 128
128 128 128
128 128 128
128 128 128
128 128 128
128 128 128
128 128 128
128 128 128
128 128 128
128 128 128
128 128 128
128 128 128
128 128 128
128 128 128
128 128 128
128 128 128
128 128 128
128 128 128
0 0 0
0 0 0
0 0 0
128 128 128
128 128 128
128 128 128
128 128 128
128 128 128
128 128 128
128 128 128
128 128 128
128 128 128
128 128 128
128 128 128
128 128 128
128 128 128
128 128 128
128 128 128
128 128 128
128 128 128
128 128 128
128 128 128
128 128 128
128 128 128
128 128 128
128 128 128
128 128 128
128 128 128
128 128 128
128 128 128
128 128 128
128 128 128
128 128 128
128 128 128
128 128 128
128 128 128
128 128 128
128 128 128
128 128 128
128 128 128
128 128 128
128 128 128
128 128 128
128 128 128
128 128 128
128 128 128
128 128 128
128 128 128
128 128 128
128 128 128
128 128 128
128 128 128
128 128 128
128 128 128
128 128 128
128 128 128
128 128 128
128 128 128
128 128 128
128 128 128
128 128 128
0 0 0
128 128 128
128 128 128
128 128 128
128 128 128
0 0 0
0 0 0
0 0 0
0 0 0
0 0 0
0 0 0
0 0 0
128 128 128
0 0 0
128 128 128
0 0 0
0 0 0
128 128 128
128 128 128
128 128 128
128 128 128
128 128 128
128 128 128
128 128 128
128 128 128
128 128 128
128 128 128
128 128 128
128 128 128
128 128 128
128 128 128
128 128 128
128 128 128
128 128 128
128 128 128
128 128 128
128 128 128
128 128 128
128 128 128
128 128 128
128 128 128
128 128 128
128 128 128
128 128 128
128 128 128
128 128 128
128 128 128
0 0 0
128 128 128
128 128 128
128 128 128
128 128 128
128 128 128
128 128 128
128 128 128
128 128 128
128 128 128
128 128 128
128 128 128
128 128 128
128 128 128
128 128 128
128 128 128
128 128 128
128 128 128
128 128 128
128 128 128
128 128 128
128 128 128
128 128 128
128 128 128
128 128 128
128 128 128
128 128 128
128 128 128
128 128 128
128 128 128
128 128 128
128 128 128
128 128 128
128 128 128
128 128 128
128 128 128
128 128 128
128 128 128
128 128 128
128 128 128
128 128 128
128 128 128
128 128 128
128 128 128
128 128 128
128 128 128
128 128 128
128 128 128
128 128 128
128 128 128
128 128 128
128 128 128
0 0 0
0 0 0
128 128 128
128 128 128
128 128 128
128 128 128
128 128 128
128 128 128
128 128 128
128 128 128
128 128 128
128 128 128
128 128 128
128 128 128
128 128 128
128 128 128
128 128 128
128 128 128
128 128 128
128 128 128
128 128 128
128 128 128
128 128 128
128 128 128
128 128 128
128 128 128
128 128 128
128 128 128
128 128 128
128 128 128
128 128 128
128 128 128
128 128 128
128 128 128
128 128 128
128 128 128
128 128 128
128 128 128
128 128 128
128 128 128
128 128 128
128 128 128
128 128 128
128 128 128
128 128 128
128 128 128
128 128 128
128 128 128
128 128 128
128 128 128
128 128 128
128 128 128
128 128 128
128 128 128
128 128 128
128 128 128
128 128 128
128 128 128
128 128 128
128 128 128
0 0 0
0 0 0
0 0 0
0 0 0
0 0 0
0 0 0
0 0 0
128 128 128
0 0 0
0 0 0
0 0 0
0 0 0
128 128 128
128 128 128
128 128 128
128 128 128
128 128 128
128 128 128
128 128 128
128 128 128
128 128 128
128 128 128
128 128 128
128 128 128
128 128 128
128 128 128
128 128 128
128 128 128
128 128 128
128 128 128
128 128 128
128 128 128
128 128 128
128 128 128
128 128 128
128 128 128
128 128 128
128 128 128
128 128 128
128 128 128
128 128 128
128 128 128
128 128 128
128 128 128
128 128 128
128 128 128
128 128 128
128 128 128
128 128 128
128 128 128
128 128 128
128 128 128
128 128 128
128 128 128
128 128 128
128 128 128
128 128 128
128 128 128
128 128 128
128 128 128
128 128 128
128 128 128
128 128 128
128 128 128
128 128 128
128 128 128
128 128 128
128 128 128
128 128 128
128 128 128
128 128 128
128 128 128
128 128 128
128 128 128
128 128 128
128 128 128
128 128 128
128 128 128
128 128 128
128 128 128
128 128 128
128 128 128
128 128 128
128 128 128
128 128 128
128 128 128
128 128 128
128 128 128
128 128 128
128 128 128
128 128 128
128 128 128
128 128 128
128 128 128
128 128 128
128 128 128
128 128 128
128 128 128
128 128 128
128 128 128
128 128 128
128 128 128
128 128 128
128 128 128
128 128 128
128 128 128
128 128 128
128 128 128
128 128 128
128 128 128
128 128 128
128 128 128
128 128 128
128 128 128
128 128 128
128 128 128
128 128 128
128 128 128
128 128 128
128 128 128
128 128 128
128 128 128
128 128 128
128 128 128
128 128 128
128 128 128
128 128 128
128 128 128
128 128 128
128 128 128
128 128 128
128 128 128
128 128 128
128 128 128
128 128 128
128 128 128
128 128 128
128 128 128
128 128 128
128 128 128
128 128 128
128 128 128
128 128 128
128 128 128
128 128 128
128 128 128
128 128 128
128 128 128
128 128 128
128 128 128
128 128 128
128 128 128
128 128 128
0 0 0
0 0 0
0 0 0
0 0 0
0 0 0
0 0 0
0 0 0
0 0 0
0 0 0
0 0 0
0 0 0
0 0 0
0 0 0
128 128 128
128 128 128
128 128 128
128 128 128
128 128 128
128 128 128
128 128 128
128 128 128
128 128 128
128 128 128
128 128 128
128 128 128
128 128 128
128 128 128
128 128 128
128 128 128
128 128 128
128 128 128
128 128 128
128 128 128
128 128 128
128 128 128
128 128 128
128 128 128
128 128 128
0 0 0
128 128 128
128 128 128
128 128 128
128 128 128
128 128 128
128 128 128
128 128 128
128 128 128
128 128 128
128 128 128
128 128 128
128 128 128
128 128 128
128 128 128
128 128 128
128 128 128
128 128 128
128 128 128
128 128 128
128 128 128
128 128 128
128 128 128
128 128 128
128 128 128
128 128 128
128 128 128
128 128 128
128 128 128
128 128 128
128 128 128
128 128 128
128 128 128
128 128 128
128 128 128
128 128 128
128 128 128
128 128 128
128 128 128
128 128 128
128 128 128
128 128 128
0 0 0
0 0 0
128 128 128
128 128 128
128 128 128
128 128 128
128 128 128
128 128 128
128 128 128
128 128 128
128 128 128
128 128 128
128 128 128
128 128 128
128 128 128
128 128 128
128 128 128
128 128 128
128 128 128
128 128 128
128 128 128
128 128 128
128 128 128
128 128 128
128 128 128
128 128 128
128 128 128
128 128 128
128 128 128
128 128 128
128 128 128
128 128 128
128 128 128
128 128 128
128 128 128
128 128 128
128 128 128
128 128 128
128 128 128
128 128 128
128 128 128
128 128 128
128 128 128
128 128 128
128 128 128
128 128 128
128 128 128
128 128 128
128 128 128
128 128 128
128 128 128
128 128 128
128 128 128
128 128 128
128 128 128
128 128 128
128 128 128
128 128 128
128 128 128
128 128 128
128 128 128
128 128 128
128 128 128
128 128 128
128 128 128
128 128 128
128 128 128
128 128 128
128 128 128
128 128 128
128 128 128
128 128 128
0 0 0
0 0 0
0 0 0
0 0 0
0 0 0
0 0 0
0 0 0
0 0 0
0 0 0
0 0 0
0 0 0
0 0 0
128 128 128
0 0 0
0 0 0
128 128 128
128 128 128
128 128 128
128 128 128
128 128 128
128 128 128
128 128 128
128 128 128
128 128 128
128 128 128
128 128 128
128 128 128
128 128 128
128 128 128
128 128 128
128 128 128
128 128 128
128 128 128
128 128 128
128 128 128
128 128 128
128 128 128
128 128 128
128 128 128
128 128 128
128 128 128
128 128 128
128 128 128
128 128 128
128 128 128
128 128 128
128 128 128
128 128 128
128 128 128
128 128 128
128 128 128
128 128 128
128 128 128
128 128 128
128 128 128
128 128 128
128 128 128
128 128 128
128 128 128
128 128 128
128 128 128
128 128 128
128 128 128
128 128 128
128 128 128
128 128 128
128 128 128
128 128 128
128 128 128
128 128 128
128 128 128
128 128 128
128 128 128
128 128 128
128 128 128
128 128 128
128 128 128
128 128 128
128 128 128
128 128 128
128 128 128
128 128 128
128 128 128
128 128 128
128 128 128
128 128 128
128 128 128
128 128 128
128 128 128
128 128 128
128 128 128
128 128 128
128 128 128
128 128 128
128 128 128
128 128 128
128 128 128
128 128 128
128 128 128
128 128 128
128 128 128
128 128 128
128 128 128
128 128 128
128 128 128
128 128 128
128 128 128
128 128 128
128 128 128
128 128 128
128 128 128
128 128 128
128 128 128
128 128 128
128 128 128
128 128 128
128 128 128
128 128 128
128 128 128
128 128 128
128 128 128
128 128 128
128 128 128
128 128 128
128 128 128
128 128 128
128 128 128
128 128 128
128 128 128
128 128 128
128 128 128
128 128 128
128 128 128
128 128 128
128 128 128
128 128 128
128 128 128
128 128 128
128 128 128
128 128 128
128 128 128
128 128 128
128 128 128
128 128 128
128 128 128
128 128 128
128 128 128
128 128 128
128 128 128
128 128 128
128 128 128
128 128 128
0 0 0
0 0 0
0 0 0
0 0 0
0 0 0
128 128 128
128 128 128
128 128 128
0 0 0
0 0 0
0 0 0
0 0 0
0 0 0
128 128 128
128 128 128
0 0 0
0 0 0
128 128 128
128 128 128
128 128 128
128 128 128
128 128 128
128 128 128
128 128 128
128 128 128
128 128 128
128 128 128
128 128 128
128 128 128
128 128 128
128 128 128
128 128 128
128 128 128
128 128 128
128 128 128
128 128 128
128 128 128
128 128 128
128 128 128
128 128 128
128 128 128
128 128 128
128 128 128
128 128 128
128 128 128
128 128 128
128 128 128
128 128 128
128 128 128
128 128 128
128 128 128
128 128 128
128 128 128
128 128 128
128 128 128
128 128 128
128 128 128
128 128 128
128 128 128
128 128 128
128 128 128
128 128 128
128 128 128
128 128 128
128 128 128
128 128 128
128 128 128
128 128 128
128 128 128
128 128 128
128 128 128
128 128 128
128 128 128
128 128 128
128 128 128
128 128 128
128 128 128
128 128 128
128 128 128
128 128 128
128 128 128
128 128 128
128 128 128
128 128 128
128 128 128
128 128 128
128 128 128
128 128 128
128 128 128
128 128 128
128 128 128
128 128 128
128 128 128
128 128 128
128 128 128
128 128 128
128 128 128
128 128 128
128 128 128
128 128 128
128 128 128
128 128 128
128 128 128
128 128 128
128 128 128
128 128 128
128 128 128
128 128 128
128 128 128
128 128 128
128 128 128
128 128 128
128 128 128
128 128 128
128 128 128
128 128 128
128 128 128
128 128 128
128 128 128
128 128 128
128 128 128
128 128 128
128 128 128
128 128 128
128 128 128
128 128 128
128 128 128
128 128 128
128 128 128
128 128 128
128 128 128
128 128 128
128 128 128
128 128 128
128 128 128
128 128 128
128 128 128
128 128 128
128 128 128
128 128 128
128 128 128
128 128 128
128 128 128
128 128 128
128 128 128
128 128 128
128 128 128
128 128 128
128 128 128
128 128 128
128 128 128
128 128 128
128 128 128
128 128 128
128 128 128
128 128 128
128 128 128
128 128 128
128 128 128
128 128 128
128 128 128
128 128 128
128 128 128
128 128 128
0 0 0
0 0 0
128 128 128
128 128 128
128 128 128
0 0 0
0 0 0
128 128 128
128 128 128
128 128 128
128 128 128
128 128 128
128 128 128
128 128 128
128 128 128
128 128 128
128 128 128
128 128 128
128 128 128
128 128 128
128 128 128
128 128 128
128 128 128
128 128 128
128 128 128
128 128 128
128 128 128
128 128 128
128 128 128
128 128 128
128 128 128
128 128 128
128 128 128
128 128 128
128 128 128
0 0 0
128 128 128
128 128 128
128 128 128
128 128 128
128 128 128
128 128 128
128 128 128
128 128 128
128 128 128
128 128 128
128 128 128
128 128 128
128 128 128
128 128 128
128 128 128
128 128 128
128 128 128
128 128 128
128 128 128
128 128 128
128 128 128
128 128 128
128 128 128
128 128 128
128 128 128
128 128 128
128 128 128
128 128 128
128 128 128
0 0 0
128 128 128
128 128 128
128 128 128
128 128 128
128 128 128
128 128 128
128 128 128
128 128 128
128 128 128
128 128 128
128 128 128
128 128 128
128 128 128
128 128 128
128 128 128
128 128 128
128 128 128
128 128 128
128 128 128
128 128 128
128 128 128
128 128 128
128 128 128
128 128 128
128 128 128
128 128 128
128 128 128
128 128 128
128 128 128
128 128 128
128 128 128
128 128 128
128 128 128
128 128 128
128 128 128
128 128 128
128 128 128
128 128 128
128 128 128
128 128 128
128 128 128
128 128 128
128 128 128
128 128 128
128 128 128
128 128 128
128 128 128
128 128 128
128 128 128
128 128 128
128 128 128
128 128 128
128 128 128
128 128 128
128 128 128
128 128 128
128 128 128
128 128 128
128 128 128
128 128 128
128 128 128
128 128 128
128 128 128
128 128 128
128 128 128
128 128 128
128 128 128
128 128 128
128 128 128
128 128 128
128 128 128
128 128 128
128 128 128
128 128 128
128 128 128
128 128 128
128 128 128
128 128 128
128 128 128
128 128 128
128 128 128
128 128 128
128 128 128
128 128 128
128 128 128
128 128 128
0 0 0
0 0 0
0 0 0
0 0 0
0 0 0
128 128 128
128 128 128
0 0 0
0 0 0
128 128 128
128 128 128
128 128 128
128 128 128
128 128 128
128 128 128
128 128 128
128 128 128
128 128 128
128 128 128
128 128 128
128 128 128
128 128 128
128 128 128
128 128 128
128 128 128
128 128 128
128 128 128
128 128 128
128 128 128
128 128 128
128 128 128
128 128 128
128 128 128
128 128 128
128 128 128
128 128 128
128 128 128
128 128 128
128 128 128
128 128 128
128 128 128
128 128 128
128 128 128
128 128 128
128 128 128
128 128 128
128 128 128
128 128 128
128 128 128
128 128 128
128 128 128
128 128 128
128 128 128
128 128 128
128 128 128
128 128 128
128 128 128
128 128 128
128 128 128
128 128 128
128 128 128
128 128 128
128 128 128
128 128 128
128 128 128
128 128 128
128 128 128
128 128 128
128 128 128
128 128 128
128 128 128
128 128 128
128 128 128
128 128 128
128 128 128
128 128 128
128 128 128
128 128 128
128 128 128
128 128 128
128 128 128
128 128 128
128 128 128
128 128 128
128 128 128
128 128 128
128 128 128
128 128 128
128 128 128
128 128 128
128 128 128
128 128 128
128 128 128
128 128 128
128 128 128
128 128 128
128 128 128
128 128 128
128 128 128
128 128 128
128 128 128
128 128 128
128 128 128
128 128 128
128 128 128
128 128 128
128 128 128
128 128 128
128 128 128
128 128 128
128 128 128
128 128 128
128 128 128
128 128 128
128 128 128
128 128 128
128 128 128
128 128 128
128 128 128
128 128 128
128 128 128
128 128 128
128 128 128
128 128 128
128 128 128
128 128 128
128 128 128
128 128 128
128 128 128
128 128 128
128 128 128
128 128 128
128 128 128
128 128 128
128 128 128
128 128 128
128 128 128
128 128 128
128 128 128
128 128 128
128 128 128
128 128 128
128 128 128
128 128 128
128 128 128
128 128 128
128 128 128
128 128 128
128 128 128
128 128 128
128 128 128
0 0 0
0 0 0
0 0 0
0 0 0
0 0 0
0 0 0
0 0 0
0 0 0
128 128 128
128 128 128
0 0 0
0 0 0
128 128 128
128 128 128
128 128 128
128 128 128
128 128 128
128 128 128
128 128 128
128 128 128
128 128 128
128 128 128
128 128 128
128 128 128
128 128 128
128 128 128
128 128 128
128 128 128
128 128 128
128 128 128
128 128 128
128 128 128
128 128 128
128 128 128
128 128 128
128 128 128
128 128 128
128 128 128
128 128 128
128 128 128
128 128 128
128 128 128
128 128 128
128 128 128
128 128 128
128 128 128
128 128 128
128 128 128
128 128 128
128 128 128
128 128 128
128 128 128
128 128 128
128 128 128
128 128 128
128 128 128
128 128 128
128 128 128
128 128 128
128 128 128
128 128 128
128 128 128
128 128 128
128 128 128
128 128 128
128 128 128
128 128 128
128 128 128
128 128 128
128 128 128
128 128 128
128 128 128
128 128 128
128 128 128
128 128 128
128 128 128
128 128 128
128 128 128
128 128 128
128 128 128
128 128 128
128 128 128
128 128 128
128 128 128
128 128 128
128 128 128
128 128 128
128 128 128
128 128 128
128 128 128
128 128 128
128 128 128
128 128 128
128 128 128
128 128 128
128 128 128
128 128 128
128 128 128
128 128 128
128 128 128
128 128 128
128 128 128
128 128 128
128 128 128
128 128 128
128 128 128
128 128 128
128 128 128
128 128 128
128 128 128
128 128 128
128 128 128
128 128 128
128 128 128
128 128 128
128 128 128
128 128 128
128 128 128
128 128 128
128 128 128
128 128 128
128 128 128
128 128 128
128 128 128
128 128 128
128 128 128
128 128 128
128 128 128
128 128 128
128 128 128
128 128 128
128 128 128
128 128 128
128 128 128
128 128 128
128 128 128
128 128 128
128 128 128
128 128 128
128 128 128
128 128 128
128 128 128
128 128 128
128 128 128
128 128 128
128 128 128
128 128 128
128 128 128
128 128 128
128 128 128
128 128 128
128 128 128
0 0 0
0 0 0
0 0 0
0 0 0
0 0 0
0 0 0
0 0 0
0 0 0
0 0 0
0 0 0
0 0 0
0 0 0
0 0 0
0 0 0
128 128 128
128 128 128
128 128 128
128 128 128
128 128 128
128 128 128
128 128 128
128 128 128
128 128 128
128 128 128
128 128 128
128 128 128
128 128 128
128 128 128
128 128 128
128 128 128
128 128 128
128 128 128
128 128 128
128 128 128
128 128 128
128 128 128
128 128 128
128 128 128
128 128 128
128 128 128
128 128 128
128 128 128
128 128 128
128 128 128
128 128 128
128 128 128
128 128 128
128 128 128
128 128 128
128 128 128
128 128 128
128 128 128
128 128 128
128 128 128
128 128 128
128 128 128
128 128 128
128 128 128
128 128 128
128 128 128
128 128 128
128 128 128
128 128 128
128 128 128
128 128 128
128 128 128
128 128 128
128 128 128
128 128 128
128 128 128
128 128 128
128 128 128
128 128 128
128 128 128
128 128 128
128 128 128
128 128 128
128 128 128
128 128 128
128 128 128
128 128 128
128 128 128
128 128 128
128 128 128
128 128 128
128 128 128
128 128 128
128 128 128
128 128 128
128 128 128
128 128 128
128 128 128
128 128 128
128 128 128
128 128 128
128 128 128
128 128 128
128 128 128
128 128 128
128 128 128
128 128 128
128 128 128
128 128 128
128 128 128
128 128 128
128 128 128
128 128 128
128 128 128
128 128 128
128 128 128
128 128 128
128 128 128
128 128 128
128 128 128
128 128 128
128 128 128
128 128 128
128 128 128
128 128 128
128 128 128
128 128 128
128 128 128
128 128 128
128 128 128
128 128 128
128 128 128
128 128 128
128 128 128
128 128 128
128 128 128
128 128 128
128 128 128
128 128 128
128 128 128
128 128 128
128 128 128
128 128 128
128 128 128
128 128 128
128 128 128
128 128 128
128 128 128
128 128 128
128 128 128
128 128 128
128 128 128
128 128 128
128 128 128
128 128 128
128 128 128
128 128 128
128 128 128
128 128 128
0 0 0
0 0 0
0 0 0
0 0 0
0 0 0
0 0 0
0 0 0
0 0 0
0 0 0
0 0 0
0 0 0
0 0 0
128 128 128
0 0 0
0 0 0
128 128 128
128 128 128
128 128 128
128 128 128
128 128 128
128 128 128
128 128 128
128 128 128
128 128 128
128 128 128
128 128 128
128 128 128
128 128 128
128 128 128
128 128 128
128 128 128
128 128 128
128 128 128
128 128 128
128 128 128
128 128 128
128 128 128
128 128 128
128 128 128
128 128 128
128 128 128
128 128 128
128 128 128
128 128 128
128 128 128
128 128 128
128 128 128
128 128 128
128 128 128
128 128 128
128 128 128
128 128 128
128 128 128
128 128 128
128 128 128
128 128 128
128 128 128
128 128 128
128 128 128
128 128 128
128 128 128
128 128 128
128 128 128
128 128 128
128 128 128
128 128 128
128 128 128
128 128 128
128 128 128
128 128 128
128 128 128
128 128 128
128 128 128
128 128 128
128 128 128
128 128 128
128 128 128
128 128 128
128 128 128
128 128 128
128 128 128
128 128 128
128 128 128
128 128 128
128 128 128
128 128 128
128 128 128
128 128 128
128 128 128
128 128 128
128 128 128
128 128 128
128 128 128
128 128 128
128 128 128
128 128 128
128 128 128
128 128 128
128 128 128
128 128 128
128 128 128
128 128 128
128 128 128
128 128 128
128 128 128
128 128 128
128 128 128
128 128 128
128 128 128
128 128 128
128 128 128
128 128 128
128 128 128
128 128 128
128 128 128
128 128 128
128 128 128
128 128 128
128 128 128
128 128 128
128 128 128
128 128 128
128 128 128
128 128 128
128 128 128
128 128 128
128 128 128
128 128 128
128 128 128
128 128 128
128 128 128
128 128 128
128 128 128
128 128 128
128 128 128
128 128 128
128 128 128
128 128 128
128 128 128
128 128 128
128 128 128
128 128 128
128 128 128
128 128 128
128 128 128
128 128 128
128 128 128
128 128 128
128 128 128
128 128 128
128 128 128
128 128 128
0 0 0
0 0 0
0 0 0
0 0 0
128 128 128
0 0 0
0 0 0
0 0 0
0 0 0
0 0 0
0 0 0
0 0 0
0 0 0
0 0 0
128 128 128
0 0 0
0 0 0
128 128 128
128 128 128
128 128 128
128 128 128
128 128 128
128 128 128
128 128 128
128 128 128
128 128 128
128 128 128
128 128 128
128 128 128
128 128 128
128 128 128
128 128 128
128 128 128
128 128 128
128 128 128
128 128 128
128 128 128
128 128 128
128 128 128
128 128 128
128 128 128
128 128 128
128 128 128
128 128 128
128 128 128
128 128 128
128 128 128
128 128 128
128 128 128
128 128 128
128 128 128
128 128 128
128 128 128
128 128 128
128 128 128
128 128 128
128 128 128
128 128 128
128 128 128
128 128 128
128 128 128
128 128 128
128 128 128
128 128 128
128 128 128
128 128 128
128 128 128
128 128 128
128 128 128
128 128 128
128 128 128
128 128 128
128 128 128
128 128 128
128 128 128
128 128 128
128 128 128
128 128 128
128 128 128
128 128 128
128 128 128
128 128 128
128 128 128
128 128 128
128 128 128
128 128 128
128 128 128
128 128 128
128 128 128
128 128 128
128 128 128
128 128 128
128 128 128
128 128 128
128 128 128
128 128 128
128 128 128
128 128 128
128 128 128
128 128 128
128 128 128
128 128 128
128 128 128
128 128 128
128 128 128
128 128 128
128 128 128
128 128 128
128 128 128
128 128 128
128 128 128
128 128 128
128 128 128
128 128 128
128 128 128
128 128 128
128 128 128
128 128 128
128 128 128
128 128 128
128 128 128
128 128 128
128 128 128
128 128 128
128 128 128
128 128 128
128 128 128
128 128 128
128 128 128
128 128 128
128 128 128
128 128 128
128 128 128
128 128 128
128 128 128
128 128 128
128 128 128
128 128 128
128 128 128
128 128 128
128 128 128
128 128 128
128 128 128
128 128 128
128 128 128
128 128 128
128 128 128
128 128 128
128 128 128
128 128 128
128 128 128
128 128 128
128 128 128
128 128 128
128 128 128
128 128 128
128 128 128
128 128 128
128 128 128
0 0 0
0 0 0
0 0 0
0 0 0
0 0 0
0 0 0
0 0 0
0 0 0
0 0 0
0 0 0
0 0 0
0 0 0
128 128 128
128 128 128
128 128 128
128 128 128
128 128 128
128 128 128
128 128 128
128 128 128
128 128 128
128 128 128
128 128 128
128 128 128
128 128 128
128 128 128
128 128 128
128 128 128
128 128 128
128 128 128
128 128 128
128 128 128
128 128 128
128 128 128
128 128 128
128 128 128
128 128 128
128 128 128
128 128 128
128 128 128
128 128 128
128 128 128
128 128 128
128 128 128
128 128 128
128 128 128
128 128 128
128 128 128
128 128 128
128 128 128
128 128 128
128 128 128
128 128 128
128 128 128
128 128 128
128 128 128
128 128 128
128 128 128
128 128 128
128 128 128
128 128 128
128 128 128
128 128 128
128 128 128
128 128 128
128 128 128
128 128 128
128 128 128
128 128 128
128 128 128
128 128 128
128 128 128
128 128 128
128 128 128
128 128 128
128 128 128
128 128 128
128 128 128
128 128 128
128 128 128
128 128 128
128 128 128
128 128 128
128 128 128
128 128 128
128 128 128
128 128 128
128 128 128
128 128 128
128 128 128
128 128 128
128 128 128
128 128 128
128 128 128
128 128 128
128 128 128
128 128 128
128 128 128
128 128 128
128 128 128
128 128 128
128 128 128
128 128 128
128 128 128
128 128 128
128 128 128
128 128 128
128 128 128
128 128 128
128 128 128
128 128 128
128 128 128
128 128 128
128 128 128
128 128 128
128 128 128
128 128 128
128 128 128
128 128 128
128 128 128
128 128 128
128 128 128
128 128 128
128 128 128
128 128 128
128 128 128
128 128 128
128 128 128
128 128 128
128 128 128
0 0 0
0 0 0
128 128 128
128 128 128
128 128 128
128 128 128
128 128 128
128 128 128
128 128 128
128 128 128
128 128 128
128 128 128
128 128 128
128 128 128
128 128 128
128 128 128
128 128 128
128 128 128
128 128 128
128 128 128
128 128 128
128 128 128
128 128 128
128 128 128
0 0 0
0 0 0
0 0 0
0 0 0
0 0 0
0 0 0
0 0 0
0 0 0
0 0 0
128 128 128
0 0 0
0 0 0
128 128 128
128 128 128
128 128 128
128 128 128
128 128 128
128 128 128
128 128 128
128 128 128
128 128 128
128 128 128
128 128 128
128 128 128
128 128 128
128 128 128
128 128 128
128 128 128
128 128 128
128 128 128
128 128 128
128 128 128
128 128 128
128 128 128
128 128 128
128 128 128
128 128 128
128 128 128
128 128 128
128 128 128
128 128 128
128 128 128
128 128 128
128 128 128
128 128 128
128 128 128
128 128 128
128 128 128
128 128 128
128 128 128
128 128 128
128 128 128
128 128 128
128 128 128
128 128 128
128 128 128
128 128 128
128 128 128
128 128 128
128 128 128
128 128 128
128 128 128
128 128 128
128 128 128
128 128 128
128 128 128
128 128 128
128 128 128
128 128 128
128 128 128
128 128 128
128 128 128
128 128 128
128 128 128
128 128 128
128 128 128
128 128 128
128 128 128
128 128 128
128 128 128
128 128 128
128 128 128
128 128 128
128 128 128
128 128 128
128 128 128
128 128 128
128 128 128
128 128 128
128 128 128
128 128 128
128 128 128
128 128 128
128 128 128
128 128 128
128 128 128
128 128 128
128 128 128
128 128 128
128 128 128
128 128 128
128 128 128
128 128 128
128 128 128
128 128 128
128 128 128
128 128 128
128 128 128
128 128 128
128 128 128
128 128 128
128 128 128
128 128 128
128 128 128
128 128 128
128 128 128
128 128 128
128 128 128
128 128 128
128 128 128
128 128 128
128 128 128
128 128 128
128 128 128
128 128 128
128 128 128
128 128 128
128 128 128
128 128 128
128 128 128
128 128 128
128 128 128
128 128 128
128 128 128
128 128 128
128 128 128
128 128 128
128 128 128
128 128 128
128 128 128
128 128 128
128 128 128
128 128 128
128 128 128
128 128 128
128 128 128
128 128 128
128 128 128
128 128 128
128 128 128
128 128 128
128 128 128
128 128 128
128 128 128
0 0 0
0 0 0
0 0 0
0 0 0
0 0 0
0 0 0
0 0 0
0 0 0
0 0 0
128 128 128
128 128 128
0 0 0
128 128 128
128 128 128
128 128 128
128 128 128
128 128 128
128 128 128
128 128 128
128 128 128
128 128 128
128 128 128
128 128 128
128 128 128
128 128 128
128 128 128
128 128 128
128 128 128
128 128 128
128 128 128
128 128 128
128 128 128
128 128 128
128 128 128
128 128 128
128 128 128
128 128 128
128 128 128
128 128 128
128 128 128
128 128 128
128 128 128
128 128 128
128 128 128
128 128 128
128 128 128
128 128 128
128 128 128
128 128 128
128 128 128
128 128 128
128 128 128
128 128 128
128 128 128
128 128 128
128 128 128
128 128 128
128 128 128
128 128 128
128 128 128
128 128 128
128 128 128
128 128 128
128 128 128
128 128 128
128 128 128
128 128 128
128 128 128
128 128 128
128 128 128
128 128 128
128 128 128
128 128 128
128 128 128
128 128 128
128 128 128
128 128 128
128 128 128
128 128 128
128 128 128
128 128 128
128 128 128
128 128 128
128 128 128
128 128 128
128 128 128
128 128 128
128 128 128
128 128 128
128 128 128
128 128 128
128 128 128
128 128 128
128 128 128
128 128 128
128 128 128
128 128 128
128 128 128
128 128 128
128 128 128
128 128 128
128 128 128
128 128 128
128 128 128
128 128 128
128 128 128
128 128 128
128 128 128
128 128 128
128 128 128
128 128 128
128 128 128
128 128 128
128 128 128
128 128 128
128 128 128
128 128 128
128 128 128
128 128 128
128 128 128
128 128 128
128 128 128
128 128 128
128 128 128
128 128 128
128 128 128
128 128 128
128 128 128
128 128 128
128 128 128
128 128 128
128 128 128
128 128 128
128 128 128
128 128 128
128 128 128
128 128 128
128 128 128
128 128 128
128 128 128
128 128 128
128 128 128
128 128 128
128 128 128
128 128 128
128 128 128
128 128 128
128 128 128
128 128 128
128 128 128
128 128 128
128 128 128
128 128 128
128 128 128
128 128 128
0 0 0
0 0 0
0 0 0
0 0 0
0 0 0
0 0 0
0 0 0
0 0 0
0 0 0
0 0 0
0 0 0
128 128 128
128 128 128
128 128 128
128 128 128
128 128 128
128 128 128
128 128 128
128 128 128
128 128 128
128 128 128
128 128 128
128 128 128
128 128 128
128 128 128
128 128 128
128 128 128
128 128 128
128 128 128
128 128 128
128 128 128
128 128 128
128 128 128
128 128 128
128 128 128
128 128 128
128 128 128
128 128 128
128 128 128
128 128 128
128 128 128
128 128 128
128 128 128
128 128 128
128 128 128
128 128 128
128 128 128
128 128 128
128 128 128
128 128 128
128 128 128
128 128 128
128 128 128
128 128 128
128 128 128
128 128 128
128 128 128
128 128 128
128 128 128
128 128 128
128 128 128
128 128 128
128 128 128
128 128 128
128 128 128
128 128 128
128 128 128
128 128 128
128 128 128
0 0 0
128 128 128
128 128 128
128 128 128
128 128 128
128 128 128
128 128 128
128 128 128
128 128 128
128 128 128
128 128 128
0 0 0
128 128 128
128 128 128
128 128 128
128 128 128
128 128 128
128 128 128
128 128 128
128 128 128
128 128 128
128 128 128
128 128 128
128 128 128
128 128 128
128 128 128
128 128 128
128 128 128
128 128 128
128 128 128
128 128 128
128 128 128
128 128 128
128 128 128
128 128 128
128 128 128
128 128 128
128 128 128
128 128 128
128 128 128
128 128 128
128 128 128
128 128 128
128 128 128
128 128 128
128 128 128
128 128 128
128 128 128
128 128 128
128 128 128
128 128 128
128 128 128
128 128 128
128 128 128
128 128 128
128 128 128
128 128 128
128 128 128
128 128 128
128 128 128
128 128 128
128 128 128
128 128 128
128 128 128
128 128 128
128 128 128
128 128 128
128 128 128
128 128 128
128 128 128
128 128 128
128 128 128
128 128 128
128 128 128
128 128 128
128 128 128
128 128 128
128 128 128
128 128 128
128 128 128
128 128 128
128 128 128
128 128 128
128 128 128
128 128 128
0 0 0
0 0 0
0 0 0
0 0 0
0 0 0
128 128 128
128 128 128
128 128 128
128 128 128
0 0 0
0 0 0
128 128 128
128 128 128
128 128 128
128 128 128
128 128 128
128 128 128
128 128 128
128 128 128
128 128 128
128 128 128
128 128 128
128 128 128
128 128 128
128 128 128
128 128 128
128 128 128
128 128 128
128 128 128
128 128 128
128 128 128
128 128 128
128 128 128
128 128 128
128 128 128
128 128 128
128 128 128
128 128 128
128 128 128
128 128 128
128 128 128
128 128 128
128 128 128
128 128 128
128 128 128
128 128 128
128 128 128
128 128 128
128 128 128
128 128 128
128 128 128
128 128 128
128 128 128
128 128 128
128 128 128
128 128 128
128 128 128
128 128 128
128 128 128
128 128 128
128 128 128
128 128 128
128 128 128
128 128 128
128 128 128
128 128 128
128 128 128
128 128 128
128 128 128
128 128 128
128 128 128
128 128 128
128 128 128
128 128 128
128 128 128
128 128 128
128 128 128
128 128 128
128 128 128
128 128 128
128 128 128
128 128 128
128 128 128
128 128 128
128 128 128
128 128 128
128 128 128
128 128 128
128 128 128
128 128 128
128 128 128
128 128 128
128 128 128
128 128 128
128 128 128
128 128 128
128 128 128
128 128 128
128 128 128
128 128 128
128 128 128
128 128 128
128 128 128
128 128 128
128 128 128
128 128 128
128 128 128
128 128 128
128 128 128
128 128 128
128 128 128
128 128 128
128 128 128
128 128 128
128 128 128
128 128 128
128 128 128
128 128 128
128 128 128
128 128 128
128 128 128
128 128 128
128 128 128
128 128 128
128 128 128
128 128 128
128 128 128
128 128 128
128 128 128
128 128 128
128 128 128
128 128 128
128 128 128
128 128 128
128 128 128
128 128 128
128 128 128
128 128 128
128 128 128
128 128 128
128 128 128
128 128 128
128 128 128
128 128 128
128 128 128
128 128 128
128 128 128
128 128 128
128 128 128
128 128 128
128 128 128
128 128 128
128 128 128
128 128 128
0 0 0
0 0 0
0 0 0
128 128 128
128 128 128
128 128 128
128 128 128
128 128 128
128 128 128
128 128 128
0 0 0
128 128 128
128 128 128
128 128 128
128 128 128
128 128 128
128 128 128
128 128 128
128 128 128
128 128 128
128 128 128
128 128 128
128 128 128
128 128 128
128 128 128
128 128 128
128 128 128
128 128 128
128 128 128
128 128 128
128 128 128
128 128 128
128 128 128
128 128 128
128 128 128
128 128 128
128 128 128
128 128 128
128 128 128
128 128 128
128 128 128
128 128 128
128 128 128
128 128 128
128 128 128
128 128 128
128 128 128
128 128 128
128 128 128
128 128 128
128 128 128
128 128 128
128 128 128
128 128 128
128 128 128
128 128 128
128 128 128
128 128 128
128 128 128
128 128 128
128 128 128
128 128 128
128 128 128
128 128 128
128 128 128
128 128 128
128 128 128
128 128 128
128 128 128
0 0 0
0 0 0
128 128 128
128 128 128
128 128 128
128 128 128
128 128 128
128 128 128
128 128 128
128 128 128
128 128 128
128 128 128
128 128 128
128 128 128
128 128 128
128 128 128
128 128 128
128 128 128
128 128 128
128 128 128
128 128 128
128 128 128
128 128 128
128 128 128
128 128 128
128 128 128
128 128 128
128 128 128
128 128 128
128 128 128
128 128 128
128 128 128
128 128 128
128 128 128
128 128 128
128 128 128
128 128 128
128 128 128
128 128 128
128 128 128
128 128 128
128 128 128
128 128 128
128 128 128
128 128 128
128 128 128
128 128 128
128 128 128
128 128 128
128 128 128
128 128 128
128 128 128
128 128 128
128 128 128
128 128 128
128 128 128
128 128 128
128 128 128
128 128 128
128 128 128
128 128 128
128 128 128
128 128 128
128 128 128
128 128 128
128 128 128
128 128 128
128 128 128
128 128 128
128 128 128
128 128 128
128 128 128
128 128 128
128 128 128
128 128 128
128 128 128
128 128 128
128 128 128
128 128 128
128 128 128
128 128 128
128 128 128
128 128 128
128 128 128
128 128 128
128 128 128
128 128 128
128 128 128
128 128 128
0 0 0
0 0 0
128 128 128
128 128 128
128 128 128
128 128 128
0 0 0
128 128 128
128 128 128
128 128 128
128 128 128
128 128 128
128 128 128
128 128 128
128 128 128
128 128 128
128 128 128
128 128 128
128 128 128
128 128 128
128 128 128
128 128 128
128 128 128
128 128 128
128 128 128
0 0 0
128 128 128
128 128 128
128 128 128
128 128 128
128 128 128
128 128 128
128 128 128
128 128 128
128 128 128
128 128 128
128 128 128
128 128 128
128 128 128
128 128 128
128 128 128
128 128 128
128 128 128
128 128 128
128 128 128
128 128 128
128 128 128
128 128 128
128 128 128
128 128 128
128 128 128
128 128 128
128 128 128
128 128 128
128 128 128
128 128 128
128 128 128
128 128 128
128 128 128
128 128 128
128 128 128
128 128 128
128 128 128
128 128 128
0 0 0
128 128 128
0 0 0
128 128 128
128 128 128
128 128 128
128 128 128
128 128 128
128 128 128
128 128 128
128 128 128
128 128 128
128 128 128
128 128 128
128 128 128
128 128 128
128 128 128
128 128 128
128 128 128
128 128 128
128 128 128
128 128 128
128 128 128
128 128 128
128 128 128
128 128 128
128 128 128
128 128 128
128 128 128
128 128 128
128 128 128
128 128 128
128 128 128
128 128 128
128 128 128
128 128 128
128 128 128
128 128 128
128 128 128
128 128 128
128 128 128
128 128 128
128 128 128
128 128 128
128 128 128
128 128 128
128 128 128
128 128 128
128 128 128
128 128 128
128 128 128
128 128 128
128 128 128
128 128 128
128 128 128
128 128 128
128 128 128
128 128 128
128 128 128
128 128 128
128 128 128
128 128 128
128 128 128
128 128 128
128 128 128
128 128 128
128 128 128
0 0 0
128 128 128
128 128 128
128 128 128
128 128 128
128 128 128
128 128 128
128 128 128
128 128 128
128 128 128
128 128 128
128 128 128
128 128 128
128 128 128
128 128 128
128 128 128
128 128 128
128 128 128
128 128 128
128 128 128
128 128 128
128 128 128
128 128 128
128 128 128
128 128 128
128 128 128
128 128 128
128 128 128
128 128 128
128 128 128
128 128 128
128 128 128
128 128 128
128 128 128
128 128 128
128 128 128
128 128 128
128 128 128
128 128 128
128 128 128
128 128 128
128 128 128
128 128 128
128 128 128
128 128 128
128 128 128
128 128 128
128 128 128
128 128 128
128 128 128
128 128 128
128 128 128
128 128 128
128 128 128
128 128 128
128 128 128
128 128 128
128 128 128
128 128 128
128 128 128
128 128 128
128 128 128
128 128 128
128 128 128
128 128 128
128 128 128
128 128 128
128 128 128
128 128 128
128 128 128
128 128 128
128 128 128
128 128 128
128 128 128
128 128 128
128 128 128
128 128 128
128 128 128
128 128 128
128 128 128
128 128 128
128 128 128
128 128 128
128 128 128
128 128 128
128 128 128
128 128 128
128 128 128
128 128 128
128 128 128
128 128 128
128 128 128
128 128 128
128 128 128
128 128 128
128 128 128
128 128 128
128 128 128
128 128 128
128 128 128
128 128 128
128 128 128
128 128 128
128 128 128
128 128 128
128 128 128
128 128 128
128 128 128
128 128 128
128 128 128
128 128 128
128 128 128
128 128 128
128 128 128
128 128 128
128 128 128
128 128 128
128 128 128
128 128 128
128 128 128
128 128 128
128 128 128
128 128 128
128 128 128
128 128 128
128 128 128
128 128 128
128 128 128
128 128 128
128 128 128
128 128 128
128 128 128
128 128 128
128 128 128
128 128 128
128 128 128
128 128 128
128 128 128
128 128 128
128 128 128
128 128 128
128 128 128
128 128 128
128 128 128
128 128 128
128 128 128
128 128 128
128 128 128
128 128 128
128 128 128
128 128 128
128 128 128
128 128 128
128 128 128
128 128 128
128 128 128
128 128 128
128 128 128
128 128 128
128 128 128
128 128 128
128 128 128
128 128 128
128 128 128
128 128 128
128 128 128
128 128 128
128 128 128
128 128 128
128 128 128
128 128 128
128 128 128
128 128 128
128 128 128
128 128 128
128 128 128
128 128 128
128 128 128
128 128 128
128 128 128
128 128 128
128 128 128
128 128 128
128 128 128
128 128 128
128 128 128
128 128 128
128 128 128
128 128 128
128 128 128
128 128 128
128 128 128
128 128 128
128 128 128
128 128 128
128 128 128
128 128 128
128 128 128
128 128 128
128 128 128
128 128 128
128 128 128
128 128 128
128 128 128
128 128 128
128 128 128
128 128 128
128 128 128
128 128 128
128 128 128
128 128 128
128 128 128
128 128 128
128 128 128
128 128 128
128 128 128
128 128 128
128 128 128
128 128 128
128 128 128
128 128 128
128 128 128
128 128 128
128 128 128
128 128 128
128 128 128
128 128 128
128 128 128
128 128 128
128 128 128
128 128 128
128 128 128
128 128 128
128 128 128
128 128 128
128 128 128
128 128 128
128 128 128
128 128 128
128 128 128
128 128 128
128 128 128
128 128 128
128 128 128
128 128 128
128 128 128
128 128 128
128 128 128
128 128 128
128 128 128
128 128 128
128 128 128
128 128 128
128 128 128
128 128 128
128 128 128
128 128 128
128 128 128
128 128 128
128 128 128
128 128 128
128 128 128
128 128 128
128 128 128
128 128 128
128 128 128
128 128 128
128 128 128
128 128 128
128 128 128
128 128 128
128 128 128
128 128 128
128 128 128
128 128 128
128 128 128
128 128 128
128 128 128
128 128 128
128 128 128
128 128 128
128 128 128
128 128 128
128 128 128
128 128 128
128 128 128
128 128 128
128 128 128
128 128 128
128 128 128
128 128 128
128 128 128
128 128 128
128 128 128
128 128 128
128 128 128
128 128 128
128 128 128
128 128 128
128 128 128
128 128 128
128 128 128
128 128 128
128 128 128
128 128 128
128 128 128
128 128 128
128 128 128
128 128 128
128 128 128
128 128 128
128 128 128
128 128 128
128 128 128
128 128 128
128 128 128
128 128 128
128 128 128
128 128 128
128 128 128
128 128 128
128 128 128
128 128 128
128 128 128
128 128 128
128 128 128
128 128 128
128 128 128
128 128 128
128 128 128
128 128 128
128 128 128
128 128 128
128 128 128
128 128 128
128 128 128
128 128 128
128 128 128
128 128 128
128 128 128
128 128 128
128 128 128
128 128 128
128 128 128
128 128 128
128 128 128
128 128 128
128 128 128
128 128 128
128 128 128
128 128 128
128 128 128
128 128 128
0 0 0
128 128 128
128 128 128
128 128 128
128 128 128
128 128 128
128 128 128
128 128 128
128 128 128
128 128 128
128 128 128
128 128 128
128 128 128
128 128 128
128 128 128
128 128 128
128 128 128
128 128 128
128 128 128
128 128 128
128 128 128
128 128 128
128 128 128
128 128 128
128 128 128
128 128 128
128 128 128
128 128 128
128 128 128
128 128 128
128 128 128
128 128 128
128 128 128
128 128 128
128 128 128
128 128 128
128 128 128
128 128 128
128 128 128
128 128 128
128 128 128
128 128 128
128 128 128
0 0 0
128 128 128
128 128 128
128 128 128
128 128 128
128 128 128
128 128 128
128 128 128
128 128 128
128 128 128
128 128 128
128 128 128
128 128 128
128 128 128
128 128 128
128 128 128
128 128 128
128 128 128
128 128 128
128 128 128
128 128 128
128 128 128
128 128 128
128 128 128
128 128 128
128 128 128
128 128 128
128 128 128
128 128 128
128 128 128
128 128 128
128 128 128
128 128 128
128 128 128
128 128 128
128 128 128
128 128 128
128 128 128
128 128 128
128 128 128
128 128 128
128 128 128
128 128 128
128 128 128
128 128 128
128 128 128
128 128 128
128 128 128
128 128 128
128 128 128
128 128 128
128 128 128
128 128 128
128 128 128
128 128 128
128 128 128
128 128 128
128 128 128
128 128 128
128 128 128
128 128 128
128 128 128
128 128 128
128 128 128
128 128 128
128 128 128
128 128 128
128 128 128
128 128 128
128 128 128
128 128 128
128 128 128
128 128 128
128 128 128
128 128 128
128 128 128
128 128 128
128 128 128
128 128 128
128 128 128
128 128 128
128 128 128
128 128 128
128 128 128
128 128 128
128 128 128
128 128 128
128 128 128
128 128 128
128 128 128
128 128 128
128 128 128
128 128 128
128 128 128
128 128 128
128 128 128
128 128 128
128 128 128
128 128 128
128 128 128
128 128 128
128 128 128
128 128 128
128 128 128
128 128 128
128 128 128
128 128 128
128 128 128
128 128 128
128 128 128
128 128 128
128 128 128
128 128 128
128 128 128
128 128 128
128 128 128
128 128 128
128 128 128
128 128 128
128 128 128
128 128 128
128 128 128
128 128 128
128 128 128
128 128 128
128 128 128
128 128 128
128 128 128
128 128 128
128 128 128
128 128 128
128 128 128
128 128 128
128 128 128
128 128 128
128 128 128
128 128 128
128 128 128
128 128 128
128 128 128
128 128 128
128 128 128
128 128 128
128 128 128
128 128 128
128 128 128
128 128 128
128 128 128
128 128 128
128 128 128
128 128 128
128 128 128
128 128 128
128 128 128
128 128 128
128 128 128
128 128 128
128 128 128
0 0 0
128 128 128
128 128 128
128 128 128
0 0 0
128 128 128
128 128 128
128 128 128
128 128 128
128 128 128
128 128 128
128 128 128
128 128 128
128 128 128
128 128 128
128 128 128
128 128 128
128 128 128
128 128 128
128 128 128
128 128 128
128 128 128
128 128 128
128 128 128
128 128 128
128 128 128
128 128 128
128 128 128
128 128 128
128 128 128
128 128 128
128 128 128
128 128 128
128 128 128
128 128 128
128 128 128
128 128 128
128 128 128
128 128 128
128 128 128
128 128 128
128 128 128
128 128 128
128 128 128
128 128 128
128 128 128
128 128 128
128 128 128
128 128 128
128 128 128
128 128 128
128 128 128
128 128 128
128 128 128
128 128 128
128 128 128
128 128 128
0 0 0
128 128 128
128 128 128
128 128 128
128 128 128
128 128 128
128 128 128
128 128 128
128 128 128
128 128 128
128 128 128
128 128 128
128 128 128
128 128 128
128 128 128
128 128 128
128 128 128
128 128 128
128 128 128
128 128 128
128 128 128
128 128 128
128 128 128
128 128 128
128 128 128
128 128 128
128 128 128
128 128 128
128 128 128
128 128 128
128 128 128
128 128 128
128 128 128
128 128 128
128 128 128
128 128 128
128 128 128
128 128 128
128 128 128
128 128 128
128 128 128
128 128 128
128 128 128
128 128 128
128 128 128
128 128 128
128 128 128
128 128 128
128 128 128
128 128 128
128 128 128
128 128 128
128 128 128
128 128 128
128 128 128
128 128 128
128 128 128
128 128 128
128 128 128
128 128 128
128 128 128
128 128 128
128 128 128
128 128 128
128 128 128
128 128 128
128 128 128
128 128 128
128 128 128
128 128 128
128 128 128
128 128 128
128 128 128
128 128 128
128 128 128
128 128 128
128 128 128
128 128 128
128 128 128
128 128 128
128 128 128
128 128 128
128 128 128
128 128 128
128 128 128
128 128 128
128 128 128
128 128 128
128 128 128
128 128 128
128 128 128
128 128 128
128 128 128
128 128 128
128 128 128
128 128 128
128 128 128
128 128 128
128 128 128
128 128 128
128 128 128
128 128 128
128 128 128
128 128 128
128 128 128
128 128 128
128 128 128
128 128 128
128 128 128
128 128 128
128 128 128
128 128 128
128 128 128
128 128 128
128 128 128
128 128 128
128 128 128
128 128 128
128 128 128
128 128 128
128 128 128
128 128 128
128 128 128
128 128 128
128 128 128
128 128 128
128 128 128
128 128 128
128 128 128
128 128 128
128 128 128
128 128 128
128 128 128
128 128 128
128 128 128
128 128 128
128 128 128
128 128 128
128 128 128
128 128 128
128 128 128
128 128 128
128 128 128
128 128 128
128 128 128
128 128 128
128 128 128
128 128 128
128 128 128
128 128 128
128 128 128
128 128 128
128 128 128
128 128 128
128 128 128
128 128 128
128 128 128
128 128 128
128 128 128
128 128 128
128 128 128
128 128 128
128 128 128
128 128 128
128 128 128
128 128 128
128 128 128
128 128 128
128 128 128
128 128 128
128 128 128
128 128 128
128 128 128
128 128 128
128 128 128
128 128 128
128 128 128
128 128 128
128 128 128
128 128 128
128 128 128
128 128 128
128 128 128
128 128 128
128 128 128
128 128 128
128 128 128
128 128 128
128 128 128
128 128 128
128 128 128
128 128 128
128 128 128
128 128 128
128 128 128
128 128 128
128 128 128
128 128 128
128 128 128
128 128 128
128 128 128
128 128 128
128 128 128
128 128 128
128 128 128
128 128 128
128 128 128
128 128 128
128 128 128
128 128 128
128 128 128
128 128 128
128 128 128
128 128 128
128 128 128
128 128 128
128 128 128
128 128 128
128 128 128
128 128 128
128 128 128
128 128 128
128 128 128
128 128 128
128 128 128
128 128 128
128 128 128
128 128 128
128 128 128
0 0 0
128 128 128
128 128 128
128 128 128
128 128 128
128 128 128
128 128 128
128 128 128
128 128 128
128 128 128
128 128 128
128 128 128
128 128 128
128 128 128
128 128 128
128 128 128
128 128 128
128 128 128
128 128 128
128 128 128
128 128 128
128 128 128
128 128 128
128 128 128
128 128 128
128 128 128
128 128 128
128 128 128
128 128 128
128 128 128
0 0 0
128 128 128
128 128 128
128 128 128
128 128 128
128 128 128
128 128 128
128 128 128
128 128 128
128 128 128
128 128 128
128 128 128
128 128 128
128 128 128
128 128 128
128 128 128
128 128 128
128 128 128
128 128 128
128 128 128
128 128 128
128 128 128
128 128 128
128 128 128
128 128 128
128 128 128
128 128 128
128 128 128
128 128 128
128 128 128
128 128 128
128 128 128
128 128 128
128 128 128
128 128 128
128 128 128
128 128 128
128 128 128
128 128 128
128 128 128
128 128 128
128 128 128
128 128 128
128 128 128
128 128 128
128 128 128
128 128 128
128 128 128
128 128 128
128 128 128
128 128 128
128 128 128
128 128 128
128 128 128
128 128 128
128 128 128
128 128 128
128 128 128
128 128 128
128 128 128
128 128 128
128 128 128
128 128 128
128 128 128
128 128 128
128 128 128
128 128 128
128 128 128
128 128 128
128 128 128
128 128 128
128 128 128
128 128 128
128 128 128
128 128 128
128 128 128
128 128 128
128 128 128
128 128 128
128 128 128
128 128 128
128 128 128
128 128 128
128 128 128
128 128 128
128 128 128
128 128 128
128 128 128
128 128 128
128 128 128
128 128 128
128 128 128
128 128 128
128 128 128
128 128 128
128 128 128
128 128 128
128 128 128
128 128 128
128 128 128
128 128 128
128 128 128
128 128 128
128 128 128
128 128 128
128 128 128
128 128 128
128 128 128
128 128 128
128 128 128
128 128 128
0 0 0
0 0 0
128 128 128
128 128 128
128 128 128
128 128 128
128 128 128
128 128 128
128 128 128
128 128 128
128 128 128
128 128 128
128 128 128
128 128 128
128 128 128
128 128 128
128 128 128
128 128 128
128 128 128
128 128 128
128 128 128
128 128 128
128 128 128
128 128 128
128 128 128
128 128 128
128 128 128
128 128 128
128 128 128
128 128 128
128 128 128
128 128 128
128 128 128
128 128 128
0 0 0
128 128 128
128 128 128
128 128 128
128 128 128
128 128 128
128 128 128
128 128 128
128 128 128
128 128 128
128 128 128
128 128 128
0 0 0
0 0 0
0 0 0
128 128 128
128 128 128
128 128 128
128 128 128
128 128 128
128 128 128
128 128 128
128 128 128
128 128 128
128 128 128
128 128 128
128 128 128
128 128 128
128 128 128
128 128 128
128 128 128
128 128 128
128 128 128
128 128 128
128 128 128
128 128 128
128 128 128
128 128 128
128 128 128
128 128 128
128 128 128
128 128 128
128 128 128
128 128 128
128 128 128
128 128 128
128 128 128
128 128 128
128 128 128
128 128 128
128 128 128
128 128 128
128 128 128
128 128 128
128 128 128
128 128 128
128 128 128
128 128