P3
200 118
255
192 192 192
192 192 192
192 192 192
192 192 192
192 192 192
192 192 192
192 192 192
192 192 192
192 192 192
192 192 192
192 192 192
192 192 192
192 192 192
192 192 192
192 192 192
192 192 192
192 192 192
192 192 192
192 192 192
192 192 192
192 192 192
192 192 192
192 192 192
192 192 192
192 192 192
192 192 192
192 192 192
192 192 192
192 192 192
192 192 192
192 192 192
192 128 64
192 128 64
192 192 192
192 192 192
192 192 192
192 192 128
192 192 128
192 192 128
192 192 128
192 192 128
192 192 192
192 192 128
192 192 192
192 192 192
192 192 192
192 192 192
192 192 192
192 192 192
192 192 192
192 192 192
192 192 192
192 192 192
192 192 192
192 192 192
192 192 192
192 192 192
192 192 192
192 192 192
192 192 192
192 128 128
64 64 64
128 128 128
192 192 192
192 192 192
192 192 192
192 192 192
192 192 192
192 192 192
192 192 192
192 192 192
192 192 192
192 192 192
192 192 192
192 192 192
192 192 192
192 192 192
192 192 192
192 192 192
192 192 192
192 192 192
192 192 192
192 192 192
192 192 192
192 192 192
192 192 192
192 192 192
192 192 192
192 192 192
192 192 192
192 192 192
192 192 192
192 192 192
192 192 192
192 192 192
192 192 192
192 192 192
192 192 192
192 192 192
192 192 192
192 192 192
192 192 192
192 192 192
192 192 192
192 192 192
192 192 192
192 192 192
192 192 192
192 192 192
256 256 192
256 256 192
256 256 192
192 192 192
256 256 192
192 192 192
192 192 192
192 192 192
192 192 192
192 192 192
192 192 192
192 192 192
192 192 192
192 192 192
192 192 192
192 192 192
192 192 192
192 192 192
192 192 192
192 192 192
192 192 192
192 192 192
256 256 192
256 256 192
256 192 192
256 256 192
256 256 192
256 192 192
256 192 192
192 192 192
256 192 192
192 192 128
192 192 128
256 192 192
256 192 192
256 256 192
256 256 192
192 192 192
128 128 128
128 128 128
256 192 192
256 192 192
256 192 192
256 192 192
256 192 192
256 192 192
256 192 192
192 192 192
192 192 192
256 192 192
192 192 192
192 192 192
256 192 192
256 192 192
256 192 192
256 192 192
256 192 192
256 256 192
256 256 192
256 256 192
256 256 192
256 192 192
256 192 192
192 192 192
192 192 192
192 192 192
192 192 192
192 192 192
192 192 192
192 192 192
192 192 192
192 192 192
192 192 128
192 128 128
192 192 192
192 192 192
192 192 192
192 192 128
192 192 192
192 192 192
192 192 192
192 192 192
192 192 192
192 192 192
192 192 192
192 192 192
192 192 192
192 192 192
192 192 192
192 192 192
192 192 192
192 192 192
192 192 192
192 192 192
192 192 192
192 192 192
192 192 192
192 192 192
192 192 192
192 192 192
192 192 192
192 192 192
192 192 192
192 192 192
192 192 192
192 192 192
192 192 192
192 192 192
192 192 192
192 192 192
192 192 192
192 192 192
192 192 192
192 192 192
192 192 192
192 192 192
192 192 192
192 192 192
192 192 192
192 192 192
192 192 192
192 192 192
192 128 128
192 128 64
192 192 192
192 192 192
192 192 192
192 192 192
192 192 192
192 192 192
192 192 192
192 192 128
192 192 128
192 192 128
192 192 192
192 192 192
192 192 192
192 192 192
192 192 192
192 192 192
192 192 192
192 192 192
192 192 192
192 192 192
192 192 192
192 192 192
192 192 192
192 192 192
192 192 192
192 192 192
192 192 192
128 128 128
64 64 64
128 128 128
192 192 192
192 192 192
192 192 192
192 192 192
192 192 192
192 192 192
192 192 192
192 192 192
192 192 192
192 192 192
192 192 192
192 192 192
192 192 192
192 192 192
192 192 192
192 192 192
192 192 192
192 192 192
192 192 192
192 192 192
192 192 192
192 192 192
192 192 192
192 192 192
192 192 192
192 192 192
192 192 192
192 192 192
192 192 192
192 192 192
192 192 192
192 192 192
192 192 192
192 192 192
192 192 192
192 192 192
192 192 192
256 256 192
192 192 192
192 192 192
192 192 192
192 192 192
192 192 192
192 192 192
192 192 192
256 192 192
256 256 192
256 256 192
256 256 192
192 192 192
256 256 192
256 192 192
256 192 192
192 192 192
192 192 192
192 192 192
192 192 192
192 192 192
192 192 192
256 192 192
192 192 192
192 192 192
192 192 192
192 192 192
192 192 192
192 192 192
192 192 192
256 192 192
256 256 192
256 256 192
256 256 192
256 256 192
256 256 192
256 256 192
256 256 192
256 192 192
256 192 192
128 128 128
192 192 192
256 256 192
256 256 192
256 256 192
256 256 192
256 192 192
128 128 128
128 128 128
256 192 192
256 192 192
256 192 192
192 192 192
256 192 192
192 192 192
192 192 192
192 192 192
192 192 192
256 192 192
192 192 192
192 192 192
256 192 192
256 256 192
256 192 192
256 192 192
256 256 192
256 256 192
256 256 192
256 256 192
256 192 192
256 192 192
256 192 192
192 192 192
192 192 192
256 192 192
192 192 192
192 192 192
192 128 128
192 192 128
192 192 192
192 192 192
192 192 192
192 192 192
192 192 192
192 192 192
192 192 192
192 192 192
192 192 192
192 192 192
192 192 192
192 192 192
192 192 192
192 192 192
192 192 192
192 192 192
192 192 192
192 192 192
192 192 192
192 192 192
192 192 192
192 192 192
192 192 192
192 192 192
192 192 192
192 192 192
192 192 192
192 192 192
192 192 192
192 192 192
192 192 192
192 192 192
192 192 192
192 192 192
192 192 192
192 192 192
192 192 192
192 192 192
192 192 192
192 192 192
192 192 192
192 192 192
192 192 192
192 192 192
192 192 192
192 192 192
192 192 192
192 192 192
192 192 192
192 192 192
192 192 192
192 192 192
192 128 128
192 128 64
192 192 192
192 192 192
192 192 192
192 192 192
192 192 192
192 192 192
192 192 192
192 192 192
192 192 128
192 192 192
192 192 192
192 192 192
192 192 192
192 192 192
192 192 192
192 192 192
192 192 192
192 192 192
192 192 192
192 192 192
192 192 192
192 192 192
192 192 192
192 192 192
192 192 192
192 192 192
192 192 192
192 192 128
64 64 64
128 128 128
192 192 192
192 192 192
192 192 192
192 192 192
192 192 192
192 192 192
192 192 192
192 192 192
192 192 192
192 192 192
192 192 192
192 192 192
192 192 192
192 192 192
192 192 192
192 192 192
192 192 192
192 192 192
192 192 192
192 192 192
192 192 192
192 192 192
192 192 192
192 192 192
192 192 192
192 192 192
192 192 192
192 192 192
192 192 192
192 192 192
192 192 192
192 192 192
192 192 192
192 192 192
192 192 192
192 192 192
192 192 192
192 192 192
192 192 192
192 192 192
192 192 192
192 192 192
192 192 192
256 192 192
256 192 192
256 256 192
256 256 192
256 256 192
256 256 192
256 256 192
256 192 192
256 192 192
256 192 192
192 192 192
192 192 192
192 192 192
192 192 192
192 192 192
256 192 192
256 192 192
256 192 192
256 256 192
256 256 192
256 192 192
256 192 192
192 192 192
256 192 192
256 192 192
256 256 192
256 256 192
192 192 192
256 256 192
192 192 192
192 192 192
256 256 192
256 256 192
192 192 192
128 128 128
192 192 192
256 256 192
256 256 192
256 256 192
256 192 192
256 192 192
192 128 128
128 128 128
192 192 192
256 192 192
192 192 192
256 192 192
256 192 192
192 192 192
256 256 192
256 192 192
192 192 192
256 192 192
192 192 192
192 192 192
192 192 192
256 192 192
256 256 192
256 256 192
256 256 192
256 256 192
256 256 192
256 256 192
256 256 192
256 192 192
256 192 192
256 192 192
192 192 192
192 192 192
192 192 192
192 192 192
192 128 128
192 192 128
192 192 192
192 192 192
192 192 192
192 192 192
192 192 192
192 192 192
192 192 192
192 192 192
192 192 192
192 192 192
192 192 192
192 192 192
192 192 192
192 192 192
192 192 192
192 192 192
192 192 192
192 192 192
192 192 128
192 192 128
192 192 192
192 192 192
192 192 192
192 192 192
192 192 192
192 192 192
192 192 192
192 192 128
192 192 192
192 192 192
192 192 192
192 192 192
192 192 192
192 192 192
192 192 192
192 192 192
192 192 192
192 192 192
192 192 192
192 192 192
192 192 192
192 192 192
192 192 192
192 192 192
192 192 192
192 192 192
192 192 192
192 192 192
192 192 192
192 192 192
192 192 192
192 192 192
128 128 64
192 128 128
192 192 192
192 192 192
192 192 192
192 192 192
192 192 192
192 192 192
192 192 192
192 192 192
192 192 192
192 192 192
192 192 192
192 192 192
192 192 192
192 192 192
192 192 192
192 192 192
192 192 192
192 192 192
192 192 192
192 192 192
192 192 192
192 192 192
192 192 192
192 192 192
192 192 192
192 192 192
192 192 192
192 128 128
64 64 64
128 128 128
192 192 192
192 192 192
192 192 192
192 192 192
192 192 192
192 192 192
192 192 192
192 192 192
192 192 192
192 192 192
192 192 192
192 192 192
192 192 192
192 192 192
192 192 192
192 192 192
192 192 192
192 192 192
192 192 192
192 192 192
192 192 192
192 192 192
192 192 192
192 192 192
192 192 192
192 192 192
192 192 192
192 192 192
192 192 192
192 192 192
192 192 192
192 192 192
192 192 192
192 192 192
192 192 192
192 192 192
192 192 192
192 192 192
192 192 192
192 192 192
192 192 192
192 192 192
192 192 192
256 256 192
256 256 192
256 256 192
256 256 192
256 256 192
256 256 192
256 256 192
192 192 192
256 192 192
256 256 192
192 192 192
192 192 192
192 192 192
192 192 192
192 192 192
256 192 192
256 256 192
256 192 192
192 192 192
256 256 192
256 256 192
192 192 192
192 192 192
192 192 192
192 192 192
192 192 192
192 192 192
256 256 192
192 192 192
192 192 192
192 192 192
256 256 192
192 192 192
192 192 192
128 128 128
192 192 192
256 256 192
192 192 192
192 192 192
192 192 192
192 192 192
192 128 128
128 128 128
192 192 192
192 192 192
192 192 192
192 192 192
192 192 192
256 192 192
256 256 192
192 192 192
192 192 192
192 192 192
192 192 192
192 192 192
192 192 192
192 192 192
192 192 192
256 192 192
256 256 192
256 256 192
256 256 192
256 192 192
256 256 192
256 192 192
256 192 192
192 192 192
192 192 192
192 192 192
192 192 192
192 192 128
192 128 128
192 192 128
192 192 192
192 192 128
192 192 192
192 192 192
192 192 192
192 192 192
192 192 192
192 192 192
192 192 192
192 192 192
192 192 192
192 192 192
192 192 192
192 192 192
192 192 192
192 192 192
192 192 192
192 192 192
192 192 128
192 192 128
192 192 192
192 192 192
192 192 192
192 192 192
192 192 192
192 192 192
192 192 192
192 192 192
192 192 192
192 192 192
192 192 192
192 192 192
192 192 192
192 192 192
192 192 192
192 192 192
192 192 192
192 192 192
192 192 192
192 192 192
192 192 192
192 192 192
192 192 192
192 192 192
192 192 192
192 192 192
192 192 192
192 192 192
192 192 192
192 192 192
192 192 192
192 192 192
128 128 128
192 128 128
192 192 192
192 192 192
192 192 192
192 192 192
192 192 192
192 192 192
192 192 192
192 192 192
192 192 192
192 192 192
192 192 192
192 192 192
192 192 192
192 192 192
192 192 192
192 192 192
192 192 192
192 192 192
192 192 192
192 192 192
192 192 192
192 192 192
192 192 192
192 192 192
192 192 192
192 192 192
192 192 192
128 128 128
64 64 64
128 128 128
192 192 192
192 192 128
192 192 192
192 192 192
192 192 192
192 192 192
192 192 192
192 192 192
192 192 192
192 192 192
192 192 192
192 192 192
192 192 192
192 192 192
192 192 192
192 192 192
192 192 192
192 192 192
192 192 192
192 192 192
192 192 192
192 192 192
192 192 192
192 192 192
192 192 192
192 192 192
192 192 192
192 192 192
192 192 192
192 192 192
192 192 192
192 192 192
192 192 192
192 192 192
192 192 192
192 192 192
192 192 192
192 192 192
192 192 192
192 192 192
192 192 192
256 256 192
256 256 192
256 256 192
256 256 192
256 256 192
256 256 192
256 256 192
256 256 192
256 256 192
256 256 192
256 256 192
256 256 192
192 192 192
192 192 192
192 192 192
192 192 192
192 192 192
256 192 192
256 256 192
192 192 192
192 192 192
256 256 192
256 256 192
256 192 192
256 192 192
256 256 192
256 256 192
256 192 192
256 256 192
256 256 192
256 256 192
192 192 192
192 192 192
192 192 192
192 192 192
192 192 192
128 128 128
192 192 192
192 192 192
192 192 192
192 192 192
192 192 192
192 192 192
192 128 128
128 128 128
192 192 192
192 192 192
192 192 192
192 192 192
256 192 192
256 256 192
256 192 192
192 192 192
192 192 192
192 192 192
192 192 192
192 192 192
256 192 192
192 192 192
192 192 192
192 192 192
256 192 192
256 256 192
256 192 192
256 256 192
256 256 192
256 192 192
192 192 192
192 192 192
192 192 192
192 192 192
192 192 192
192 192 192
192 192 192
192 192 128
192 192 192
192 192 192
192 192 192
192 192 192
192 192 192
192 192 192
192 192 192
192 192 192
192 192 192
192 192 192
192 192 192
192 192 192
192 192 192
192 192 192
192 192 192
192 192 192
192 192 192
192 192 128
192 192 192
192 192 128
192 192 128
192 192 192
192 192 192
192 192 192
192 192 192
192 192 192
192 192 192
192 192 192
192 192 192
192 192 192
192 192 192
192 192 192
192 192 192
192 192 192
192 192 192
192 192 192
192 192 192
192 192 192
192 192 192
192 192 192
192 192 192
192 192 192
192 192 192
192 192 192
192 192 192
192 192 192
192 192 192
192 192 192
192 192 192
192 192 192
192 192 192
192 192 192
128 128 128
192 128 128
192 192 192
192 192 192
192 192 192
192 192 192
192 192 192
192 192 192
192 192 128
192 192 192
192 192 192
192 192 128
192 192 192
192 192 192
192 192 192
192 192 192
192 192 192
192 192 192
192 192 192
192 192 192
192 192 192
192 192 192
192 192 192
192 192 192
192 192 192
192 192 192
192 192 192
192 192 192
192 192 192
128 128 128
64 64 64
128 128 128
192 192 192
192 128 128
192 128 192
192 192 192
192 128 192
192 192 192
192 192 192
192 192 192
192 192 192
192 192 192
192 192 192
192 192 192
192 192 192
192 192 192
192 192 192
192 192 192
192 192 192
192 192 192
192 192 192
192 192 192
192 192 192
192 192 192
192 192 192
192 192 192
192 192 192
192 192 192
192 192 192
192 192 192
192 192 192
192 192 192
192 192 192
192 192 192
192 192 192
192 192 192
192 192 192
192 192 192
192 192 192
192 192 192
192 192 192
256 256 192
192 192 192
256 256 192
256 192 192
256 256 192
256 256 192
256 256 192
256 256 192
256 256 192
256 256 192
256 256 192
256 256 192
256 256 192
256 256 192
256 256 192
192 192 192
192 192 192
192 192 192
192 192 192
256 256 192
192 192 192
192 192 192
192 192 192
256 256 192
256 256 192
256 192 192
256 192 192
256 256 192
256 256 192
256 256 192
256 256 192
256 256 192
256 256 192
256 192 192
256 256 192
256 192 192
256 256 192
192 192 128
128 128 128
192 192 192
256 192 192
192 192 192
192 192 192
192 192 192
192 192 192
192 192 128
128 128 64
192 192 192
192 192 192
192 192 192
192 192 192
256 192 192
256 192 192
192 192 192
192 192 192
192 192 192
192 192 192
192 192 192
192 192 192
256 256 192
256 256 192
256 192 192
256 192 192
256 256 192
256 256 192
256 256 192
256 256 192
256 256 192
256 192 192
256 192 192
192 192 192
192 192 192
192 192 192
192 192 192
192 192 192
192 192 192
192 192 128
192 192 192
192 192 192
192 192 192
192 192 192
192 192 192
192 192 192
192 192 192
192 192 192
192 192 192
192 192 192
192 192 192
192 192 192
192 192 192
192 192 192
192 192 192
192 192 192
192 192 192
192 192 192
192 192 192
192 192 128
192 192 128
192 192 192
192 192 192
192 192 192
192 192 192
192 192 192
192 192 192
192 192 192
192 192 192
192 192 192
192 192 192
192 192 192
192 192 192
192 192 192
192 192 192
192 192 192
192 192 192
192 192 192
192 192 192
192 192 192
192 192 192
192 192 192
192 192 192
192 192 192
192 192 192
192 192 192
192 192 192
192 192 192
192 192 192
192 192 192
192 192 192
192 192 192
128 128 128
192 128 128
192 192 192
192 192 192
192 192 192
192 192 192
192 192 192
192 192 192
192 192 192
192 192 192
192 192 192
192 192 192
192 192 192
192 192 192
192 192 192
192 192 192
192 192 192
192 192 192
192 192 192
192 192 192
192 192 192
192 192 192
192 192 192
192 192 192
192 192 192
192 192 192
192 192 192
192 192 192
192 192 192
128 128 128
64 64 64
128 128 128
192 192 192
192 128 192
192 128 192
192 192 192
192 128 192
192 128 192
192 192 192
192 192 192
192 192 192
192 192 192
192 192 192
192 192 192
192 192 192
192 192 192
192 192 192
192 192 192
192 192 192
192 192 192
192 192 192
192 192 192
192 192 192
192 192 192
192 192 192
192 192 192
192 192 192
192 192 192
192 192 192
192 192 192
192 192 192
192 192 192
192 192 192
192 192 192
192 192 192
192 192 192
192 192 192
192 192 192
192 192 192
192 192 192
256 192 192
192 192 192
256 192 192
256 256 192
256 192 192
256 256 192
256 256 192
256 256 192
256 256 192
256 256 192
256 256 192
256 256 192
256 256 192
256 256 192
256 256 192
256 192 192
192 192 192
192 192 192
192 192 192
192 192 192
256 256 192
256 256 192
256 256 192
192 192 192
256 256 192
256 256 192
192 192 192
192 192 192
192 192 192
192 192 192
192 192 192
192 192 192
192 192 192
192 192 192
192 192 192
192 192 192
256 192 192
256 256 192
192 128 128
128 128 128
256 192 192
256 256 192
256 256 192
256 256 192
256 192 192
192 192 192
192 192 192
128 128 64
192 192 192
192 192 192
192 192 192
192 192 192
256 192 192
256 192 192
192 192 192
256 192 192
192 192 192
192 192 192
256 192 192
256 192 192
256 256 192
256 192 192
192 192 192
256 192 192
256 256 192
256 256 192
256 256 192
256 256 192
256 192 192
256 192 192
256 192 192
192 192 192
192 192 192
192 192 192
192 192 192
192 192 192
192 192 192
192 192 192
192 192 192
192 192 192
192 192 192
192 192 192
192 192 192
192 192 192
192 192 192
192 192 192
192 192 192
192 192 192
192 192 192
192 192 192
192 192 192
192 192 192
192 192 192
192 192 192
192 192 192
192 192 192
192 192 128
192 192 128
192 192 128
192 192 192
192 192 192
192 192 192
192 192 128
192 192 192
192 192 192
192 192 192
192 192 192
192 192 128
192 192 192
192 192 192
192 192 192
192 192 192
192 192 192
192 192 192
192 192 192
192 192 192
192 192 192
192 192 192
192 192 192
192 192 192
192 192 192
192 192 192
192 192 192
192 192 192
192 192 192
192 192 192
192 192 192
192 192 192
192 192 128
192 192 192
128 128 128
192 128 128
192 192 192
192 192 128
192 192 192
192 192 192
192 192 192
192 192 128
192 192 192
192 192 192
192 192 128
192 192 128
192 192 192
192 192 192
192 192 192
192 192 192
192 192 192
192 192 192
192 192 128
192 192 192
192 192 192
192 192 192
192 192 192
192 192 192
192 192 192
192 192 192
192 192 192
128 128 128
192 128 192
128 128 128
128 64 64
128 128 128
192 192 192
192 128 192
128 128 192
192 128 192
128 128 192
192 128 192
192 128 192
192 192 192
192 192 192
192 192 192
192 192 192
192 192 192
192 192 192
192 192 192
192 192 192
192 192 192
192 192 192
192 192 192
192 192 192
192 192 192
192 192 192
192 192 192
192 192 192
192 192 192
192 192 192
192 192 192
192 192 192
192 192 192
192 192 192
192 192 192
192 192 192
192 192 192
192 192 192
192 192 192
192 192 192
192 192 192
192 192 192
192 192 192
256 192 192
256 256 192
256 256 192
256 256 192
256 256 192
256 256 192
256 256 192
256 256 192
256 256 192
256 256 192
256 256 192
256 256 192
256 256 192
256 256 192
256 256 192
256 256 192
192 192 192
192 192 192
256 192 192
256 256 192
256 256 192
256 256 192
192 192 192
192 192 192
256 256 192
256 256 192
192 192 192
256 192 192
256 192 192
192 192 192
256 192 192
192 192 192
192 192 192
192 192 192
192 192 192
192 192 192
256 192 192
256 256 192
128 128 128
128 128 128
256 256 192
192 192 192
256 192 192
256 192 192
256 256 192
256 256 192
192 192 192
128 128 128
192 192 192
192 192 192
192 192 192
192 192 192
192 192 192
256 192 192
192 192 192
192 192 192
256 192 192
256 256 192
256 192 192
256 192 192
256 192 192
192 192 192
192 192 192
256 192 192
256 256 192
256 256 192
256 256 192
256 192 192
256 256 192
256 192 192
192 192 192
192 192 192
192 192 192
192 192 192
192 192 192
192 192 192
192 192 192
192 192 192
192 192 192
192 192 192
192 192 192
192 192 192
192 192 192
192 192 192
192 192 192
192 192 192
192 192 192
192 192 192
192 192 192
192 192 192
192 192 192
192 192 192
192 192 192
192 192 192
192 192 192
192 192 192
192 192 192
192 192 192
192 192 128
192 192 192
192 192 128
192 192 128
192 192 192
192 192 192
192 192 192
192 192 192
192 192 192
192 192 128
192 192 192
192 192 192
192 192 192
192 192 192
192 192 192
192 192 192
192 192 192
192 192 192
192 192 192
192 192 192
192 192 192
192 192 192
192 192 192
192 192 192
192 192 192
192 192 192
192 192 192
192 192 192
192 192 192
192 192 192
192 192 192
192 192 192
64 128 128
128 128 128
192 192 192
192 192 128
192 192 128
192 192 128
192 192 128
192 192 192
192 192 128
192 192 128
192 192 128
192 192 192
192 192 192
192 192 192
192 192 128
192 192 192
192 192 192
192 192 128
192 192 192
192 192 192
192 192 192
192 192 192
192 192 192
192 192 192
192 192 192
192 192 192
192 128 192
128 128 128
192 128 128
128 128 128
128 64 64
128 128 128
128 192 192
192 128 192
128 128 192
128 128 192
128 128 192
128 128 192
128 128 192
128 128 192
128 128 192
192 128 192
192 192 192
192 192 192
192 128 192
192 192 192
192 192 192
192 192 192
192 192 192
192 192 192
192 192 192
192 192 192
192 192 192
192 192 192
192 192 192
192 192 192
192 192 192
192 192 192
192 192 192
192 192 192
192 192 192
192 192 192
192 192 192
192 192 192
192 192 192
192 192 192
192 192 192
192 192 192
192 192 192
256 256 192
256 256 192
256 256 192
256 256 192
256 256 192
256 192 192
256 192 192
256 256 192
256 256 192
256 256 256
256 256 192
256 256 192
256 256 192
256 256 192
256 256 192
256 256 192
256 256 192
256 192 192
256 192 192
256 256 192
256 256 192
256 192 192
256 192 192
192 192 192
256 192 192
256 256 192
256 256 192
192 192 192
192 192 128
192 192 192
192 192 192
256 192 192
256 256 192
256 192 192
192 192 192
192 192 192
256 192 192
256 192 192
256 256 192
128 128 128
128 128 128
256 256 192
256 256 192
256 256 192
256 256 192
256 256 192
256 256 192
192 192 192
128 128 128
192 192 192
256 192 192
256 192 192
256 192 192
192 192 192
256 192 192
256 192 192
256 192 192
256 256 192
256 192 192
256 192 192
256 256 192
256 256 192
256 192 192
256 192 192
256 256 192
256 256 192
256 192 192
256 192 192
256 256 192
256 192 192
256 192 192
256 192 192
192 192 192
192 192 192
192 192 192
192 192 192
192 192 192
192 192 192
192 192 192
192 192 192
192 192 192
192 192 192
192 192 192
192 192 192
192 192 192
192 192 192
192 192 192
192 192 192
192 192 192
192 192 192
192 192 192
192 192 192
192 192 192
192 192 192
192 192 192
192 192 192
192 192 192
192 192 192
192 192 192
192 192 192
192 192 128
192 192 128
192 192 128
192 192 192
192 192 192
192 192 192
192 192 192
192 192 192
192 192 192
192 192 192
192 192 192
192 192 192
192 192 192
192 192 192
192 192 192
192 192 192
192 192 192
192 192 192
192 192 192
192 192 192
192 192 192
192 192 192
192 192 192
192 192 192
192 192 192
192 192 192
192 192 192
192 192 192
192 192 192
192 192 192
192 192 128
64 64 128
128 128 128
192 192 192
192 192 128
192 192 128
192 192 128
192 192 128
192 192 128
192 192 192
192 192 128
192 192 128
192 192 128
192 192 192
192 192 192
192 192 192
192 192 192
192 192 192
192 192 192
192 192 192
192 192 192
192 192 192
192 192 192
192 192 192
192 192 192
192 192 192
128 128 128
128 128 192
128 128 128
128 128 192
128 128 128
128 64 64
128 128 128
128 128 192
192 128 192
128 128 128
128 128 192
128 128 192
128 128 192
128 128 192
128 128 192
128 128 192
128 128 192
128 128 128
128 128 192
128 128 192
192 192 192
192 192 192
192 192 192
192 192 192
192 192 192
192 192 192
192 192 192
192 192 192
192 192 192
192 192 192
192 192 192
192 192 192
192 192 192
192 192 192
128 128 128
128 128 128
192 192 192
192 192 192
192 192 192
192 192 192
192 192 192
192 192 192
192 192 192
256 192 192
256 256 192
256 192 192
256 256 192
256 256 192
256 256 192
256 256 192
256 256 192
256 256 192
256 256 192
256 256 256
256 256 192
256 256 192
256 256 192
256 256 192
256 256 192
256 256 192
256 256 192
256 192 192
192 192 192
256 192 192
256 192 192
256 256 192
192 192 192
192 192 192
256 256 192
256 192 192
128 128 128
64 64 64
64 64 64
64 64 64
64 64 64
128 64 64
192 192 128
256 256 192
256 192 192
256 256 192
256 256 192
256 256 192
256 256 192
128 128 128
192 192 128
256 256 192
256 256 192
256 256 192
256 256 192
256 256 192
256 256 192
192 192 192
128 128 128
192 128 128
192 128 128
192 128 128
192 192 192
256 256 192
256 192 192
256 256 192
256 256 192
256 256 192
256 192 192
256 192 192
256 192 192
256 256 192
256 256 192
256 256 192
256 256 192
256 256 192
256 192 192
256 256 192
256 256 192
256 192 192
256 192 192
256 256 192
256 192 192
192 192 192
192 192 192
192 192 192
192 192 128
192 192 192
192 192 192
192 192 192
192 192 192
192 192 192
192 192 192
192 192 192
192 192 192
192 192 192
192 192 192
192 192 192
192 192 192
192 192 192
192 192 192
192 192 192
192 192 192
192 192 192
192 192 192
192 192 192
192 192 192
192 192 192
192 192 128
192 192 128
192 192 128
192 192 128
192 192 128
192 192 128
192 192 128
192 192 128
192 192 128
192 192 192
192 192 128
192 192 128
192 192 128
192 192 128
192 192 192
192 192 192
192 192 128
192 192 128
192 192 128
192 192 128
192 192 192
192 192 192
192 192 192
192 192 192
192 192 192
192 192 192
192 192 192
192 192 192
192 192 192
192 192 192
192 192 192
192 192 192
192 192 128
64 64 128
128 128 128
192 192 128
192 192 128
192 192 128
192 192 128
192 192 128
192 192 128
192 192 192
192 192 128
192 192 128
192 192 128
192 192 128
192 192 192
192 192 192
192 192 192
192 192 192
192 192 192
192 192 192
192 192 192
128 128 128
192 192 192
192 192 192
192 192 192
192 192 192
128 128 128
192 128 192
192 128 192
128 128 192
128 128 128
128 64 64
128 128 128
192 192 192
192 128 128
128 128 192
128 128 192
128 128 128
128 128 128
128 128 128
128 128 192
128 128 192
128 128 192
128 128 192
128 128 192
128 128 192
192 128 192
128 128 192
128 128 192
192 192 192
192 192 192
192 192 192
192 192 192
192 192 192
192 192 192
192 192 192
192 192 192
192 192 192
192 192 192
192 192 192
192 128 128
192 192 128
192 192 192
192 192 192
192 192 192
192 192 192
192 192 192
192 192 192
192 192 192
192 192 192
256 256 192
256 192 192
256 256 192
256 192 192
256 256 192
256 256 192
256 256 192
256 256 192
256 256 192
256 256 192
256 256 192
256 256 192
256 256 192
256 256 192
256 256 192
256 256 192
256 256 192
256 256 192
256 192 192
256 192 192
256 192 192
192 256 192
256 192 192
192 192 192
256 256 192
192 192 192
64 64 64
64 64 64
64 64 64
64 64 64
64 64 64
64 64 64
64 64 64
192 128 128
256 256 192
256 256 192
256 256 192
256 256 192
256 192 192
128 128 64
192 192 128
256 256 192
256 256 192
256 256 192
256 256 192
256 256 192
256 256 192
256 192 192
128 128 128
192 128 128
128 128 128
128 128 128
192 192 128
256 256 192
256 256 192
256 256 192
256 256 192
256 256 192
256 192 192
256 192 192
192 192 192
256 192 192
256 192 192
256 256 192
256 256 192
256 256 192
256 256 192
256 256 192
256 256 192
256 256 192
256 192 192
256 256 192
256 192 192
192 192 192
192 192 192
192 192 192
192 192 192
192 192 192
192 192 192
192 192 192
192 192 192
192 192 192
192 192 192
192 192 192
192 192 192
192 192 192
192 192 192
192 192 192
192 192 192
192 192 192
192 192 192
192 192 192
192 192 192
192 192 192
192 192 192
192 192 128
192 192 192
192 192 192
192 192 128
192 192 128
192 192 128
192 192 128
192 192 128
192 192 128
192 192 128
192 192 128
192 192 128
192 192 128
192 192 128
192 192 128
192 192 128
192 192 128
192 192 128
192 192 128
192 192 128
192 192 128
192 192 192
192 192 128
192 192 128
192 192 128
192 192 128
192 192 128
192 192 128
192 192 192
192 192 128
192 192 192
192 192 192
192 192 192
192 192 128
192 192 128
192 128 128
64 64 128
128 128 128
192 192 128
192 192 128
192 192 128
192 192 128
192 192 128
192 192 128
192 192 128
192 192 128
192 192 128
192 192 192
192 192 128
192 192 192
192 192 192
192 192 192
192 192 192
192 192 192
192 192 192
192 192 192
128 128 128
128 128 128
192 192 192
192 192 192
192 192 192
192 128 192
192 128 192
128 128 128
192 128 128
128 128 128
128 64 64
128 128 128
192 192 192
192 128 128
192 128 128
128 128 192
128 128 128
128 128 128
128 128 128
128 128 128
128 128 128
128 128 192
128 128 192
128 128 128
128 128 128
128 128 192
128 128 192
128 128 192
192 192 192
192 192 192
192 192 192
192 192 192
192 192 192
192 192 192
192 192 192
192 192 192
192 192 192
192 192 192
192 192 192
128 128 192
192 128 128
192 192 192
192 192 192
192 192 192
192 192 192
192 192 192
192 192 192
192 192 192
192 192 192
192 192 192
192 192 192
256 192 192
192 192 192
256 192 192
256 256 192
256 256 192
256 192 192
256 256 192
256 256 192
256 256 192
256 256 192
256 256 192
256 256 192
256 256 192
256 256 192
256 256 192
256 256 192
256 256 192
256 256 192
256 256 192
256 256 192
256 256 192
192 256 192
256 256 192
192 192 192
64 64 64
64 64 64
64 64 64
128 128 64
64 64 64
64 64 64
128 64 64
64 64 64
192 192 192
256 256 192
256 256 192
256 256 192
192 192 192
128 128 64
192 192 128
256 256 192
256 192 192
256 256 192
256 256 192
256 256 192
256 256 192
192 192 192
192 128 128
192 128 128
192 192 128
192 192 128
192 192 192
256 192 192
256 256 192
256 256 192
256 256 192
256 256 192
256 256 192
256 192 192
256 192 192
192 192 192
256 256 192
256 256 192
256 256 192
256 256 192
256 256 192
256 256 192
256 256 192
256 256 192
256 256 192
256 256 192
256 192 192
256 192 192
192 192 192
192 192 192
192 192 192
192 192 192
192 192 192
192 192 192
192 192 192
192 192 192
192 192 192
192 192 192
192 192 192
192 192 192
192 192 192
192 192 192
192 192 192
192 192 192
192 192 192
192 192 192
192 192 192
192 192 192
192 192 192
192 192 192
192 192 192
192 192 192
192 192 192
192 192 128
192 192 128
192 192 128
192 192 128
192 192 128
192 128 128
192 128 128
192 128 128
192 128 128
192 128 128
192 128 128
192 128 128
192 192 128
192 192 128
192 192 128
192 192 128
192 192 128
192 192 128
192 192 128
192 192 128
192 192 128
192 192 128
192 128 128
192 192 128
192 192 128
192 128 128
192 192 128
192 192 128
192 192 128
192 192 128
192 192 128
192 128 128
64 64 128
128 128 128
192 192 128
192 128 128
192 192 128
192 192 128
192 192 128
192 192 128
192 192 128
192 192 128
192 192 128
192 192 128
192 192 192
192 192 192
192 192 192
192 192 192
192 192 192
192 192 192
192 192 192
192 192 192
192 192 192
128 128 128
128 128 128
192 192 192
192 128 192
192 128 128
128 128 128
192 128 128
192 128 128
128 128 128
128 64 64
128 128 128
192 128 128
128 128 128
128 128 128
128 128 128
128 128 128
128 128 128
128 128 128
128 128 128
128 128 128
128 128 192
128 128 192
128 128 128
128 128 128
128 128 128
128 128 192
192 192 192
192 192 192
192 192 192
192 192 192
192 192 192
192 192 192
192 192 192
192 192 192
192 192 192
192 192 192
192 192 192
192 192 192
128 128 128
192 128 128
192 192 192
192 192 192
192 192 192
192 192 192
192 192 192
192 192 192
192 192 192
192 192 192
192 192 192
192 192 192
192 192 192
256 192 192
256 192 192
256 192 192
256 192 192
256 192 192
256 256 192
256 256 192
256 256 192
256 256 192
256 256 192
256 256 192
256 256 192
256 256 192
256 256 192
256 256 192
256 256 192
256 256 192
256 192 192
256 256 192
256 256 192
256 256 192
256 256 192
192 192 192
64 64 64
64 64 64
64 64 64
64 64 64
64 64 64
64 64 64
64 64 64
64 64 64
128 128 128
256 256 192
256 192 192
256 256 192
192 192 192
128 128 64
192 192 192
256 256 192
256 256 192
256 256 192
256 256 192
256 192 192
192 192 192
192 192 192
192 128 128
192 128 128
192 192 192
192 192 192
192 192 192
192 192 192
192 192 192
256 192 192
256 256 192
256 256 192
256 192 192
192 192 192
256 192 192
256 256 192
256 256 192
256 256 192
256 256 192
256 256 192
256 256 192
256 256 192
256 256 192
256 256 192
256 256 192
256 192 192
256 192 192
256 192 192
192 192 192
192 192 192
192 192 192
192 192 192
192 192 192
192 192 192
192 192 192
192 192 192
192 192 192
192 192 192
192 192 192
192 192 192
192 192 192
192 192 192
192 192 192
192 192 192
192 192 192
192 192 192
192 192 192
192 192 192
192 192 192
192 192 192
192 192 192
192 192 128
192 192 128
192 192 192
192 128 128
192 128 128
192 128 128
192 128 128
192 128 128
192 192 128
192 128 128
192 128 128
192 128 128
192 128 128
192 128 128
192 128 128
192 128 128
192 128 128
192 128 128
192 192 128
192 128 128
192 192 128
192 192 128
192 192 128
192 128 128
192 128 128
192 192 128
192 128 128
192 128 128
192 128 128
192 192 128
192 128 128
192 128 128
192 128 128
192 128 128
64 64 128
128 128 128
192 192 128
192 192 128
192 128 128
192 192 128
192 192 128
192 192 128
192 192 128
192 192 128
192 128 128
192 192 128
192 192 128
192 192 128
192 192 192
192 192 128
192 192 128
192 192 128
192 192 192
192 192 128
192 192 192
128 128 128
128 128 128
192 128 128
192 192 192
192 128 128
192 128 128
192 128 128
192 128 128
128 128 128
128 64 64
128 128 128
128 128 128
192 128 128
192 128 192
128 128 128
128 128 128
128 128 128
128 128 128
128 128 128
128 128 128
128 128 192
128 128 192
128 128 128
128 128 128
128 128 128
128 128 192
192 192 192
192 192 192
192 192 192
192 192 192
192 192 192
192 192 192
192 192 192
192 192 192
192 192 192
192 192 192
192 192 192
192 192 192
128 128 128
128 128 192
192 192 192
192 192 192
192 192 192
192 192 192
192 192 192
192 192 192
192 192 192
192 192 192
192 192 192
192 192 192
192 192 192
256 192 192
256 256 192
256 256 192
256 256 192
256 192 192
256 192 192
256 256 192
256 256 192
256 256 192
256 256 192
256 256 192
256 256 192
256 256 192
256 256 192
256 256 192
256 256 192
256 192 192
256 192 192
256 192 192
192 256 192
256 256 192
256 256 192
256 192 192
128 64 64
64 64 64
128 64 64
128 64 64
64 64 64
64 64 64
64 64 64
64 64 64
128 128 128
256 256 192
256 256 192
256 256 192
192 192 192
128 128 64
192 192 192
256 256 192
256 256 192
256 256 192
256 192 192
192 192 192
192 192 192
192 192 192
192 128 128
192 128 128
192 192 192
192 192 192
192 192 192
192 192 192
192 192 192
192 192 192
192 192 192
256 256 192
256 192 192
256 192 192
256 192 192
256 256 192
256 256 192
256 256 192
256 256 192
256 256 192
256 256 192
256 256 192
256 256 192
256 256 192
256 192 192
256 192 192
256 192 192
192 192 192
192 192 192
192 192 192
192 192 192
192 192 192
192 192 192
192 192 192
192 192 192
192 192 192
192 192 192
192 192 192
192 192 192
192 192 192
192 192 192
192 192 192
192 192 192
192 192 192
192 192 192
192 192 192
192 192 192
192 192 192
192 192 192
192 192 192
192 192 192
192 192 128
192 192 192
192 192 128
192 128 128
128 128 128
192 128 128
192 128 128
192 128 128
192 192 128
192 128 128
128 128 128
128 128 128
128 128 128
192 128 128
192 128 128
192 128 128
192 128 128
192 128 128
192 128 128
192 128 128
192 128 128
192 128 128
192 128 128
192 128 128
192 128 128
192 128 128
192 128 128
192 128 128
192 128 128
192 128 128
192 128 128
192 128 128
192 128 128
128 128 128
64 64 128
128 128 128
192 192 128
192 128 128
192 192 128
192 192 128
192 192 128
192 192 128
192 192 128
192 192 128
192 192 128
192 192 128
192 192 128
192 128 128
192 128 128
192 128 128
192 192 128
192 192 128
192 192 128
192 192 128
192 192 128
192 192 128
128 128 128
128 128 128
192 128 128
192 192 128
192 128 128
192 128 128
192 128 128
128 128 128
64 64 64
128 128 128
192 128 128
128 128 128
192 128 192
128 128 128
128 128 128
128 128 128
128 128 128
128 128 128
128 128 128
128 128 128
128 128 128
128 128 128
128 128 192
128 128 128
128 128 192
192 192 192
192 192 192
192 192 192
192 192 192
192 192 192
192 192 192
192 192 192
192 192 192
192 192 192
192 192 192
192 192 192
192 192 192
128 128 128
192 128 192
192 192 192
192 192 192
192 192 192
192 192 192
192 192 192
192 192 192
192 192 192
256 192 192
256 192 192
256 192 192
256 192 192
192 192 192
256 256 192
256 256 192
256 256 192
256 256 192
256 256 192
256 256 192
256 256 192
256 256 192
256 256 192
256 256 192
256 256 192
256 256 192
256 256 192
256 256 192
256 192 192
256 192 192
256 192 192
192 192 192
256 256 192
192 256 192
256 256 192
192 192 192
128 64 64
64 64 64
64 64 64
128 64 64
128 64 64
64 64 64
64 64 64
64 64 64
128 128 128
256 256 192
256 256 192
256 256 192
192 192 128
128 128 64
192 192 192
256 256 192
256 256 192
256 192 192
192 192 192
192 192 192
192 192 192
256 192 192
192 128 128
192 128 128
192 192 192
192 192 192
192 192 192
192 192 192
192 192 192
192 192 192
192 192 192
192 192 192
256 192 192
256 192 192
256 192 192
256 256 192
256 256 192
256 256 192
256 256 192
256 256 192
256 256 192
256 256 192
256 256 192
256 256 192
256 192 192
256 192 192
256 192 192
192 192 192
192 192 192
192 192 192
192 192 192
192 192 192
192 192 192
192 192 192
192 192 192
192 192 192
192 192 192
256 192 192
192 192 192
192 192 192
192 192 192
192 192 192
192 192 192
192 192 192
192 192 192
192 192 192
192 192 192
192 192 192
192 192 192
192 192 192
192 192 128
192 192 128
192 192 128
192 192 128
128 128 128
128 128 128
128 128 128
192 128 128
192 128 128
192 128 128
192 128 128
192 128 128
128 128 128
128 128 128
192 128 128
192 128 128
192 128 128
192 128 128
192 128 128
192 128 128
192 128 128
192 128 128
192 128 128
192 128 128
192 128 128
192 128 128
192 128 128
192 128 128
192 128 128
192 128 128
192 128 128
192 128 128
192 128 128
192 128 128
128 128 128
64 64 128
128 128 128
192 192 128
192 128 128
192 192 128
192 192 128
192 192 128
192 192 128
192 192 128
192 192 128
192 128 128
192 192 128
192 192 128
192 128 128
192 128 128
192 128 128
192 192 128
192 192 128
192 192 128
192 192 128
192 192 128
192 128 128
192 128 128
128 128 128
128 128 128
192 192 192
192 128 128
192 128 128
192 128 128
192 128 128
64 64 64
128 128 128
192 192 192
192 128 128
128 128 192
128 128 128
128 128 128
128 128 128
128 128 128
128 128 128
128 128 128
128 128 128
128 128 192
128 128 128
128 128 192
128 128 128
128 128 192
128 128 192
192 192 192
192 192 192
192 192 192
192 192 192
192 192 192
192 192 192
192 192 192
192 192 192
192 192 192
192 192 192
192 192 192
192 128 128
192 128 128
192 192 192
192 192 192
192 192 192
192 192 192
192 192 192
192 192 192
192 192 192
256 192 192
256 192 192
256 256 192
256 256 192
256 256 192
256 256 192
256 256 192
256 256 192
256 256 192
256 256 192
256 256 192
256 256 192
256 256 192
256 256 192
256 256 192
256 256 192
256 256 192
256 256 192
256 256 192
256 192 192
192 192 192
256 192 192
256 192 192
256 256 192
256 256 192
256 256 192
192 192 192
128 64 64
64 64 64
64 64 64
64 64 64
128 64 64
128 64 64
64 64 64
128 128 64
256 192 192
256 256 192
256 256 192
256 256 192
192 192 128
128 128 128
256 256 192
256 256 192
256 192 192
256 192 192
192 192 192
192 192 192
256 256 192
256 256 192
192 128 128
128 128 128
192 192 192
256 192 192
256 192 192
256 192 192
192 192 192
192 192 192
192 192 192
192 192 192
192 192 192
256 256 192
256 256 192
256 192 192
256 192 192
256 256 192
256 256 192
256 256 192
256 256 192
256 256 192
256 256 192
256 256 192
256 192 192
256 192 192
192 192 192
192 192 192
192 192 192
192 192 192
192 192 192
192 192 192
192 192 192
192 192 192
192 192 192
192 192 192
192 192 192
192 192 192
192 192 192
192 192 192
192 192 192
192 192 192
192 192 192
192 192 192
192 192 192
192 192 192
192 192 192
192 192 192
192 192 192
192 192 192
192 192 192
192 192 128
192 192 128
192 128 128
128 128 128
128 128 128
128 128 128
128 128 128
192 128 128
192 128 128
192 128 128
192 128 128
128 128 128
192 128 128
128 128 128
192 128 128
192 128 128
128 128 128
192 128 128
192 128 128
192 128 128
192 128 128
192 128 128
192 128 128
192 128 128
192 128 128
192 128 128
192 128 128
192 128 128
192 128 128
192 128 128
192 128 128
192 128 128
192 128 128
192 128 128
64 64 128
128 128 128
192 192 128
192 192 128
192 192 128
192 192 128
192 192 128
192 192 128
192 192 128
192 192 128
192 128 128
192 192 128
192 192 128
192 192 128
192 128 128
192 128 128
192 128 128
192 128 128
192 192 128
192 192 128
192 192 128
192 128 128
192 192 128
128 128 128
128 128 128
128 128 128
192 192 128
128 128 128
192 128 128
192 128 128
64 64 64
128 128 64
192 192 192
128 128 128
128 128 192
128 128 128
128 128 128
128 128 192
128 128 128
128 128 128
128 128 128
128 128 128
128 128 128
128 128 192
128 128 192
128 128 128
128 128 192
128 128 192
192 192 192
192 192 192
192 192 192
192 192 192
192 192 192
192 192 192
192 192 192
192 192 192
192 192 192
192 192 192
192 192 192
192 128 128
192 192 192
192 192 192
192 192 192
192 192 192
192 192 192
192 192 192
192 192 192
192 192 192
256 192 192
256 192 192
256 256 192
256 256 192
256 256 192
256 256 192
256 256 192
256 256 192
256 256 192
256 256 192
256 256 192
256 256 192
256 256 192
256 256 192
256 256 192
256 256 192
256 256 192
256 256 192
256 256 192
256 192 192
192 192 192
192 192 192
256 192 192
256 256 192
256 256 192
256 256 192
192 192 192
128 64 64
64 64 64
64 64 64
128 64 64
128 64 64
128 128 128
192 192 192
256 192 192
256 256 192
256 256 192
256 256 192
256 256 192
192 128 128
128 128 128
256 256 192
256 192 192
192 192 192
256 192 192
192 192 192
192 192 192
192 192 192
192 192 192
192 192 128
128 128 128
192 192 192
192 192 192
192 192 192
192 192 192
192 192 192
192 192 192
192 192 192
192 192 192
192 192 192
256 192 192
256 192 192
256 192 192
256 256 192
256 256 192
256 256 192
256 256 192
256 256 192
256 256 192
256 256 192
256 256 192
256 192 192
256 192 192
256 192 192
192 192 192
192 192 192
192 192 192
192 192 192
192 192 192
192 192 192
192 192 192
192 192 192
192 192 192
256 192 192
192 192 192
192 192 192
192 192 192
192 192 192
192 192 192
192 192 192
192 192 192
192 192 192
192 192 192
192 192 192
192 192 192
192 192 192
192 192 192
192 192 128
192 192 128
192 192 128
128 128 128
128 128 128
128 128 128
128 128 128
128 128 128
192 128 128
192 128 128
192 128 128
128 128 128
128 128 128
128 128 128
192 128 128
128 128 128
192 128 128
192 128 128
192 128 128
192 128 128
192 128 128
192 128 128
192 128 128
192 128 128
192 128 128
192 128 128
192 128 128
192 128 128
192 128 128
128 128 128
128 128 128
192 128 128
192 128 128
192 128 128
192 128 128
64 128 128
128 128 128
192 192 128
192 192 128
192 192 128
192 192 128
192 192 128
192 192 128
192 192 128
192 192 128
192 128 128
192 192 128
192 192 192
192 192 128
192 128 128
192 128 128
192 128 128
192 128 128
192 192 128
192 192 128
192 192 128
192 192 128
192 128 128
192 192 128
128 128 128
128 128 128
128 128 128
192 128 192
128 128 128
128 128 128
64 64 64
128 128 64
192 128 192
128 128 128
128 128 192
128 128 128
128 128 128
128 128 192
128 128 128
128 128 128
128 128 128
128 128 128
128 128 192
128 128 192
128 128 192
128 128 128
128 128 192
128 128 192
128 128 192
192 192 192
192 192 192
192 192 192
192 192 192
192 192 192
192 192 192
192 192 192
192 192 192
192 192 192
192 192 192
192 128 128
192 192 192
192 192 192
192 192 192
192 192 192
192 192 192
192 192 192
192 192 192
192 192 192
192 192 192
256 192 192
256 256 192
256 256 192
256 256 192
256 256 192
256 256 192
256 256 192
256 256 192
256 256 192
256 256 192
256 256 192
256 256 192
256 256 192
256 256 192
256 256 192
256 256 192
256 256 192
256 256 192
256 192 192
256 192 192
256 192 192
192 256 192
256 256 192
256 256 192
256 256 192
192 192 128
128 64 64
64 64 64
128 64 64
128 64 64
64 64 64
128 128 128
256 256 192
256 256 192
256 256 192
256 256 192
256 256 192
256 256 192
192 128 128
128 128 128
256 256 192
192 192 192
192 192 192
192 192 192
192 192 192
192 192 192
192 192 192
192 192 192
192 192 192
128 128 128
192 192 192
192 192 192
192 192 192
192 192 192
192 192 192
192 192 192
192 192 192
192 192 192
192 192 192
192 192 192
192 192 192
256 192 192
256 256 192
256 256 192
256 256 192
256 256 192
256 256 192
256 256 192
256 256 192
256 256 192
256 192 192
256 192 192
256 192 192
192 192 192
192 192 192
192 192 192
192 192 192
192 192 192
192 192 192
192 192 192
192 192 192
192 192 192
256 192 192
192 192 192
192 192 192
192 192 192
256 192 192
192 192 192
192 192 192
192 192 192
192 192 192
192 192 192
192 192 192
192 192 192
192 192 128
192 192 128
192 192 128
192 192 128
192 192 128
128 128 128
128 128 128
128 128 128
128 128 128
128 128 128
128 128 128
192 128 128
128 128 128
128 128 128
128 128 128
128 128 128
192 128 128
128 128 128
128 128 128
192 128 128
192 128 128
192 128 128
192 128 128
192 128 128
192 128 128
192 128 128
192 128 128
192 128 128
192 128 128
192 128 128
192 128 128
192 128 128
192 128 128
192 128 128
192 128 128
192 128 128
192 128 128
128 128 128
128 128 128
192 128 128
192 192 128
192 128 128
192 192 128
192 192 192
192 192 192
192 192 128
192 192 128
192 128 128
192 128 128
192 192 128
192 192 128
192 128 128
192 128 128
192 128 128
192 128 128
192 192 128
192 192 128
192 192 128
192 192 128
192 128 128
192 128 128
128 128 128
128 128 128
128 128 128
128 128 128
128 128 128
128 128 128
64 64 64
128 128 64
128 128 192
128 128 192
128 128 192
128 128 128
128 128 128
128 128 192
128 128 128
128 128 128
128 128 128
128 128 128
128 128 128
128 128 128
128 128 128
128 128 128
128 128 192
128 128 192
128 128 192
192 192 192
192 192 192
192 192 192
192 192 192
192 192 192
192 192 192
192 192 192
192 192 128
192 192 192
192 192 192
192 128 128
192 192 192
192 192 192
192 192 192
192 192 192
192 192 192
192 192 192
192 192 192
256 192 192
256 192 192
256 192 192
256 192 192
256 192 192
256 256 192
256 256 192
256 256 192
256 256 192
256 256 192
256 256 192
256 256 192
256 256 192
256 256 192
256 256 192
256 256 192
256 256 192
256 256 192
256 256 192
256 256 192
256 192 192
256 256 192
256 192 192
256 256 192
256 256 192
256 256 192
256 256 192
192 192 128
128 64 64
128 64 64
128 64 64
64 64 64
128 64 64
128 128 128
256 256 192
256 256 192
256 256 192
256 256 192
256 256 192
256 256 192
192 128 128
192 128 64
192 128 128
192 128 128
192 192 128
192 192 192
256 192 192
192 192 192
192 192 192
192 192 192
192 192 192
128 128 128
192 192 128
192 192 192
192 192 192
192 192 192
192 192 192
192 192 192
192 192 192
192 192 192
192 192 192
192 192 192
192 192 192
256 256 192
256 192 192
256 256 192
256 256 192
256 256 192
256 256 192
256 256 192
256 192 192
256 192 192
256 192 192
192 192 192
192 192 192
192 192 192
192 192 192
192 192 192
192 192 192
192 192 192
192 192 192
192 192 192
192 192 192
256 192 192
192 192 192
192 192 192
192 192 192
192 192 192
192 192 192
192 192 192
192 192 192
192 192 192
192 192 192
192 192 192
192 192 192
192 192 192
192 192 192
192 192 128
192 192 128
192 192 128
192 128 128
128 64 64
128 128 128
128 128 128
128 128 128
128 128 128
128 128 128
128 128 128
128 128 128
128 128 128
128 128 128
192 128 128
128 128 128
128 128 128
128 128 128
192 128 128
192 128 128
192 128 128
192 128 128
192 128 128
192 128 128
192 128 128
192 128 128
192 128 128
192 128 128
192 128 128
192 128 128
192 128 128
192 128 128
192 128 128
192 128 128
192 128 128
192 128 128
128 128 128
128 128 128
192 128 128
192 128 128
192 128 128
192 128 128
192 192 128
192 192 128
192 192 128
192 128 128
192 128 128
192 192 128
192 192 128
192 192 128
192 128 128
192 128 128
192 128 128
192 128 128
192 128 128
192 192 128
192 192 128
192 128 128
192 128 128
128 128 128
128 128 128
128 128 128
128 128 128
128 128 128
128 128 192
128 128 128
64 64 64
128 128 64
128 128 192
128 128 192
128 128 128
128 128 128
128 128 128
128 128 128
128 128 128
128 128 192
128 128 128
128 128 128
128 128 192
128 128 192
128 128 128
128 128 192
128 128 192
128 128 192
128 192 192
128 192 192
192 192 192
192 192 192
192 192 192
192 192 192
192 192 192
192 192 192
192 192 192
192 192 192
192 192 192
192 128 128
192 192 192
192 192 192
192 192 192
192 192 192
192 192 192
192 192 192
256 192 192
256 192 192
256 192 192
256 192 192
256 192 192
256 256 192
256 256 192
256 256 192
256 256 192
256 256 192
256 256 192
256 256 192
256 256 192
256 256 192
256 256 192
256 256 192
256 256 192
256 256 192
256 256 192
256 256 192
256 192 192
256 192 192
256 256 192
256 256 192
256 256 192
256 256 192
256 256 192
256 256 192
192 192 128
128 64 64
128 64 64
128 128 64
128 128 64
128 64 64
128 128 64
256 256 192
256 256 192
256 256 192
256 256 192
256 192 192
192 192 128
128 128 64
128 128 64
192 128 64
192 128 64
192 128 64
192 128 64
192 128 128
192 192 192
192 192 192
192 192 192
192 192 192
128 128 128
192 192 128
192 192 192
192 192 192
192 192 192
192 192 192
192 192 192
192 192 192
192 192 192
192 192 192
192 192 192
192 192 192
256 192 192
192 192 192
256 192 192
256 256 192
256 256 192
256 192 192
256 192 192
192 192 192
192 192 192
192 192 192
192 192 192
192 192 192
192 192 192
192 192 192
192 192 192
192 192 192
192 192 192
192 192 192
192 192 192
192 192 192
192 192 192
192 192 192
192 192 192
192 192 192
192 192 192
192 192 192
192 192 192
192 192 192
192 192 192
192 192 192
192 192 192
192 192 192
192 192 192
192 192 192
192 192 192
192 192 128
192 192 128
128 128 128
64 64 64
128 128 128
128 128 128
128 128 128
128 128 128
128 128 128
128 128 128
128 128 128
192 128 128
128 128 128
128 128 128
128 128 128
128 128 128
192 128 128
192 128 128
192 128 128
192 128 128
192 128 128
192 128 128
192 128 128
192 128 128
192 128 128
192 128 128
192 128 128
192 128 128
192 128 128
192 128 128
192 128 128
192 128 128
192 128 128
192 128 128
192 128 128
128 128 64
128 128 128
192 128 128
192 128 128
192 128 128
128 128 128
128 128 128
192 128 128
192 128 128
192 128 128
192 128 128
192 128 128
192 128 128
192 128 128
192 128 128
192 128 128
128 128 128
192 128 128
192 128 128
192 128 128
192 128 128
192 128 128
192 128 128
128 128 128
128 128 128
128 128 128
128 128 128
128 128 128
128 128 128
128 128 192
64 64 64
64 64 64
128 128 192
128 128 128
128 128 128
128 128 128
128 128 128
128 128 192
128 128 192
128 128 192
128 128 128
128 128 192
128 128 192
128 128 192
128 128 192
128 128 192
128 128 192
128 128 192
128 128 192
128 128 192
128 128 192
192 192 192
128 128 192
128 128 128
128 128 64
128 128 128
192 192 128
192 192 192
192 192 192
192 128 128
192 192 192
192 192 192
192 192 192
192 192 192
192 192 192
192 192 192
256 192 192
256 192 192
256 192 192
256 192 192
256 192 192
256 256 192
256 256 192
256 256 192
256 256 192
256 256 192
256 256 192
256 256 192
256 256 192
256 256 192
256 256 192
256 256 192
256 256 192
256 256 192
256 256 192
256 256 192
256 192 192
256 192 192
256 192 192
256 192 192
256 192 192
256 192 192
256 256 192
256 256 192
192 192 192
128 64 64
128 64 64
192 192 128
128 128 64
128 64 64
128 128 64
192 192 192
256 256 192
256 256 192
256 192 192
192 128 128
128 128 64
128 128 64
128 128 64
128 128 64
128 128 64
128 128 64
192 128 64
192 128 64
192 128 128
192 192 192
192 192 192
192 192 192
128 128 128
192 192 128
192 192 192
192 192 192
192 192 192
192 192 192
192 192 192
192 192 192
192 192 192
192 192 192
192 192 192
192 192 192
192 192 192
192 192 192
192 192 192
256 192 192
256 192 192
256 192 192
256 192 192
192 192 192
192 192 192
192 192 192
192 192 192
192 192 192
192 192 192
192 192 192
192 192 192
192 192 192
192 192 192
192 192 192
192 192 192
192 192 192
192 192 192
192 192 192
192 192 192
256 192 192
192 192 192
192 192 192
192 192 192
192 192 192
192 192 192
192 192 192
192 192 192
192 192 192
192 192 192
192 192 192
192 192 192
192 192 128
128 128 128
64 64 64
64 64 64
128 128 128
128 128 128
128 128 128
128 128 128
128 128 128
128 128 128
128 128 128
128 128 128
128 128 128
128 128 128
128 128 128
128 128 128
192 128 128
192 128 128
192 128 128
192 128 128
192 128 128
192 128 128
192 128 128
192 128 128
192 128 128
192 128 128
192 128 128
192 128 128
192 128 128
192 128 128
192 128 128
192 128 128
192 128 128
192 128 128
192 128 128
128 128 64
128 128 128
128 128 128
128 128 128
128 128 64
128 128 64
128 128 128
128 128 128
128 128 128
128 128 128
192 128 128
192 128 128
192 128 128
192 128 128
192 128 128
128 128 128
128 128 128
192 128 128
192 128 128
192 128 128
128 128 128
128 128 128
128 128 128
128 128 128
128 128 128
128 128 128
128 128 128
128 128 128
128 128 128
128 128 128
128 128 64
64 64 64
128 128 128
128 128 128
128 128 128
128 128 128
128 128 192
128 128 128
128 128 128
128 128 128
128 128 128
64 64 64
128 128 128
128 128 192
128 128 128
128 128 128
128 128 128
128 128 128
128 128 128
128 128 192
128 128 192
192 128 192
128 128 192
192 128 128
128 128 128
128 64 64
128 128 64
128 128 128
192 192 192
192 128 128
192 192 192
192 192 192
192 192 192
192 192 192
192 192 192
192 192 192
192 192 192
256 192 192
256 192 192
256 192 192
256 256 192
256 192 192
256 192 192
256 256 192
256 256 192
256 256 192
256 256 192
256 256 192
256 256 192
256 192 192
256 256 192
256 256 192
256 256 192
256 256 192
256 256 192
256 192 192
256 256 192
256 256 192
256 256 192
256 192 192
256 192 192
256 192 192
256 256 192
256 192 192
256 192 192
192 192 128
192 192 128
192 192 128
64 64 64
128 128 64
128 128 64
128 128 64
256 192 192
256 192 192
192 192 128
128 128 64
128 128 64
128 128 64
128 128 64
64 64 64
64 64 64
128 64 64
128 128 64
128 128 64
192 192 128
192 192 192
256 192 192
192 192 192
192 192 192
256 192 192
256 192 192
192 192 192
192 192 192
256 192 192
192 192 192
192 192 192
192 192 192
192 192 192
192 192 192
192 192 192
192 192 192
192 192 192
192 192 192
192 192 192
256 192 192
256 256 192
256 192 192
192 192 192
192 192 192
192 192 192
192 192 192
192 192 192
192 192 192
192 192 192
192 192 192
192 192 192
192 192 192
192 192 192
192 192 192
192 192 192
192 192 192
256 192 192
256 192 192
256 192 192
256 192 192
192 192 192
256 192 192
192 192 192
192 192 192
192 192 192
192 192 192
192 192 192
192 192 192
192 192 192
192 192 192
128 128 128
64 64 64
64 64 64
64 64 64
128 128 128
128 128 128
128 128 128
128 128 128
128 128 128
128 128 128
128 128 128
128 128 128
128 128 128
128 128 128
128 128 128
192 128 128
192 128 128
192 128 128
128 128 128
128 128 128
192 128 128
192 128 128
192 128 128
192 128 128
192 128 128
192 128 128
192 128 128
192 128 128
192 128 128
192 128 128
192 128 128
128 128 128
192 128 128
192 128 128
128 128 128
128 128 64
128 128 128
128 128 64
64 64 64
64 64 64
64 64 64
64 64 64
64 64 64
128 128 128
128 128 128
128 128 128
128 128 128
192 128 128
192 128 128
128 128 128
128 128 128
128 128 128
128 128 128
128 128 128
192 128 128
128 128 128
128 128 128
128 128 128
128 128 128
128 128 128
128 128 128
128 128 128
128 128 128
128 128 128
128 128 64
128 64 64
64 64 64
128 128 128
128 128 128
128 128 128
128 128 128
128 128 128
128 128 128
128 128 128
128 128 128
128 128 128
128 128 128
128 128 128
128 128 128
128 128 128
128 128 192
128 128 192
128 128 192
128 128 192
128 128 192
192 128 192
192 128 192
192 192 192
192 192 192
128 128 64
128 64 64
128 64 64
128 128 64
128 128 128
192 128 128
192 192 192
192 192 192
192 192 192
192 192 192
192 192 192
192 192 192
192 192 192
256 192 192
256 192 192
256 192 192
256 192 192
256 192 192
256 192 192
256 192 192
256 256 192
256 256 192
256 192 192
256 192 192
256 192 192
256 256 192
256 256 192
256 256 192
256 256 192
256 256 192
192 192 192
256 192 192
256 192 192
256 192 192
256 192 192
256 192 192
256 192 192
256 192 192
256 192 192
256 192 192
256 192 192
256 256 192
256 256 192
128 128 128
128 128 64
128 128 64
128 128 64
128 64 64
192 192 128
192 192 192
128 128 64
128 128 64
128 128 64
128 128 64
64 64 64
128 64 64
64 64 64
128 128 128
128 128 128
192 192 128
192 192 128
192 192 128
192 192 128
256 192 192
192 192 128
256 192 192
256 192 192
256 192 192
256 192 192
192 192 192
192 192 192
192 192 192
192 192 192
192 192 192
192 192 192
192 192 192
192 192 192
256 192 192
192 192 192
192 192 192
192 192 192
192 192 192
192 192 192
192 192 192
256 192 192
192 192 192
192 192 192
192 192 192
192 192 192
192 192 192
192 192 128
128 128 128
128 128 128
128 128 128
128 128 128
128 128 128
128 128 128
192 192 128
192 192 192
256 192 192
192 192 192
192 192 192
192 192 192
192 192 192
192 192 192
192 192 192
192 192 192
192 192 192
192 192 192
192 192 192
192 192 128
128 128 64
64 64 64
64 64 64
64 64 64
128 128 64
128 64 64
128 128 128
128 128 128
128 128 128
128 128 128
128 128 128
128 128 128
128 128 128
128 128 128
128 128 128
128 128 128
128 128 128
128 128 128
128 128 128
128 128 128
192 128 128
192 128 128
128 128 128
128 128 128
128 128 128
192 128 128
192 128 128
192 128 128
192 128 128
192 128 128
192 128 128
128 128 128
192 128 128
192 128 128
128 128 128
128 128 64
128 128 128
64 64 64
64 64 64
64 64 64
64 64 64
64 64 64
64 64 64
128 128 64
128 128 128
128 128 128
128 128 128
128 128 128
192 128 128
128 128 128
128 128 128
128 128 128
128 128 128
128 128 128
128 128 128
128 128 128
128 128 128
128 128 128
128 128 128
128 128 128
128 128 128
128 128 128
128 128 128
128 128 128
128 128 128
128 64 64
128 64 64
128 128 128
128 128 128
128 128 128
128 128 64
128 128 128
128 128 128
128 128 64
128 128 64
128 128 128
192 128 128
192 128 128
128 128 128
128 128 128
128 128 128
128 128 128
128 128 128
128 128 192
192 128 192
192 192 192
192 192 128
192 192 192
192 128 128
128 128 128
128 64 64
64 64 64
128 64 64
128 128 64
128 128 128
192 192 192
192 192 192
192 192 192
192 192 192
192 192 192
192 192 192
192 192 192
256 192 192
256 192 192
256 192 192
256 192 192
256 192 192
192 192 192
256 192 192
256 256 192
256 256 192
256 192 192
256 192 192
256 192 192
256 192 192
256 192 192
256 192 192
192 192 192
192 128 128
256 192 192
256 256 192
256 192 192
256 192 192
256 192 192
256 192 192
256 192 192
256 192 192
192 192 192
256 192 192
256 192 192
256 192 192
256 256 192
128 128 128
64 64 64
128 128 64
128 128 64
128 128 64
192 192 128
192 192 192
192 192 128
192 128 128
128 128 64
64 64 64
64 64 64
64 64 64
128 64 64
128 64 64
192 192 128
192 192 128
192 192 128
192 192 128
192 192 128
192 192 128
192 192 128
192 192 128
256 192 192
256 192 192
256 192 192
256 192 192
192 192 192
192 192 192
192 192 192
192 192 192
192 192 192
192 192 192
192 192 192
192 192 192
192 192 192
192 192 192
192 192 192
192 192 192
192 192 192
192 192 192
192 192 192
192 192 192
192 192 192
192 192 192
192 192 192
128 128 128
64 64 64
128 64 64
128 128 128
128 128 128
128 128 128
128 128 128
128 128 128
128 128 128
192 128 128
192 192 192
192 192 192
192 192 192
192 192 192
192 192 192
192 192 192
192 192 192
192 192 192
192 192 192
192 192 192
192 192 192
128 128 128
64 64 64
64 64 64
64 64 64
64 64 64
64 64 64
128 128 128
128 128 128
128 128 128
128 128 128
128 128 128
128 128 128
128 128 128
128 128 128
128 128 128
128 128 128
128 128 128
128 128 128
128 128 128
128 128 128
128 128 128
128 128 128
128 128 128
192 128 128
192 128 128
128 128 128
192 128 128
192 128 128
128 128 128
192 128 128
128 128 128
128 128 128
128 128 128
128 128 128
128 128 128
128 128 128
128 128 64
128 128 128
64 64 64
64 64 64
64 64 64
64 64 64
64 64 64
64 64 64
64 64 64
128 128 128
128 128 64
128 128 64
128 128 128
192 128 128
128 128 128
128 128 128
128 128 128
128 128 128
128 128 128
128 128 128
128 128 128
128 128 128
128 128 128
128 128 128
128 128 128
128 128 128
128 128 128
128 128 128
128 128 192
128 128 128
128 64 64
128 64 64
128 128 128
128 128 128
128 128 128
128 128 128
192 128 128
192 128 128
128 128 64
128 128 64
192 128 64
192 192 128
192 192 128
192 128 128
128 128 128
192 128 128
192 128 128
192 128 192
192 128 192
192 192 128
192 192 128
192 192 192
192 192 192
192 192 128
192 192 192
192 192 192
192 192 128
128 128 128
128 64 64
128 128 128
192 192 128
192 192 192
192 192 192
192 192 192
192 192 192
192 192 192
192 192 192
192 192 192
192 192 192
192 192 192
256 192 192
256 192 192
192 192 192
256 192 192
256 192 192
256 192 192
256 192 192
256 192 192
256 192 192
256 192 192
256 192 192
192 192 192
128 128 128
128 128 128
192 192 128
192 192 192
256 192 192
256 192 192
256 192 192
256 192 192
256 192 192
192 192 192
192 192 192
192 192 192
192 192 192
256 192 192
256 256 192
128 128 128
64 64 64
128 128 64
128 128 64
128 128 64
128 128 128
192 192 192
256 192 192
192 192 192
64 64 64
64 64 64
128 128 64
128 128 64
128 128 64
128 128 64
192 192 128
192 192 128
192 128 128
192 192 128
256 192 128
256 192 128
192 192 128
256 192 192
192 192 192
192 192 192
192 192 192
192 192 128
192 192 128
192 192 128
192 192 128
192 192 192
192 192 192
192 192 192
192 192 192
192 192 192
192 192 192
192 192 192
192 192 192
192 192 192
192 192 192
192 128 128
192 192 192
192 192 192
192 192 192
192 192 192
192 128 128
64 64 64
128 64 64
128 128 64
128 128 64
128 128 64
128 128 128
128 128 128
128 128 128
128 128 128
192 192 128
192 192 192
192 192 192
192 192 192
192 192 192
192 192 192
192 192 192
192 192 192
192 192 192
192 192 192
192 192 192
192 192 192
128 128 128
64 64 64
128 64 64
128 64 64
128 64 64
128 64 64
128 128 64
128 128 128
128 128 128
128 128 128
128 128 128
128 128 128
128 128 128
128 128 128
128 128 128
128 128 128
128 128 128
128 128 128
128 128 128
128 128 128
128 128 128
128 128 128
128 128 128
128 128 128
128 128 128
128 128 128
128 128 128
128 128 128
128 128 128
128 128 128
128 128 64
128 128 128
128 128 128
128 128 128
128 128 128
128 128 128
128 128 64
128 128 128
64 64 64
128 128 128
128 128 128
128 128 128
128 128 128
128 128 128
128 128 64
64 64 64
64 64 64
64 64 64
128 128 64
128 128 128
128 128 128
128 128 128
128 128 128
128 128 128
128 128 128
128 128 128
128 128 128
128 128 128
128 128 128
128 128 128
128 128 128
128 128 128
128 128 128
128 128 128
128 128 192
128 128 128
128 64 64
128 64 64
128 128 64
128 128 128
128 128 128
128 128 128
192 128 128
192 128 128
192 128 128
192 128 128
128 128 64
128 128 64
128 128 64
128 128 128
192 128 128
192 128 128
192 128 128
192 128 192
192 128 192
192 192 128
192 192 128
192 192 128
192 192 128
192 128 128
192 192 128
192 192 192
192 192 192
192 192 192
128 64 64
128 128 64
128 128 128
192 192 192
192 192 192
192 192 192
192 192 192
192 192 192
192 192 192
192 192 192
192 192 192
192 192 192
192 192 192
192 192 192
256 192 192
256 192 192
256 192 192
192 192 192
256 192 192
192 192 192
192 192 192
256 192 192
192 192 192
128 128 128
128 128 64
128 128 64
128 128 64
128 128 128
192 192 128
256 192 192
256 192 192
256 192 192
192 192 192
192 192 192
192 192 192
192 192 192
192 192 192
256 192 192
256 192 192
128 128 128
64 64 64
64 64 64
128 64 64
128 128 64
192 192 128
256 192 192
192 192 192
192 192 192
64 64 64
128 64 64
128 128 64
128 128 64
128 128 64
128 128 128
128 128 64
128 64 64
64 64 64
128 64 64
192 128 128
192 192 128
192 192 128
192 192 128
192 192 128
256 192 192
192 192 128
192 192 128
192 192 128
192 192 128
192 128 128
192 128 128
192 192 192
192 192 192
192 192 192
192 192 192
192 192 192
192 192 192
192 192 192
192 192 192
192 192 128
128 128 128
192 192 192
192 192 192
192 192 192
192 192 192
128 128 64
64 64 64
64 64 64
128 64 64
128 64 64
128 64 64
128 128 128
128 128 128
128 128 128
128 128 64
192 192 128
192 192 192
192 192 192
192 192 192
192 192 192
192 192 192
192 192 192
192 192 192
192 192 192
192 192 192
192 192 192
192 192 192
64 64 64
64 64 64
128 64 64
128 64 64
64 64 64
64 64 64
64 64 64
64 64 64
128 128 128
128 128 128
128 128 128
128 128 128
128 128 128
128 128 128
128 128 128
128 128 128
128 128 128
128 128 128
128 128 128
128 128 128
128 128 128
128 128 128
128 128 128
128 128 128
128 128 128
128 128 128
128 128 128
128 128 128
128 128 128
128 128 128
128 128 64
128 128 64
128 128 128
128 128 128
128 128 128
128 128 128
128 128 64
128 128 128
128 128 128
128 128 128
128 128 64
128 128 64
128 128 64
128 128 128
192 192 128
128 128 128
64 64 64
64 64 64
64 64 64
128 128 128
128 128 128
128 128 128
128 128 128
128 128 128
128 128 128
64 64 64
128 128 64
128 128 128
128 128 128
128 128 128
128 128 128
128 128 128
128 128 128
128 128 128
128 128 128
128 128 128
128 128 64
128 64 64
128 64 64
128 128 128
128 128 128
192 128 128
192 128 128
128 128 128
128 128 64
128 128 64
128 128 64
128 128 64
128 64 64
128 128 128
192 128 128
192 128 128
192 128 128
192 128 128
192 128 128
192 128 128
192 128 128
192 128 128
192 128 128
192 128 128
192 192 128
192 192 128
192 192 128
192 192 192
128 128 128
128 64 64
128 128 64
128 128 128
192 192 192
192 192 192
192 192 192
192 192 128
192 192 192
192 192 192
192 192 192
192 192 192
192 192 192
192 192 192
192 192 192
192 192 192
192 192 128
128 128 64
128 128 64
128 128 128
192 192 128
192 128 128
192 128 128
128 128 128
128 64 64
128 128 64
128 64 64
128 64 64
128 128 64
192 192 192
256 192 192
192 192 192
192 192 192
192 192 192
192 192 192
192 192 192
192 192 192
192 192 192
192 192 192
128 64 64
64 64 64
128 64 64
128 64 64
128 64 64
192 192 128
192 192 192
192 192 192
192 192 192
128 128 128
128 64 64
128 64 64
128 64 64
128 64 64
128 64 64
128 64 64
128 64 64
128 64 64
128 128 64
128 128 64
128 128 128
192 128 128
192 192 128
192 192 128
256 192 128
192 192 128
192 192 128
256 192 192
192 192 128
192 192 128
192 128 128
192 192 192
192 192 192
192 192 192
192 192 192
192 192 192
192 192 192
192 192 192
192 192 192
192 192 192
192 128 128
192 192 192
192 192 192
192 192 128
192 192 192
128 128 64
64 64 0
64 64 64
64 64 64
64 64 64
128 64 64
128 128 64
128 128 64
128 128 64
128 128 64
192 128 128
192 192 192
192 192 192
192 192 192
192 192 192
192 192 192
192 192 192
192 192 192
192 192 192
192 192 192
192 192 128
192 192 128
128 128 128
64 64 64
128 64 64
64 64 64
128 64 64
64 64 64
64 64 64
64 64 64
64 64 64
128 128 64
128 128 128
128 128 128
128 128 128
128 128 128
128 128 128
128 128 128
128 128 128
128 128 128
128 128 128
128 128 128
64 64 64
128 64 64
128 128 128
128 128 128
128 128 128
128 128 128
128 128 128
128 128 128
128 128 128
128 128 64
128 64 64
128 64 64
128 64 64
128 128 64
128 128 128
128 128 64
128 128 64
128 128 64
64 64 64
64 64 64
128 64 64
128 64 64
128 64 64
128 64 64
128 128 64
128 128 128
192 192 128
64 64 64
64 64 64
64 64 64
64 64 64
128 128 128
128 128 128
128 128 128
64 64 128
64 64 64
128 128 128
128 128 128
128 128 128
128 128 128
128 128 128
128 128 128
128 128 128
128 128 128
128 128 128
128 128 128
128 128 64
128 64 64
64 64 64
128 64 64
128 128 128
128 128 64
128 64 64
128 128 64
128 64 64
64 64 64
64 64 64
128 64 64
128 64 64
128 128 128
128 128 128
128 128 128
128 128 128
128 128 128
128 128 128
128 128 128
128 128 128
128 128 128
128 128 128
128 128 128
128 128 64
128 64 64
128 128 64
128 128 64
128 128 64
128 64 64
128 64 64
128 128 64
128 128 128
192 128 128
192 128 128
192 128 128
128 128 128
192 128 128
192 192 192
192 192 192
192 192 192
192 192 192
192 192 192
192 192 128
128 128 64
128 128 64
128 128 64
128 64 64
128 128 64
128 128 128
192 128 128
192 128 128
128 64 64
128 64 64
128 64 64
128 64 64
128 64 64
128 128 128
192 192 192
192 192 192
192 192 192
192 192 192
192 192 192
192 192 192
192 192 192
192 192 192
192 128 128
64 64 64
64 64 64
64 64 64
128 128 64
128 128 64
192 192 128
192 192 192
192 192 192
192 192 192
128 128 128
128 64 64
128 64 64
128 64 64
128 64 64
128 128 64
128 128 64
128 128 64
128 128 64
192 128 64
192 128 64
128 128 64
128 128 64
192 192 128
192 192 128
192 192 128
192 192 128
192 192 128
192 192 128
192 192 128
192 192 128
192 128 128
192 128 128
192 192 192
192 192 192
192 192 192
192 192 192
192 192 192
192 192 192
192 192 192
192 192 192
192 192 192
192 192 192
192 192 192
192 192 192
128 128 128
64 64 64
64 64 64
64 64 64
64 64 64
64 64 64
64 64 64
64 64 64
128 64 64
64 64 64
128 128 128
128 128 128
192 192 128
192 128 128
192 192 192
192 192 192
192 192 192
192 128 128
192 128 128
192 128 128
192 128 128
128 128 128
128 128 128
128 128 128
128 64 64
64 64 64
64 64 64
128 64 64
64 64 64
64 64 64
64 64 64
64 64 64
64 64 64
64 64 64
128 64 64
128 64 64
64 64 64
64 64 128
128 128 64
128 64 64
128 64 128
128 128 128
64 64 64
64 64 64
64 64 64
64 64 64
128 128 128
128 128 128
128 128 128
128 128 128
128 128 128
128 128 128
128 64 64
128 64 64
64 64 64
64 64 64
64 64 64
64 64 64
64 64 64
128 128 64
64 64 64
64 64 64
64 64 64
128 64 64
128 64 64
128 128 64
128 128 64
128 128 64
128 128 64
128 128 128
192 192 128
64 64 64
64 64 64
64 64 64
64 64 64
128 128 128
64 64 128
64 64 64
64 64 64
64 64 128
128 128 128
128 128 128
64 64 64
128 128 128
128 128 128
128 128 128
128 128 128
128 128 128
128 128 128
128 128 64
128 64 64
128 128 128
128 64 64
128 128 64
128 64 64
64 64 64
128 64 64
128 64 64
64 64 64
64 64 64
64 64 64
64 64 64
128 128 128
128 128 128
128 128 128
128 128 128
128 128 128
128 128 128
128 128 128
128 128 128
128 128 128
128 64 64
128 64 64
64 64 64
64 64 64
128 64 64
64 64 64
128 64 64
128 64 64
64 64 64
64 64 64
64 64 64
128 64 64
128 128 64
128 128 128
128 128 128
128 128 128
128 128 128
128 128 128
128 128 128
128 128 192
192 192 192
128 128 128
128 128 64
128 128 64
128 128 128
128 128 64
128 64 64
128 128 64
128 128 128
128 128 64
128 128 64
128 64 64
64 64 64
64 64 64
128 64 64
128 64 64
128 128 128
128 128 128
128 128 192
128 128 192
128 128 192
192 192 192
192 192 192
192 192 192
128 128 64
64 64 64
64 64 64
128 64 64
128 128 64
128 128 64
128 128 128
128 128 128
192 192 128
192 192 192
128 128 128
128 128 64
128 128 64
128 64 64
128 64 64
128 128 64
128 64 64
128 128 64
192 128 128
192 128 128
192 128 64
128 128 64
128 128 64
192 128 128
192 192 128
192 192 128
192 192 128
192 192 128
192 192 128
192 192 128
192 192 128
128 128 128
128 128 64
192 192 192
192 192 192
192 192 192
192 192 192
192 192 192
192 192 192
192 192 192
192 192 192
192 192 192
192 128 128
192 128 192
192 128 128
128 128 128
64 64 0
64 64 64
64 64 64
64 64 64
64 64 64
64 64 64
64 64 64
64 64 64
64 64 64
64 64 64
128 128 128
128 128 128
128 128 128
128 128 128
128 128 128
128 128 128
128 128 128
128 64 64
128 128 128
128 128 128
128 128 128
128 128 128
128 128 128
128 64 64
128 64 64
64 64 64
128 64 64
64 64 64
64 64 64
64 64 64
64 64 0
64 64 64
64 64 64
64 64 64
64 64 64
64 64 64
64 64 64
64 64 64
64 64 64
64 64 64
64 64 64
64 64 64
64 64 64
128 128 64
128 128 64
128 128 128
128 128 128
128 128 128
128 128 128
128 128 64
128 128 128
128 128 128
128 128 64
64 64 64
64 64 64
64 64 64
64 64 64
64 64 64
128 128 64
128 64 64
64 64 64
128 64 64
128 64 64
128 128 64
128 128 64
128 128 64
128 64 64
128 64 64
64 64 64
128 128 128
64 64 64
64 64 64
64 64 64
64 64 64
64 64 64
64 64 128
64 64 64
64 64 64
64 64 64
128 128 128
64 64 128
64 64 64
64 64 128
128 128 128
64 64 64
128 128 128
128 128 128
64 64 128
64 64 64
128 64 64
128 128 128
128 128 64
128 64 64
128 64 64
128 64 64
128 64 64
128 64 64
128 64 64
128 64 64
128 64 64
128 64 64
128 128 128
128 128 128
128 128 128
128 128 128
128 128 128
128 128 128
64 128 128
128 128 128
128 128 128
64 64 64
128 64 64
64 64 64
128 64 64
128 64 64
128 64 64
128 64 64
64 64 64
64 64 64
64 64 64
64 64 64
128 64 64
128 128 64
128 128 64
128 128 128
128 128 128
128 128 128
128 128 128
128 128 128
128 128 128
128 128 128
128 128 64
128 128 64
128 128 64
128 128 64
192 128 128
192 128 128
128 64 64
128 64 64
128 128 64
128 128 64
64 64 64
64 64 64
64 64 64
64 64 64
64 64 64
128 128 128
128 128 128
128 128 128
128 128 128
128 128 128
128 128 128
128 128 128
128 128 64
128 64 64
128 128 64
128 64 64
128 128 64
128 128 64
128 128 64
128 128 64
128 128 64
128 128 128
192 192 128
128 128 64
128 128 128
128 128 64
128 64 64
128 128 64
128 128 128
128 128 128
128 128 64
128 64 64
128 128 64
128 64 64
128 64 64
128 64 64
128 64 64
192 128 128
192 192 128
192 192 128
192 192 128
192 192 128
192 192 128
192 192 128
128 64 64
128 128 64
192 192 192
192 192 192
192 192 192
192 192 192
192 192 192
192 192 192
192 192 192
128 128 64
128 128 128
128 128 128
128 128 128
128 128 128
128 128 64
64 64 64
64 64 64
64 64 64
64 64 64
64 64 64
64 64 64
64 64 64
128 64 64
64 64 64
64 64 64
128 128 128
128 128 128
128 128 128
128 128 128
128 128 128
128 128 128
128 64 64
64 64 64
128 128 128
128 128 128
64 64 128
128 128 128
128 128 128
64 64 64
128 64 64
128 64 64
128 64 64
64 64 0
64 64 64
64 64 0
64 64 64
64 64 64
64 64 64
64 64 64
128 64 64
64 64 64
64 64 64
64 64 64
64 64 64
64 64 64
64 64 64
128 64 64
128 128 128
128 128 64
64 64 64
128 128 64
128 128 128
128 128 128
128 64 64
64 64 64
128 128 128
128 64 64
64 64 64
64 64 64
128 128 64
128 128 64
128 64 64
128 64 64
128 64 64
128 64 64
128 64 64
128 64 64
128 64 64
128 64 64
128 64 64
128 128 64
128 128 64
128 64 64
64 64 64
64 64 64
64 64 64
64 64 64
64 64 64
64 64 64
64 64 64
64 64 128
64 64 64
64 64 64
64 64 64
64 64 64
64 64 64
64 64 64
64 64 64
64 64 128
128 128 128
128 128 128
128 128 128
128 128 128
64 64 64
128 64 64
128 128 128
128 128 64
128 64 64
128 64 64
64 64 64
128 64 64
128 64 64
128 64 64
64 64 64
128 64 64
128 64 64
128 128 128
128 128 128
128 128 128
128 128 128
128 128 128
128 128 128
128 128 128
128 128 128
128 128 128
64 64 64
64 64 64
64 64 64
128 64 64
128 64 64
128 64 64
64 64 64
64 64 64
64 64 64
64 64 64
128 64 64
128 64 64
128 128 64
128 128 64
128 128 64
128 128 128
128 128 128
128 128 128
128 128 128
128 128 128
128 128 128
128 128 64
128 128 64
128 128 64
128 128 64
128 128 64
128 64 64
128 64 64
64 64 64
128 128 64
128 128 64
64 64 64
64 64 64
64 64 64
64 64 64
64 64 64
128 128 128
128 128 128
128 128 128
128 128 128
128 128 128
128 128 128
128 64 64
128 64 64
128 128 64
128 128 128
64 64 64
64 64 64
128 64 64
128 64 64
64 64 64
128 128 64
128 128 128
128 64 64
128 128 128
128 128 128
128 64 64
128 64 64
128 128 64
128 128 64
192 128 128
128 128 64
128 64 64
128 64 64
128 64 64
128 128 64
128 128 64
128 64 64
128 128 64
192 128 128
192 128 128
128 128 128
128 128 128
192 128 128
192 128 128
128 64 64
128 128 128
192 192 192
192 192 192
192 192 192
192 192 192
192 192 192
192 192 192
192 192 128
128 64 64
128 128 64
128 128 64
128 128 64
128 128 64
128 64 64
64 64 64
64 64 64
64 64 64
64 64 64
128 64 64
128 64 64
128 64 64
128 64 64
128 64 64
64 64 64
128 128 128
128 128 128
128 128 128
128 128 128
128 128 128
128 128 128
64 64 64
128 64 64
128 128 128
128 128 128
128 128 128
128 128 128
128 128 64
64 64 64
64 64 64
64 64 64
64 64 64
64 64 64
64 64 64
64 64 0
64 64 0
64 64 64
64 64 64
128 128 128
128 128 128
128 64 64
64 64 64
64 64 64
64 64 64
64 64 64
64 64 64
64 64 64
128 128 128
128 128 64
128 64 64
128 128 64
128 128 128
128 128 128
128 128 64
64 64 64
128 128 64
64 64 64
64 64 64
64 64 64
128 128 128
128 128 64
128 64 64
128 64 64
64 64 64
64 64 64
128 64 64
128 64 64
128 64 64
128 64 64
128 64 64
128 64 64
128 128 64
128 128 64
64 64 64
64 64 64
128 64 64
128 128 64
128 128 64
128 128 64
64 64 64
64 64 64
64 64 64
64 64 64
64 64 64
64 64 64
64 64 64
64 64 64
64 64 128
64 64 128
64 64 64
128 128 64
128 128 128
128 128 128
64 64 64
64 64 64
64 64 64
64 64 64
128 64 64
64 64 64
64 64 64
64 64 64
64 64 64
64 64 64
64 64 64
64 64 64
128 128 128
128 128 128
128 128 64
128 64 64
128 128 128
128 128 128
128 128 128
128 128 128
128 128 128
128 128 128
128 128 64
64 64 64
128 128 64
128 64 64
128 64 64
64 64 64
0 64 64
0 64 64
64 64 64
64 64 64
64 64 64
128 64 64
128 128 64
128 128 64
128 128 64
128 128 128
128 128 128
128 128 128
128 128 128
128 128 128
128 128 128
128 64 64
128 128 64
128 128 64
128 64 64
128 64 64
128 64 64
128 64 64
64 64 64
128 64 64
128 64 64
64 64 64
64 64 64
64 64 64
64 64 64
64 64 64
128 128 128
128 128 128
128 128 128
128 128 128
128 128 128
128 64 64
128 64 64
128 64 64
128 128 64
64 64 64
64 64 64
128 64 64
128 64 64
128 128 64
128 128 64
128 64 64
128 64 64
64 64 64
128 128 128
128 128 64
128 128 128
128 64 64
128 64 64
128 64 64
128 128 128
128 128 128
128 128 64
128 64 64
128 128 64
128 128 64
128 128 64
128 64 64
128 128 64
128 128 128
128 128 128
128 128 64
128 128 64
128 128 128
128 128 64
128 64 0
128 128 128
192 192 192
192 192 192
192 192 192
192 192 192
192 192 192
192 192 192
192 192 128
128 128 64
128 128 64
128 64 64
128 128 64
128 128 64
128 128 64
64 64 64
64 64 64
64 64 64
64 64 64
128 64 64
64 64 64
128 64 64
128 64 64
64 64 64
64 64 64
128 128 128
64 128 128
64 64 128
128 128 128
128 128 128
128 128 128
64 64 64
128 128 64
128 128 128
128 128 128
128 128 128
128 128 128
128 64 64
128 64 64
128 64 64
64 64 64
64 64 64
64 64 64
64 64 64
64 64 64
64 64 0
64 64 64
128 64 64
128 128 128
128 128 128
128 128 128
64 64 64
64 64 64
64 64 64
64 64 64
64 64 64
64 64 64
128 128 64
128 128 64
64 64 64
64 64 64
64 64 64
128 128 64
128 64 64
64 64 64
128 64 64
64 64 64
64 64 64
64 64 64
64 64 64
128 64 64
128 64 64
64 64 64
64 64 64
64 64 64
64 64 64
64 64 64
64 64 64
128 64 64
128 64 64
128 64 64
64 64 64
128 64 64
64 64 64
128 64 64
128 128 64
128 128 64
128 128 64
128 64 64
64 64 64
64 64 64
64 64 64
64 64 64
64 64 64
64 64 64
64 64 128
128 128 128
64 64 64
64 64 64
64 64 64
64 64 64
64 64 64
64 64 64
64 64 64
64 64 64
64 64 64
128 64 64
128 128 64
128 64 64
64 64 64
64 64 64
64 64 64
64 64 64
64 64 64
128 128 128
128 128 128
128 128 128
64 64 64
64 64 64
128 128 128
128 128 128
128 128 128
128 128 128
128 128 128
128 128 128
128 128 128
128 64 64
64 64 64
64 64 64
64 64 64
0 64 64
64 64 64
64 64 64
128 64 64
64 64 64
64 64 64
64 64 64
128 64 64
64 64 64
64 64 64
128 128 64
128 128 128
128 128 128
128 128 128
128 128 128
128 64 64
128 64 64
128 64 64
128 64 64
128 64 64
128 64 64
128 128 64
128 64 64
128 64 64
64 64 64
128 64 64
64 64 64
64 64 64
64 64 64
64 64 64
128 64 64
128 128 128
128 64 64
128 64 64
128 64 64
128 64 64
128 64 64
128 64 64
128 64 64
128 128 64
64 64 64
64 64 64
128 64 64
128 128 64
128 128 128
192 128 128
128 128 64
128 128 64
64 64 64
128 128 128
128 128 64
192 192 128
128 64 64
128 128 64
192 128 128
192 128 128
128 128 128
128 64 64
128 64 64
128 128 64
128 64 64
128 64 64
128 64 64
128 128 64
128 128 128
128 128 64
128 128 64
128 128 64
128 64 64
128 64 64
128 64 0
128 128 128
192 192 192
192 192 192
192 192 192
192 192 192
192 192 192
192 192 192
192 192 128
128 64 64
128 64 64
128 64 64
128 64 64
64 64 64
64 64 64
128 64 64
64 64 64
64 64 64
64 64 64
64 64 64
64 64 64
128 64 64
128 64 64
64 64 64
128 64 64
128 128 128
128 128 128
128 128 128
128 128 128
128 128 128
128 128 64
128 64 64
128 128 128
128 128 128
128 128 128
128 128 128
128 128 128
128 64 64
128 64 64
128 128 128
64 64 64
64 64 64
64 64 64
64 64 64
64 64 64
64 64 0
64 64 64
64 64 64
128 128 128
128 128 128
128 128 128
64 64 64
64 64 64
64 64 64
64 64 64
64 64 64
64 64 64
128 128 64
128 128 64
128 64 64
128 64 64
64 64 64
64 64 64
64 64 64
64 64 64
64 64 64
64 64 64
64 64 64
64 64 64
64 64 64
128 64 64
128 64 64
64 64 64
64 64 64
64 64 64
64 64 64
0 64 64
64 64 64
64 64 64
128 64 64
128 128 64
128 64 64
64 64 64
128 64 64
128 64 64
64 64 64
64 64 64
128 64 64
64 64 64
128 128 64
128 64 64
128 128 128
128 128 128
128 128 128
128 128 128
128 128 64
128 128 64
64 64 64
64 64 64
64 64 64
64 64 64
64 64 64
64 64 64
64 64 64
64 64 64
128 64 64
128 64 64
128 128 64
128 128 128
128 64 64
64 64 64
64 64 64
64 64 64
64 64 64
128 128 128
128 128 128
128 128 128
128 64 64
64 64 64
128 64 64
128 128 128
128 128 128
128 128 128
128 128 128
64 64 64
128 128 64
128 128 64
128 64 64
128 64 64
64 64 64
64 64 64
128 64 64
128 128 64
128 64 64
64 64 64
128 64 64
64 64 64
128 64 64
64 64 64
64 64 64
64 64 64
64 64 64
128 64 64
128 64 64
128 64 64
64 64 64
128 64 64
128 64 64
128 64 64
128 64 64
128 64 64
128 64 64
128 64 64
128 64 64
64 64 64
128 64 64
64 64 64
64 64 64
64 64 64
64 64 64
128 64 64
128 64 64
128 64 64
128 64 64
128 64 64
128 64 64
128 64 64
128 64 64
128 64 64
64 64 64
64 64 64
64 64 64
128 64 64
128 128 64
128 128 64
128 128 64
128 128 64
128 128 64
128 64 64
128 128 64
128 128 128
192 192 128
128 128 128
128 128 64
128 128 64
192 128 128
128 128 128
128 64 64
128 64 64
128 64 64
128 64 64
128 64 64
128 64 64
128 64 64
128 128 64
128 128 64
128 64 64
64 64 0
128 64 64
128 64 64
128 64 64
192 128 128
192 192 192
192 192 192
192 192 192
192 192 192
192 192 192
192 192 192
128 128 128
64 64 64
64 64 64
64 64 64
64 64 64
64 64 64
64 64 64
64 64 64
64 64 64
128 128 64
128 128 128
192 192 128
192 192 128
192 192 128
192 128 128
128 128 64
128 128 128
128 128 128
128 128 128
128 128 128
128 128 128
128 128 128
128 128 64
128 128 64
128 128 128
128 128 128
128 128 128
128 128 128
128 128 64
128 64 64
128 64 64
128 128 128
64 64 64
128 64 64
64 64 64
64 64 64
64 64 64
64 64 64
64 64 64
64 64 64
128 64 64
128 128 64
128 128 64
128 128 64
64 64 64
64 64 64
64 64 64
64 64 64
128 64 64
128 128 128
128 128 64
128 128 64
128 128 64
128 64 64
128 128 64
64 64 64
64 64 64
64 64 64
64 64 64
64 64 64
64 64 64
64 64 64
64 64 64
64 64 64
64 64 64
64 64 64
64 64 64
64 64 64
64 64 64
64 64 64
64 64 64
128 64 64
128 64 64
64 64 64
64 64 64
128 64 64
128 64 64
128 64 64
128 64 64
128 64 64
128 128 64
128 64 64
128 64 64
128 128 64
128 128 128
128 128 128
128 128 128
128 64 64
64 64 64
64 64 64
64 64 64
64 64 64
64 64 64
64 64 64
64 64 64
64 64 64
64 64 64
64 64 64
64 64 64
128 64 64
128 64 64
128 128 64
128 64 64
64 64 64
64 64 64
128 64 64
128 128 128
64 64 64
64 64 64
64 64 64
64 64 64
128 64 64
128 128 128
128 128 128
128 128 128
128 64 64
64 64 64
64 64 64
128 64 64
128 64 64
128 64 64
64 64 64
64 64 64
128 64 64
64 64 64
128 64 64
128 128 64
128 128 64
64 64 64
128 64 64
64 64 64
64 64 64
64 64 64
64 64 64
64 64 64
64 64 64
128 64 64
64 64 64
64 64 64
128 64 64
128 64 64
128 128 64
128 64 64
128 64 64
128 64 64
128 64 64
128 64 64
64 64 64
128 128 64
128 128 64
128 64 64
128 128 64
128 128 64
64 64 64
128 64 64
128 64 64
128 64 64
128 64 64
128 64 64
128 64 64
64 64 64
64 64 64
64 64 64
128 64 64
128 64 64
128 128 64
128 128 64
128 128 64
128 128 64
128 64 64
64 64 64
128 128 128
192 128 128
128 128 64
128 128 64
128 128 64
128 64 64
128 128 64
128 128 128
128 64 64
128 64 64
128 64 64
128 64 64
128 64 64
128 64 64
128 64 64
128 128 64
128 128 128
64 64 64
64 64 0
128 64 64
128 64 64
128 64 64
192 192 192
192 192 192
192 192 192
192 192 192
192 192 192
192 192 128
192 128 128
128 64 64
64 64 64
128 64 64
128 64 64
128 64 64
128 64 64
64 64 64
128 128 64
192 192 128
192 192 128
192 192 128
192 192 128
192 192 128
192 192 128
192 192 128
192 192 192
192 192 128
128 128 128
128 128 128
128 128 128
128 128 128
128 128 128
128 128 128
128 128 64
128 128 128
128 128 128
128 128 128
128 128 128
128 128 64
128 64 64
128 128 128
64 64 64
128 64 64
128 64 64
64 64 64
64 64 64
64 64 64
64 64 64
64 64 0
64 64 64
64 64 64
64 64 64
64 64 0
64 64 64
128 64 64
128 64 64
64 64 64
64 64 64
128 64 64
128 128 64
128 64 64
128 128 64
128 64 64
64 64 64
128 64 64
64 64 64
128 64 64
64 64 64
64 64 64
64 64 64
64 64 64
64 64 64
64 64 64
64 64 64
64 64 64
64 64 64
64 64 64
64 64 64
64 64 64
64 64 64
64 64 64
64 64 64
128 64 64
64 64 64
64 64 0
64 64 64
128 64 64
128 64 64
128 64 64
128 64 64
128 64 64
128 64 64
128 64 64
128 64 64
128 64 64
128 64 64
128 128 128
64 64 64
64 64 64
64 64 64
64 64 64
64 64 64
64 64 64
64 64 64
64 64 64
64 64 64
64 64 64
64 64 64
64 64 64
64 64 64
64 64 64
64 64 64
128 128 64
128 128 64
128 128 64
128 128 64
128 128 64
128 128 64
64 64 64
64 64 64
128 128 64
128 64 64
128 128 128
128 128 128
128 128 128
128 128 128
128 128 64
64 64 64
128 64 64
64 64 64
64 64 64
64 64 64
64 64 64
128 64 64
128 64 64
128 64 64
128 128 64
128 128 64
64 64 64
64 64 64
64 64 64
64 64 64
128 64 64
128 64 64
64 64 64
64 64 64
64 64 64
64 64 64
128 64 64
128 128 64
128 64 64
128 128 64
128 64 64
128 64 64
128 64 64
128 64 64
128 64 64
128 64 64
128 128 64
192 192 128
128 128 128
128 128 64
128 128 128
64 64 64
128 64 64
128 64 64
128 64 64
128 64 64
128 64 64
128 64 64
64 64 64
64 64 64
64 64 64
64 64 64
128 64 64
128 64 64
128 128 64
128 64 64
128 128 64
128 64 64
128 64 64
192 192 192
192 192 192
192 192 128
192 192 128
128 128 128
128 128 128
128 64 64
128 128 128
128 128 64
128 128 64
128 128 64
128 128 64
128 64 64
128 64 64
128 64 64
128 128 64
192 128 128
128 64 64
64 64 0
128 64 64
128 64 64
128 128 128
192 192 192
192 192 192
192 192 192
192 192 192
192 192 128
128 128 128
128 128 64
128 64 64
64 64 64
64 64 64
64 64 64
128 64 64
64 64 64
128 128 64
192 192 128
192 192 128
192 192 128
192 192 128
192 192 128
192 192 128
192 192 128
192 192 128
192 192 128
192 192 128
192 192 192
128 128 128
128 64 64
128 128 128
128 128 128
128 128 128
128 128 128
128 128 128
128 128 128
128 128 128
128 128 128
128 128 64
128 64 64
128 64 64
64 64 64
128 64 64
128 64 64
128 64 64
64 64 64
64 64 64
64 64 64
64 64 64
64 64 64
64 64 64
64 64 64
64 64 64
64 64 0
128 64 64
128 64 64
128 64 64
64 64 64
128 128 128
128 128 64
64 64 64
64 64 64
128 64 64
64 64 64
64 64 64
64 64 64
128 64 64
128 64 64
64 64 64
64 64 64
64 64 64
64 64 64
64 64 64
64 64 64
64 64 64
64 64 64
64 64 64
64 64 64
64 64 64
64 64 64
64 64 64
64 64 64
64 64 64
64 64 64
64 64 64
64 64 64
64 64 64
128 64 64
64 64 64
64 64 64
64 64 64
128 64 64
128 64 64
128 128 64
128 128 64
128 128 64
64 64 64
64 64 64
64 64 64
64 64 64
0 64 64
64 64 64
64 64 64
64 64 64
64 64 64
0 64 64
64 64 64
64 64 64
64 64 64
64 64 64
128 128 64
128 128 64
64 64 64
128 128 128
128 128 64
64 64 64
64 64 64
128 128 128
64 64 64
64 64 64
128 128 64
128 128 64
128 128 128
128 128 128
128 128 128
128 128 128
128 128 128
128 128 128
128 128 128
64 64 64
64 64 64
128 64 64
64 64 64
64 64 64
128 64 64
128 64 64
128 128 64
128 64 64
64 64 64
64 64 64
64 64 64
64 64 64
64 64 64
64 64 64
64 64 64
64 64 64
64 64 64
64 64 64
128 64 64
64 64 64
64 64 64
128 64 64
64 64 64
64 64 64
128 64 64
128 64 64
64 64 64
128 64 64
128 128 64
128 128 64
128 128 128
128 64 64
128 128 128
64 64 64
128 64 64
128 128 64
128 128 64
128 64 64
64 64 64
128 64 64
128 64 64
64 64 64
64 64 64
64 64 64
64 64 64
128 64 64
128 64 64
128 64 64
128 64 64
128 64 64
192 192 128
192 192 128
192 192 128
128 128 128
128 128 128
128 128 128
128 64 64
128 128 64
128 128 64
128 128 128
192 128 128
128 128 64
128 64 64
128 64 64
128 128 64
128 128 64
128 128 64
128 128 64
128 128 128
128 64 64
128 64 0
128 64 64
192 128 128
192 192 192
192 192 192
192 192 192
192 192 192
128 128 128
128 128 64
128 64 64
64 64 64
128 64 64
64 64 0
64 64 64
128 128 128
192 192 128
192 192 192
192 192 128
192 192 128
192 192 128
192 192 128
192 192 128
192 192 128
192 128 128
192 128 128
192 192 128
192 192 128
192 192 128
192 192 128
128 128 128
128 128 128
128 128 128
128 128 128
128 128 128
128 128 128
128 128 128
128 64 64
128 64 64
128 64 64
128 64 64
64 64 64
64 64 64
128 64 64
128 64 64
128 64 64
128 64 64
64 64 64
64 64 64
64 64 64
64 64 64
64 64 64
64 64 64
64 64 64
64 64 64
128 64 64
64 64 64
128 64 64
128 64 64
128 64 64
128 64 64
64 64 64
64 64 64
128 64 64
128 64 64
64 64 64
64 64 64
128 64 64
128 64 64
128 64 64
64 64 64
64 64 64
64 64 64
64 64 64
64 64 64
64 64 64
64 64 64
64 64 64
64 64 64
64 64 64
64 64 64
64 64 64
64 64 64
64 64 64
64 64 64
64 64 64
64 64 64
64 64 64
64 64 64
64 64 64
64 64 64
128 64 64
128 128 64
128 128 64
128 128 64
128 128 64
64 64 64
64 64 64
64 64 64
64 64 64
64 64 64
64 64 64
64 64 64
64 64 64
64 64 64
64 64 64
64 64 64
64 64 64
64 64 64
64 64 64
64 64 64
64 64 64
128 128 64
128 128 64
128 64 64
128 128 128
128 64 64
64 64 64
128 128 64
128 128 64
64 64 64
64 64 64
64 64 64
128 128 128
128 128 128
128 128 128
128 128 128
128 128 128
128 128 128
128 128 128
64 64 64
64 64 64
64 64 64
64 64 64
0 64 64
64 64 64
128 64 64
128 128 64
128 64 64
64 64 64
64 64 64
64 64 64
64 64 64
64 64 64
64 64 64
64 64 64
64 64 64
64 64 64
64 64 64
128 64 64
64 64 64
64 64 64
64 64 64
64 64 64
64 64 64
128 64 64
128 64 64
128 64 64
128 64 64
64 64 64
64 64 64
128 128 64
128 128 64
64 64 64
64 64 64
128 64 64
128 64 64
128 128 64
128 128 64
128 128 64
128 64 64
128 64 64
64 64 64
64 64 64
64 64 64
64 64 64
64 64 64
128 64 64
128 128 64
128 64 64
128 64 64
192 192 192
192 128 128
128 128 64
64 64 64
128 128 64
128 128 128
128 64 64
192 128 128
192 128 128
192 128 128
192 128 128
128 64 64
128 64 64
128 128 128
128 128 64
128 128 64
128 128 64
192 128 128
192 128 128
192 128 128
128 128 64
128 64 64
192 192 192
192 192 192
192 192 192
192 192 192
192 192 128
128 128 64
128 128 64
128 64 64
128 64 64
128 64 64
128 128 128
192 192 128
192 192 192
192 192 192
192 192 128
192 192 128
192 192 128
192 192 128
192 192 128
192 192 128
192 192 128
192 192 128
192 128 128
192 192 128
192 192 128
192 192 128
192 192 128
192 192 128
192 192 128
128 128 128
128 128 128
128 128 128
128 128 128
128 128 64
128 64 64
64 64 64
128 64 64
64 64 64
64 64 64
128 64 64
128 64 64
128 64 64
64 64 64
64 64 64
128 128 64
128 128 128
128 128 128
128 128 128
128 128 128
128 128 128
128 128 64
128 64 64
128 128 64
64 64 64
128 64 64
128 64 64
128 64 64
64 64 64
64 64 64
64 64 64
128 128 64
128 64 64
128 64 64
128 64 64
64 64 64
64 64 64
128 64 64
64 64 64
64 64 64
64 64 64
128 64 64
64 64 64
64 64 64
64 64 64
64 64 64
64 64 64
64 64 64
64 64 64
64 64 64
64 64 64
64 64 64
64 64 64
64 64 64
64 64 64
64 64 64
128 64 64
64 64 64
128 64 64
64 64 64
64 64 64
128 128 64
128 128 64
64 64 64
64 64 64
64 64 64
64 64 64
64 64 64
64 64 64
64 64 64
64 64 64
64 64 64
64 64 64
64 64 64
64 64 64
64 64 64
64 64 64
64 64 64
64 64 64
128 128 64
128 64 64
128 128 64
64 64 64
64 64 64
64 64 64
64 64 64
128 64 64
128 128 64
128 128 64
128 128 64
64 64 64
128 128 64
128 128 128
128 128 128
128 128 64
128 64 64
128 64 64
128 64 64
128 64 64
64 64 64
64 64 64
0 64 64
64 64 64
64 64 64
64 64 64
128 64 64
64 64 64
64 64 64
64 64 64
64 64 64
64 64 64
64 64 64
64 64 64
128 64 64
128 64 64
128 64 64
128 64 64
128 128 64
64 64 64
64 64 64
64 64 64
128 64 64
128 64 64
64 64 64
128 64 64
128 64 64
128 64 64
128 64 64
64 64 64
128 128 64
64 64 64
64 64 64
64 64 64
64 64 64
64 64 64
128 64 64
128 64 64
128 64 64
128 64 64
128 128 64
128 128 64
128 64 64
128 64 64
64 64 64
64 64 64
128 64 64
128 128 64
128 64 64
128 128 128
192 192 192
128 128 128
128 128 64
128 64 64
128 128 64
128 128 64
192 128 128
192 128 128
192 128 128
192 128 128
128 128 64
128 64 64
128 64 64
128 128 64
128 128 64
128 64 64
128 64 64
192 128 128
192 128 128
192 128 128
192 128 128
192 128 128
192 128 128
192 192 192
192 192 192
192 192 192
128 128 128
128 64 64
128 128 64
128 128 128
64 64 64
128 128 64
192 192 128
192 192 128
192 192 128
192 192 192
192 192 192
192 192 128
192 192 128
192 192 128
192 192 128
192 192 128
192 192 128
192 192 128
192 192 128
192 192 128
192 192 128
192 192 128
192 192 128
192 192 192
192 192 192
192 192 128
128 128 128
128 128 128
128 128 128
128 64 64
128 64 64
128 64 64
64 64 64
128 64 64
128 64 64
128 64 64
128 64 64
128 64 64
128 128 64
128 128 64
128 128 128
128 128 128
128 128 128
128 128 128
128 128 128
128 128 128
128 128 64
128 128 128
64 64 64
64 64 64
128 128 64
128 128 64
128 128 128
128 128 64
64 64 64
64 64 64
128 64 64
128 64 64
64 64 64
64 64 64
64 64 64
64 64 64
64 64 64
64 64 64
64 64 64
64 64 64
128 128 64
64 64 64
64 64 64
64 64 64
64 64 64
64 64 64
64 64 64
64 64 64
64 64 64
64 64 64
64 64 64
64 64 64
64 64 64
64 64 64
64 64 64
64 64 64
128 64 64
128 64 64
64 64 64
64 64 64
128 128 64
128 64 64
64 64 64
64 64 64
64 64 64
64 64 64
64 64 64
64 64 64
64 64 64
64 64 64
0 64 64
64 64 64
64 64 64
64 64 64
64 64 64
64 64 64
64 64 64
64 64 64
128 128 64
64 64 64
128 64 64
128 128 64
128 64 64
64 64 64
64 64 64
192 128 64
192 128 64
192 128 64
128 128 64
128 128 64
128 128 64
128 128 128
128 128 128
128 64 64
128 64 64
128 64 64
128 64 64
128 64 64
128 64 64
128 64 64
64 64 64
64 64 64
64 64 64
128 64 64
128 64 64
128 64 64
128 64 64
128 64 64
64 64 64
64 64 64
64 64 64
64 64 64
64 64 64
64 64 64
128 64 64
128 128 64
128 128 64
128 64 64
128 64 64
128 64 64
128 64 64
128 64 64
128 64 64
64 64 64
128 64 64
128 64 64
128 64 64
64 64 64
128 64 64
64 64 64
64 64 64
64 64 64
64 64 64
64 64 64
64 64 64
64 64 64
128 64 64
128 64 64
128 64 64
128 128 64
128 128 64
128 128 64
128 64 64
64 64 64
64 64 64
64 64 64
128 128 64
192 192 128
128 128 128
128 64 64
64 64 64
128 64 64
128 128 64
128 128 128
192 128 128
192 192 128
192 192 128
192 128 128
128 64 64
128 64 64
128 128 64
128 128 64
128 64 64
128 64 64
192 64 64
192 128 128
192 128 128
192 128 64
192 128 128
192 128 128
192 128 128
192 128 128
192 192 192
192 192 192
128 128 128
128 64 64
128 128 64
128 128 64
128 128 128
192 192 128
192 192 128
128 128 64
128 128 128
192 192 128
192 192 192
256 192 192
192 192 192
192 192 128
192 192 128
192 192 128
192 192 128
192 192 128
192 192 128
192 192 128
192 128 128
192 192 128
192 192 192
192 192 192
192 192 192
192 192 192
192 192 192
192 192 128
128 128 128
128 64 64
128 64 64
128 64 64
64 64 64
64 64 64
128 64 64
128 64 64
128 128 64
128 128 64
128 128 128
128 128 64
128 128 128
128 128 128
128 128 128
128 128 128
128 128 128
128 128 128
128 128 128
128 128 128
128 128 128
128 128 128
128 64 64
192 128 128
128 128 128
128 128 128
128 128 128
128 64 64
128 64 64
128 64 64
64 64 64
64 64 64
64 64 64
64 64 64
64 64 64
64 64 64
64 64 64
64 64 64
64 64 64
64 64 64
64 64 64
64 64 64
64 64 64
64 64 64
64 64 64
64 64 64
64 64 64
64 64 64
64 64 64
64 64 64
64 64 64
64 64 64
64 64 64
64 64 64
64 64 64
128 64 64
64 64 64
64 64 64
64 64 64
64 64 64
64 64 64
64 64 64
64 64 64
64 64 64
64 64 64
64 64 64
64 64 64
64 64 64
64 64 64
64 64 64
64 64 64
64 64 64
64 64 64
64 64 64
64 64 64
64 64 64
64 64 64
64 64 64
64 64 64
128 128 64
128 128 64
64 64 64
128 128 64
192 128 64
64 64 64
64 64 64
64 64 64
64 64 64
64 64 64
64 64 64
128 64 64
128 64 64
128 64 64
128 64 64
128 64 64
128 64 64
192 64 64
192 64 64
192 64 64
128 64 64
64 64 64
128 128 64
128 64 64
128 64 64
128 64 64
128 128 64
64 64 64
64 64 64
64 64 64
64 64 64
64 64 64
128 64 64
128 128 64
128 128 64
128 128 64
128 128 64
128 64 64
128 128 64
128 128 64
128 128 64
128 64 64
64 64 64
64 64 64
64 64 64
64 64 64
64 64 64
128 128 64
64 64 64
64 64 64
128 64 64
64 64 64
64 64 64
64 64 64
64 64 64
64 64 64
64 64 64
64 64 64
64 64 64
64 64 64
64 64 64
128 64 64
128 64 64
64 64 0
128 64 64
128 128 128
192 192 128
128 128 64
64 64 64
128 64 64
128 128 64
128 128 64
192 128 128
192 192 128
192 192 128
192 128 128
128 64 64
128 64 64
128 64 64
192 128 128
192 128 128
128 64 64
128 128 64
192 128 128
192 128 128
192 128 128
192 128 64
192 128 128
192 128 128
192 128 128
192 128 128
192 128 128
192 192 192
128 128 64
128 64 64
128 128 64
192 128 128
192 192 192
192 192 128
192 192 128
192 192 192
192 128 128
128 128 64
192 128 128
192 192 128
192 192 128
192 192 192
192 192 192
192 192 128
192 192 128
192 192 128
192 192 128
192 192 128
192 192 128
192 192 128
192 192 192
192 192 192
192 192 192
192 192 128
192 192 128
192 192 192
192 192 192
192 128 128
128 64 64
64 64 64
64 64 64
64 64 64
128 64 64
128 64 64
128 128 64
128 64 64
128 128 128
128 128 64
128 128 128
128 128 128
128 128 128
128 128 128
128 128 128
128 128 128
128 128 128
128 128 128
128 128 128
128 128 128
128 128 128
128 128 128
128 128 128
192 128 128
128 128 128
192 128 128
128 128 128
128 64 64
128 64 64
128 64 64
64 64 64
128 64 64
64 64 64
64 64 64
64 64 64
64 64 64
64 64 64
64 64 64
64 64 64
64 64 64
64 64 64
64 64 64
64 64 64
64 64 64
64 64 64
64 64 64
64 64 64
64 64 64
64 64 64
64 64 64
64 64 64
64 64 64
64 64 64
64 64 64
128 64 64
64 64 64
64 64 64
64 64 64
64 64 64
64 64 64
64 64 64
64 64 64
64 64 64
64 64 64
64 64 64
64 64 64
64 64 64
64 64 64
64 64 64
64 64 64
64 64 64
64 64 64
64 64 64
64 64 64
64 64 64
128 64 64
64 64 64
64 64 64
128 128 64
64 64 64
64 64 64
64 64 64
64 64 64
64 64 64
64 64 64
64 64 64
64 64 64
64 64 64
64 64 64
64 64 64
128 128 64
128 64 64
128 64 64
192 64 64
192 64 64
192 64 64
192 64 64
192 64 64
128 64 64
128 64 64
128 64 64
128 64 64
64 64 64
128 128 64
64 64 64
64 64 64
64 64 64
64 64 64
128 64 64
128 64 64
128 128 64
128 128 64
128 64 64
128 64 64
128 128 64
128 128 64
128 128 64
128 128 64
64 64 64
64 64 64
64 64 64
64 64 64
64 64 64
64 64 64
64 64 64
64 64 64
64 64 64
64 64 64
64 64 64
64 64 64
64 64 64
64 64 64
64 64 64
64 64 64
64 64 64
64 64 64
64 64 64
64 64 64
64 64 64
128 64 64
64 64 64
64 64 64
64 64 64
128 128 64
128 128 64
64 64 64
128 64 64
192 128 128
128 128 128
192 128 128
192 192 128
192 128 128
128 128 64
128 64 64
128 64 64
128 64 64
192 128 128
192 128 128
128 64 64
128 64 64
192 128 128
192 128 128
192 128 128
192 128 128
192 128 64
192 128 128
192 128 128
192 128 128
192 128 128
128 128 128
128 64 64
64 64 64
192 128 128
192 192 128
192 192 128
192 192 128
192 192 192
192 192 128
192 192 192
192 192 128
128 128 64
192 128 128
192 192 128
192 192 128
192 192 192
256 192 192
192 192 192
192 192 128
192 192 128
192 192 192
192 192 192
192 192 192
192 192 192
192 192 192
192 192 192
192 128 128
192 192 128
192 192 128
128 128 128
192 128 128
128 128 64
64 64 64
64 64 64
64 64 64
64 64 64
128 64 64
128 128 64
128 64 64
128 128 128
128 128 128
128 128 128
128 128 128
128 128 128
128 128 128
128 128 128
128 128 128
128 128 128
128 128 64
128 128 128
128 128 128
128 128 128
192 128 128
128 128 128
128 128 128
192 192 128
192 192 128
192 128 128
128 128 128
128 128 64
128 64 64
128 64 64
128 128 64
64 64 64
0 64 64
64 64 64
64 64 64
64 64 64
64 64 64
64 64 64
64 64 64
64 64 64
64 64 64
64 64 64
64 64 64
64 64 64
64 64 64
64 64 64
64 64 64
64 64 64
64 64 64
64 64 64
64 64 64
64 64 64
64 64 64
64 64 64
64 64 64
0 64 64
64 64 64
64 64 64
64 64 64
64 64 64
64 64 64
64 64 64
64 64 64
64 64 64
64 64 64
64 64 64
64 64 64
64 64 64
64 64 64
64 64 64
64 64 64
64 64 64
64 64 64
64 64 64
128 64 64
64 64 64
64 64 64
64 64 64
64 64 64
64 64 64
64 64 64
64 64 64
64 64 64
64 64 64
64 64 64
64 64 64
64 64 64
64 64 64
64 64 64
128 64 64
128 64 64
128 64 64
192 64 64
192 64 64
192 64 64
192 64 64
192 64 64
128 128 64
64 64 64
64 64 64
64 64 64
64 64 64
128 64 64
128 64 64
64 64 64
64 64 64
128 64 64
128 128 64
128 128 64
128 128 64
128 128 64
128 128 64
128 128 64
128 128 64
128 128 64
128 128 64
64 64 64
64 64 64
64 64 64
128 128 64
128 128 64
64 64 64
64 64 64
0 64 64
64 64 64
64 64 64
64 64 64
64 64 64
64 64 64
64 64 64
64 64 64
128 64 64
64 64 64
64 64 64
64 64 64
64 64 64
64 64 64
64 64 64
128 64 64
64 64 64
64 64 64
64 64 64
128 128 64
128 128 64
128 64 64
128 128 128
192 128 128
192 128 128
192 128 128
192 128 128
128 128 64
128 64 64
128 64 64
128 64 64
192 128 64
192 128 128
128 128 64
128 64 64
128 64 64
192 128 64
192 128 128
192 128 128
192 128 128
192 128 128
192 128 128
192 128 128
192 128 128
192 128 64
192 128 64
128 64 64
128 128 64
192 192 128
192 192 128
192 192 128
192 192 128
192 192 192
192 192 128
192 192 192
192 192 192
128 128 128
128 128 64
192 192 128
192 192 128
256 192 192
256 192 192
192 192 192
256 192 192
192 192 192
192 192 192
192 192 192
192 192 192
192 192 192
192 192 192
192 192 192
128 128 128
192 128 128
192 192 128
128 128 128
128 128 128
128 128 128
64 64 64
64 64 64
64 64 64
64 64 64
128 64 64
128 64 64
128 64 64
128 128 128
128 128 128
128 128 128
128 128 128
128 128 128
128 128 128
128 128 128
128 128 64
64 64 64
64 64 64
64 128 64
128 128 128
128 128 128
128 128 128
128 64 64
128 128 128
192 192 128
192 192 128
192 128 128
192 128 128
128 128 128
128 128 64
128 128 64
64 64 64
0 64 64
0 64 64
64 64 64
64 64 64
64 64 64
64 64 64
64 64 64
64 64 64
64 64 64
64 64 64
64 64 64
64 64 64
64 64 64
64 64 64
64 64 64
64 64 64
64 64 64
64 64 64
64 64 64
64 64 64
64 64 64
64 64 64
64 64 64
64 64 64
64 64 64
64 64 64
64 64 64
64 64 64
64 64 64
64 64 64
64 64 64
64 64 64
64 64 64
64 64 64
64 64 64
64 64 64
64 64 64
64 64 64
64 64 64
64 64 64
64 64 64
64 64 64
64 64 64
64 64 64
128 128 64
64 64 64
64 64 64
64 64 64
64 64 64
64 64 64
64 64 64
64 64 64
64 64 64
64 64 64
64 64 64
64 64 64
64 64 64
64 64 64
128 64 64
128 64 64
192 128 64
192 64 64
192 64 64
128 64 64
192 64 64
128 128 64
128 128 64
64 64 64
64 64 64
64 64 64
128 64 64
64 64 64
64 64 64
64 64 64
128 128 64
128 128 64
128 64 64
128 128 64
192 128 128
128 128 64
128 64 64
128 128 64
128 128 64
192 128 128
128 128 64
0 0 64
64 64 64
64 64 64
64 64 64
64 64 64
64 64 64
128 128 64
64 64 64
64 64 64
128 128 64
128 64 64
64 64 64
64 64 64
64 64 64
64 64 64
64 64 64
64 64 64
64 64 64
64 64 64
64 64 64
64 64 64
64 64 64
64 64 64
64 64 64
64 64 64
64 64 64
128 128 128
128 64 64
128 128 64
192 128 128
192 192 128
192 128 128
192 128 128
128 64 64
128 64 64
128 64 64
128 64 64
128 128 64
192 128 64
192 128 64
128 128 64
128 64 64
128 64 64
192 64 64
192 128 128
192 128 128
192 128 128
192 128 128
192 128 128
192 128 128
192 128 128
192 128 128
192 128 128
128 64 64
128 128 128
192 192 128
192 192 128
192 192 128
192 192 128
192 192 128
192 192 192
192 192 128
192 192 128
128 128 64
128 64 64
128 128 128
192 192 128
192 192 128
192 192 192
192 192 192
192 192 192
192 192 192
192 192 192
192 192 192
192 192 192
192 192 192
192 192 192
192 192 192
192 128 128
128 128 128
192 128 128
128 128 128
128 128 64
192 192 128
128 64 64
128 64 64
64 64 64
128 64 64
64 64 64
128 64 64
64 64 64
128 128 128
64 64 128
128 128 128
128 128 128
128 128 128
128 128 128
128 128 128
128 64 64
64 64 64
64 64 64
64 64 64
64 64 64
128 128 64
128 128 64
128 128 128
128 128 64
128 128 128
128 128 128
128 128 128
128 128 128
128 128 128
128 128 64
128 128 64
128 64 64
64 64 64
0 0 0
64 64 64
64 64 64
64 64 64
64 64 64
64 64 64
64 64 64
64 64 64
64 64 64
64 64 64
64 64 64
64 64 64
64 64 64
64 64 64
64 64 64
64 64 64
0 64 64
64 64 64
64 64 64
64 64 64
64 64 64
64 64 64
0 64 64
64 64 64
64 64 64
64 64 64
64 64 64
64 64 64
64 64 64
64 64 64
64 64 64
64 64 64
64 64 64
64 64 64
64 64 64
64 64 64
64 64 64
64 64 64
64 64 64
64 64 64
64 64 64
64 64 64
64 64 64
128 128 64
128 128 64
128 64 64
64 64 64
64 64 64
0 64 64
64 64 64
64 64 64
64 64 64
64 64 64
64 64 64
64 64 64
64 64 64
64 64 64
64 64 64
128 64 64
192 128 64
192 64 64
128 64 64
128 64 64
128 64 64
128 128 64
128 128 64
64 64 64
64 64 64
64 64 64
128 128 64
64 64 64
64 64 64
64 64 64
128 128 64
128 64 64
128 128 64
128 128 64
128 128 64
128 128 64
128 64 64
128 128 64
128 128 128
192 128 128
128 128 64
64 64 64
64 64 64
64 64 64
64 64 64
64 64 64
128 128 64
128 128 64
128 128 64
64 64 64
128 64 64
128 128 64
64 64 64
0 64 64
64 64 64
64 64 64
64 64 64
64 64 64
64 64 64
64 64 64
128 64 64
64 64 64
64 64 64
64 64 64
128 64 64
64 64 64
128 64 64
128 64 64
128 64 64
128 128 128
192 192 128
192 128 128
128 128 128
128 64 64
64 64 0
128 64 64
128 64 64
128 64 64
128 64 64
192 128 64
128 128 64
128 64 64
128 64 64
128 64 64
128 64 64
192 128 128
192 128 128
192 128 128
192 128 128
192 128 128
192 128 128
192 128 128
192 128 128
192 128 128
128 128 64
192 128 128
192 192 128
192 192 128
192 192 128
192 192 128
192 192 128
192 192 128
192 192 128
128 128 64
128 64 64
64 64 64
128 128 64
192 128 128
192 192 128
192 192 128
192 192 128
192 192 128
192 192 128
192 192 128
192 192 192
192 192 192
192 192 192
192 192 192
192 192 128
192 192 128
192 128 128
192 128 128
128 128 128
128 128 64
192 192 128
128 128 128
128 64 64
128 64 64
128 64 64
64 64 64
128 64 64
64 64 64
64 64 64
64 64 128
128 128 128
128 128 128
128 128 128
128 128 128
128 128 128
128 64 64
64 64 64
64 64 64
64 64 64
128 64 64
128 128 128
128 128 128
128 128 128
128 128 64
128 128 128
128 128 128
128 128 128
128 128 64
128 128 64
128 128 64
128 128 64
128 64 64
128 64 64
64 64 64
64 64 64
64 64 64
0 64 64
64 64 64
64 64 64
0 64 64
0 64 64
64 64 64
64 64 64
64 64 64
64 64 64
64 64 64
64 64 64
64 64 64
64 64 64
64 64 64
64 64 64
128 64 64
128 64 64
128 64 64
64 64 64
0 64 0
64 64 64
64 64 64
64 64 64
64 64 64
64 64 64
64 64 64
64 64 64
64 64 64
64 64 64
64 64 64
64 64 64
64 64 64
64 64 64
64 64 64
64 64 64
64 64 64
64 64 64
64 64 64
128 64 64
192 128 128
192 192 128
192 192 128
192 128 64
64 64 64
64 64 64
0 0 64
0 64 64
0 64 64
64 64 64
64 64 64
64 64 64
64 64 64
64 64 64
64 64 64
64 64 64
128 64 64
128 64 64
128 64 64
192 64 64
128 64 64
64 64 64
64 64 64
64 64 64
64 64 64
64 64 64
64 64 64
128 64 64
128 64 64
128 64 64
128 64 64
128 128 64
128 64 64
128 128 64
128 128 64
128 128 64
128 128 64
128 64 64
128 64 64
128 128 64
128 128 128
128 128 128
128 64 64
64 64 64
128 64 64
128 128 64
128 128 64
64 64 64
64 64 64
128 128 64
128 128 64
128 64 64
64 64 64
64 64 64
64 64 64
64 64 64
64 64 64
64 64 64
64 64 64
64 64 64
64 64 64
128 64 64
64 64 64
128 64 64
128 64 64
64 64 64
64 64 64
64 64 64
128 64 64
128 64 64
192 128 128
192 128 128
192 192 128
128 128 64
64 64 64
128 64 64
128 64 64
128 64 64
128 64 64
128 64 64
192 128 64
128 128 64
64 64 64
128 64 64
128 64 64
128 128 64
192 128 128
192 128 64
192 128 128
192 128 128
192 128 128
192 128 128
192 128 128
192 128 128
192 128 128
192 128 128
192 192 128
192 192 128
192 192 128
192 192 128
192 192 128
192 192 128
192 192 128
192 128 128
128 128 64
128 128 64
128 64 64
128 64 64
128 128 128
192 128 128
192 192 128
192 192 128
192 192 128
192 192 128
192 192 128
192 192 192
192 192 192
192 192 192
192 192 128
192 128 128
192 192 128
192 128 128
192 128 128
128 128 128
128 64 64
192 192 128
192 128 128
64 64 64
128 64 64
128 64 64
128 64 64
64 64 64
64 64 64
64 128 128
128 64 64
128 128 128
128 128 128
64 64 64
64 64 64
128 128 128
128 128 64
64 64 64
64 64 64
64 64 64
64 64 64
128 128 128
128 128 128
128 128 64
128 128 64
128 128 128
128 128 64
128 128 128
128 64 64
128 64 64
128 64 64
64 64 64
128 64 64
128 64 64
64 64 64
64 64 64
64 64 64
0 64 64
0 64 64
0 64 64
64 64 64
64 64 64
64 64 64
64 64 64
64 64 64
64 64 64
64 64 64
64 64 64
64 64 64
64 64 64
64 64 64
64 64 64
64 64 64
128 64 64
128 64 64
64 64 64
0 64 64
64 64 64
64 64 64
64 64 64
64 64 64
64 64 64
64 64 64
64 64 64
64 64 64
64 64 64
64 64 64
64 64 64
64 64 64
64 64 64
64 64 64
64 64 64
64 64 64
64 64 64
64 64 64
128 64 64
64 64 64
128 128 64
192 128 128
192 128 64
128 64 64
64 64 64
0 64 0
0 64 64
0 64 64
0 64 64
64 64 64
64 64 64
64 64 64
64 64 64
64 64 64
64 64 64
64 64 64
64 64 64
64 64 64
128 64 64
128 64 64
128 128 64
128 64 64
64 0 0
64 64 64
64 64 64
64 64 64
64 64 64
128 64 64
64 64 64
128 64 64
128 128 64
128 128 64
128 64 64
128 64 64
128 64 64
128 64 64
64 64 64
64 64 0
64 64 64
64 64 64
128 64 64
64 64 64
64 64 64
128 64 64
128 64 64
64 64 64
128 64 64
192 128 128
192 192 128
192 192 128
192 192 128
128 64 64
64 64 64
64 64 64
64 64 64
64 64 64
64 64 64
64 64 64
64 64 64
64 64 64
128 64 64
128 64 64
128 64 64
128 64 64
128 64 64
128 64 64
128 64 64
128 64 64
128 64 64
192 128 128
192 192 128
128 128 64
64 64 64
128 64 64
128 64 64
128 64 64
128 64 64
128 64 64
128 64 64
128 64 64
128 128 64
128 64 64
128 64 0
128 64 64
192 128 128
192 128 128
192 128 64
192 128 128
192 128 128
192 128 128
192 128 128
192 128 128
192 128 128
192 128 128
192 128 128
192 192 128
192 192 128
192 192 128
192 192 128
192 192 128
192 192 128
192 192 128
128 128 128
128 128 64
128 128 128
128 128 64
64 64 64
128 128 64
128 128 128
192 192 128
192 192 128
192 192 128
192 192 128
192 192 128
192 192 128
192 192 192
192 192 192
192 192 128
192 128 128
192 192 128
192 128 128
192 192 128
128 128 128
128 64 64
192 128 128
192 192 128
128 64 64
64 64 64
128 64 64
128 64 64
64 64 64
64 64 64
128 128 128
64 64 64
64 64 64
64 128 128
64 64 128
64 64 64
128 128 128
64 64 64
64 64 64
64 64 64
64 64 64
64 64 64
64 64 64
128 128 128
128 128 128
128 128 128
128 128 64
128 128 64
128 64 64
64 64 64
64 64 0
64 64 0
128 64 64
128 64 64
128 64 64
64 64 64
64 64 64
64 64 64
64 64 64
0 64 64
0 64 64
0 64 64
0 64 64
0 64 64
0 64 64
64 64 64
64 64 64
64 64 64
64 64 64
64 64 64
64 64 64
64 64 64
64 64 64
64 64 64
128 64 64
128 64 64
64 64 64
0 64 64
64 64 64
64 64 64
64 64 64
64 64 64
0 64 64
64 64 64
64 64 64
64 64 64
64 64 64
64 64 64
64 64 64
64 64 64
64 64 64
64 64 64
64 64 64
64 64 64
64 64 64
64 64 64
128 64 64
64 64 64
128 64 64
192 128 64
192 128 64
128 64 64
64 64 64
64 64 64
64 64 64
64 64 64
64 64 64
64 64 64
64 64 64
64 64 64
64 64 64
64 64 64
64 64 64
64 64 64
64 64 64
64 64 64
64 64 64
128 64 64
128 128 64
128 128 64
64 64 64
64 64 64
64 64 64
64 64 64
128 64 64
128 64 64
128 64 64
128 64 64
128 128 64
64 64 64
128 64 64
128 64 64
128 64 64
128 64 64
64 64 64
64 64 64
64 64 64
64 64 64
64 64 64
64 64 64
64 64 64
64 64 64
64 64 64
128 128 64
192 128 128
192 192 128
192 192 128
192 192 128
192 192 128
128 128 64
64 64 64
0 64 64
64 64 64
64 64 64
64 64 64
0 64 64
64 64 64
64 64 64
128 64 64
128 64 64
128 64 64
128 64 64
64 64 64
64 64 64
128 64 64
128 64 64
128 128 128
192 192 128
128 128 64
128 64 64
128 64 64
128 64 64
128 64 64
128 64 64
128 64 64
128 64 64
128 64 64
128 64 64
128 64 64
128 64 64
128 64 64
128 64 64
128 64 64
192 128 64
192 128 64
192 128 128
192 128 128
192 128 128
192 128 128
192 128 128
192 128 128
128 128 64
192 128 128
192 192 128
192 192 128
192 192 128
192 192 128
192 192 128
192 192 128
192 192 128
128 128 128
128 128 128
128 128 128
128 128 64
128 128 128
128 128 64
128 128 64
192 128 128
192 128 128
192 192 128
192 192 128
192 192 128
192 192 128
192 192 192
192 192 128
128 128 128
192 192 128
192 192 128
192 128 128
192 192 128
128 128 128
128 64 64
192 128 128
192 192 192
192 128 128
64 64 64
128 64 64
128 64 64
128 64 64
128 64 64
128 128 128
64 128 128
64 64 64
64 64 64
64 64 64
64 64 64
128 128 64
128 64 64
64 64 64
64 64 64
64 64 64
64 64 64
64 64 64
64 64 64
128 128 64
128 128 128
64 64 64
64 64 64
128 64 64
128 64 64
128 64 64
64 64 0
64 64 0
64 64 0
64 64 0
64 64 64
64 64 64
64 64 64
64 64 64
0 64 64
64 64 64
0 64 64
0 0 64
0 0 64
0 64 64
64 64 64
64 64 64
64 64 64
64 64 64
64 64 64
64 64 64
64 64 64
64 64 64
128 64 64
128 64 64
128 64 64
64 64 64
64 64 64
64 64 64
64 64 64
64 64 64
64 64 64
64 64 64
64 64 64
64 64 64
64 64 64
64 64 64
64 64 64
64 64 64
64 64 64
64 64 64
64 64 64
64 64 64
64 64 64
64 64 64
64 64 64
128 64 64
128 64 64
128 64 64
128 128 64
192 128 128
128 64 64
64 64 64
64 64 64
64 64 64
0 64 64
0 64 64
0 64 0
0 64 64
0 64 64
0 0 0
0 64 64
64 64 64
64 64 64
64 64 64
64 64 64
64 64 64
64 64 64
64 64 64
64 64 64
64 64 64
64 64 64
64 64 64
64 64 64
64 64 64
64 64 64
64 64 64
64 64 64
64 64 64
64 64 64
64 64 64
64 64 64
64 64 64
64 64 64
64 64 64
64 64 64
64 64 64
64 64 64
64 64 64
64 64 64
64 64 64
64 64 64
128 64 64
128 128 64
128 128 64
192 128 128
192 128 128
192 128 128
128 128 64
128 128 64
64 64 64
64 64 64
64 64 64
64 64 64
64 64 64
0 64 64
64 64 64
64 64 64
128 64 64
128 64 64
128 64 64
64 64 64
64 64 64
128 64 64
128 64 64
128 64 64
192 128 128
128 128 64
128 64 64
128 64 64
128 64 64
128 64 64
128 64 64
128 64 64
128 64 64
128 64 64
128 64 64
128 128 64
128 64 64
128 64 64
128 64 64
128 64 64
128 64 64
192 128 128
192 128 128
192 128 64
192 128 128
192 128 128
192 128 128
192 128 128
192 128 128
192 128 128
192 192 128
192 192 128
192 192 128
192 192 128
192 192 128
192 192 128
192 192 128
192 192 128
128 128 128
128 128 128
128 128 128
128 128 128
192 192 128
128 128 128
64 64 64
128 128 64
128 128 128
128 128 128
192 192 128
192 192 128
192 192 128
192 192 128
128 128 128
128 128 128
192 192 128
192 192 128
192 192 128
192 192 128
128 128 128
64 64 64
192 128 128
192 192 192
192 192 128
128 64 64
64 64 64
64 64 64
128 64 64
128 64 64
128 128 64
128 128 128
64 64 64
64 64 64
64 64 64
64 64 64
128 64 64
128 128 64
64 64 64
64 64 64
64 64 64
64 64 64
64 64 64
64 64 64
64 64 64
64 64 64
64 64 64
64 64 64
128 64 64
128 64 64
128 64 64
128 64 64
64 64 64
64 64 64
64 64 64
128 64 64
64 64 64
64 64 64
64 64 64
0 64 64
0 64 64
64 64 64
0 0 0
0 0 64
64 64 64
64 64 64
64 64 64
64 64 64
128 64 64
128 64 64
128 128 64
128 128 64
128 64 64
128 64 64
64 64 64
64 64 64
128 64 64
128 64 64
64 64 64
64 64 64
64 64 64
0 64 64
0 64 64
64 64 64
64 64 64
64 64 64
64 64 64
64 64 64
64 64 64
64 64 64
64 64 64
64 64 64
64 64 64
64 64 64
64 64 64
64 64 64
128 64 64
128 128 64
128 64 64
128 64 64
128 128 64
64 64 64
64 64 64
0 64 64
64 64 64
64 64 64
64 64 64
64 64 64
128 128 64
128 128 128
128 128 64
64 64 64
64 64 64
64 64 64
64 64 64
64 64 64
64 64 64
64 64 64
128 128 64
64 64 64
64 64 64
64 64 64
64 64 64
64 64 64
64 64 64
64 64 64
64 64 64
64 64 64
64 64 64
128 64 64
64 64 64
64 64 64
64 64 64
64 64 64
64 64 64
64 64 64
64 64 64
64 64 64
64 64 64
64 64 0
64 64 64
128 64 64
128 128 64
128 64 64
128 64 64
128 64 64
128 128 64
128 64 64
128 64 64
128 128 64
64 64 64
64 64 64
64 64 64
64 64 64
64 64 64
64 64 64
64 64 64
64 64 64
128 64 64
128 64 64
64 64 64
64 64 64
128 64 64
128 64 64
128 64 64
128 128 64
128 128 128
128 64 64
128 64 64
128 64 64
128 64 64
128 64 64
128 64 64
128 64 64
128 64 64
128 64 64
128 64 64
128 128 64
128 64 64
128 64 64
128 64 64
128 64 64
128 64 64
128 64 64
192 128 64
192 128 128
192 128 128
192 128 128
192 128 128
192 128 128
192 128 64
192 128 128
192 192 128
192 192 128
192 192 128
192 192 128
192 192 128
192 192 128
192 192 128
192 192 128
128 128 128
128 128 128
128 128 128
192 128 128
192 192 128
192 192 128
128 64 64
64 64 64
128 128 64
128 128 128
128 128 128
192 128 128
192 128 128
128 128 128
128 128 128
192 192 128
192 192 128
192 192 128
192 192 128
192 192 128
128 128 128
64 64 64
128 128 128
192 192 128
192 192 128
128 128 128
64 64 64
64 64 64
128 64 64
64 64 64
64 64 64
128 128 128
128 128 64
64 64 64
64 64 64
64 64 64
64 64 64
128 128 64
64 64 64
64 64 64
64 64 64
64 64 64
64 64 64
128 64 64
128 64 64
128 64 64
64 64 64
64 64 64
64 64 64
64 64 64
128 64 64
128 128 64
128 128 128
128 128 128
128 128 64
128 128 64
64 64 64
64 64 64
64 64 64
0 64 64
0 64 64
0 64 64
0 64 64
0 0 0
0 64 64
64 64 64
128 64 64
192 64 64
192 64 64
128 128 64
128 64 64
64 64 64
64 64 64
64 64 64
64 64 64
64 64 64
64 64 64
64 64 64
64 64 64
64 64 64
64 64 64
64 64 64
64 64 64
0 64 64
0 64 64
64 64 64
64 64 64
64 64 64
64 64 64
64 64 64
64 64 64
64 64 64
64 64 64
64 64 64
64 64 64
64 64 64
64 64 64
128 64 64
64 64 64
64 64 64
64 64 64
64 64 64
64 64 64
0 64 64
128 64 64
128 128 64
192 128 128
192 192 128
192 128 128
128 128 128
192 128 128
192 128 128
128 64 64
64 64 64
64 64 64
128 64 64
64 64 64
128 64 64
128 128 128
64 64 64
64 64 64
64 64 64
64 64 64
64 64 64
64 64 64
64 64 64
64 64 64
64 64 64
64 64 64
64 64 64
64 64 64
64 64 64
64 64 64
64 64 64
64 64 64
64 64 64
64 64 64
64 64 64
64 64 64
64 64 64
64 64 64
64 64 64
128 64 64
128 128 64
128 128 64
128 128 64
192 128 64
128 128 64
192 128 64
128 64 64
64 64 64
64 64 64
64 64 64
64 64 64
64 64 64
64 64 64
0 64 64
64 64 64
128 64 64
64 64 64
64 64 64
64 64 64
128 64 64
128 64 64
128 64 64
128 128 64
128 64 64
128 64 64
128 64 64
128 64 64
128 64 64
128 64 64
128 64 64
128 64 64
128 64 64
128 64 64
128 64 64
128 64 64
128 128 64
128 64 64
128 64 64
128 64 64
128 64 64
128 64 0
128 64 64
192 128 64
192 128 128
192 128 128
192 128 128
192 128 128
192 128 64
192 192 128
192 192 128
192 192 128
192 192 128
192 192 128
192 192 128
192 192 128
192 192 128
192 192 128
128 128 128
128 128 128
192 128 128
192 192 128
192 192 128
192 128 128
128 64 64
64 64 64
128 64 64
128 128 64
128 128 128
128 128 128
128 128 128
128 128 128
128 128 128
192 192 128
192 192 128
192 192 128
192 192 128
192 192 128
128 128 64
64 64 64
128 128 128
192 192 128
192 192 128
128 128 128
128 64 64
64 64 64
64 64 64
128 64 64
64 64 64
64 64 64
64 64 64
128 64 64
64 64 64
64 64 64
128 128 64
128 64 64
128 128 64
128 128 128
128 64 64
64 64 64
64 64 64
64 64 64
128 64 64
128 64 64
64 64 64
64 64 64
64 64 0
64 64 64
128 64 64
128 64 64
128 128 128
128 128 64
128 128 64
128 128 128
64 64 64
64 64 64
64 64 64
64 64 64
0 64 64
0 64 64
0 0 0
0 0 64
64 64 64
192 64 64
192 64 64
192 64 64
64 64 64
64 64 64
64 64 64
64 64 64
64 64 64
64 64 64
64 64 64
64 64 64
64 64 64
64 64 64
64 64 64
64 64 64
64 64 64
64 64 64
64 64 64
0 64 64
64 64 64
64 64 64
64 64 64
64 64 64
64 64 64
64 64 64
64 64 64
64 64 64
64 64 64
128 128 128
128 128 128
128 64 64
64 64 64
64 64 64
64 64 64
64 64 64
64 64 64
64 64 64
64 64 64
64 64 64
128 128 64
192 128 64
128 128 64
192 128 64
192 128 64
128 64 64
64 64 64
64 64 64
64 64 64
64 64 64
128 64 64
128 128 128
128 128 128
192 128 128
192 128 128
128 64 64
64 64 64
64 64 64
128 64 128
64 64 64
64 64 64
64 64 64
64 64 64
64 64 64
64 64 64
64 64 64
64 64 64
64 64 64
64 64 64
64 64 64
64 64 64
64 64 64
64 64 64
64 64 64
64 64 128
64 64 64
64 64 64
64 64 64
128 64 64
128 64 64
128 64 64
128 64 64
192 128 64
128 128 64
128 64 64
128 64 64
64 64 0
64 64 64
64 64 64
64 64 64
64 64 64
0 64 64
64 64 64
64 64 64
64 64 64
64 64 64
64 64 64
128 64 64
128 64 64
128 64 64
128 64 64
128 64 64
128 64 64
128 64 64
128 64 64
128 64 64
128 64 64
128 128 64
128 128 64
128 128 64
128 128 64
128 64 64
128 128 64
128 128 64
192 128 64
128 128 128
128 128 128
128 64 64
128 64 64
128 128 64
128 64 64
128 64 64
192 128 128
192 128 128
192 128 128
192 128 128
192 128 128
192 192 128
192 192 128
192 192 128
192 192 128
192 192 128
192 128 128
192 192 128
192 128 128
192 192 128
128 128 128
128 128 128
128 128 128
192 192 128
192 192 128
128 128 128
128 64 64
128 64 64
128 64 64
128 64 64
128 128 64
128 128 64
128 128 64
128 128 64
128 128 128
192 192 128
192 192 128
192 192 128
192 192 128
192 192 128
128 128 128
128 128 64
128 128 128
192 128 128
192 192 128
192 128 128
128 128 64
64 64 64
64 64 64
64 64 64
64 64 64
64 64 64
64 64 64
128 128 128
128 128 128
64 128 64
128 128 128
128 128 128
128 128 128
128 128 128
128 128 64
64 64 64
64 64 64
128 64 64
128 64 64
64 64 64
64 64 64
64 64 64
64 64 0
64 64 64
64 64 64
64 64 64
128 128 128
128 128 128
128 128 128
128 128 128
64 64 64
64 64 64
64 64 64
64 64 64
64 64 64
0 0 64
0 0 64
64 64 64
192 64 64
192 64 64
192 64 64
128 64 64
64 64 64
64 64 64
64 64 64
64 64 64
128 128 64
128 128 64
128 128 64
128 64 64
64 64 64
64 64 64
64 64 64
64 64 64
64 64 64
64 64 64
0 64 64
0 0 64
0 64 64
0 64 64
64 64 64
64 64 64
64 64 64
64 64 64
64 64 64
128 64 64
128 128 64
128 128 64
128 128 128
128 128 128
128 128 64
128 64 64
64 64 64
64 64 64
64 64 64
64 64 64
128 64 64
64 64 64
128 128 64
128 128 64
128 128 64
128 128 64
128 128 64
128 128 64
192 128 128
64 64 64
64 64 64
128 64 64
128 128 128
192 128 128
192 128 128
192 128 128
192 128 128
64 64 64
64 64 64
64 64 128
64 64 128
64 64 128
64 64 64
64 64 64
0 64 0
64 64 64
64 64 64
64 64 64
64 64 64
64 64 64
64 64 64
64 64 64
64 64 64
64 64 0
64 64 64
64 64 64
64 64 64
64 64 64
64 64 64
64 64 64
64 64 64
128 64 64
128 64 64
64 64 64
128 64 64
128 64 64
128 64 64
64 64 64
64 64 64
128 64 64
64 64 64
64 64 64
128 64 64
64 64 64
64 64 64
128 64 64
64 64 64
64 64 64
64 64 64
64 64 64
128 64 64
128 64 64
128 64 64
128 64 64
128 64 64
128 64 64
128 64 64
128 64 64
128 64 64
128 64 64
64 64 64
128 64 64
128 128 64
128 128 64
128 128 64
128 128 64
128 128 64
128 64 64
128 64 64
128 64 64
128 64 64
192 128 128
192 128 64
128 64 64
192 128 128
192 128 128
192 128 64
192 128 128
192 192 128
192 192 128
192 192 128
192 192 128
192 192 128
192 192 128
192 192 128
192 192 128
192 192 128
192 192 128
128 128 128
128 128 128
128 128 128
192 192 128
192 192 128
128 128 64
128 64 64
128 128 64
128 128 64
64 64 64
128 64 64
128 128 64
128 128 64
128 128 128
192 128 128
192 192 128
192 192 128
192 192 128
192 192 128
192 192 128
128 128 128
128 128 128
128 128 128
192 192 128
192 192 128
192 192 128
128 128 64
128 64 64
128 64 64
64 64 64
64 64 64
64 64 64
64 64 64
64 64 64
64 64 64
64 64 64
64 64 64
64 128 128
128 128 128
64 64 64
64 64 64
128 128 64
64 64 64
64 64 64
64 64 64
64 64 64
64 64 64
64 64 64
64 64 64
64 64 64
64 64 64
64 64 64
128 128 128
128 128 128
128 128 128
128 128 128
64 64 64
0 64 64
64 64 64
64 64 64
64 64 64
64 64 64
64 64 64
64 64 64
128 64 64
128 64 64
128 64 64
64 64 64
128 64 64
64 64 64
64 64 64
128 128 64
128 128 64
128 128 64
128 64 64
128 64 64
64 64 64
64 64 64
64 64 64
64 64 64
64 64 64
64 64 64
0 64 0
0 64 64
0 0 0
0 64 64
64 64 64
64 64 64
64 64 64
64 64 64
128 64 64
128 128 64
128 128 64
128 128 64
128 128 64
128 128 64
64 64 64
64 64 64
64 64 64
64 64 64
64 64 64
128 64 64
128 64 0
64 64 0
128 64 64
128 64 64
128 128 64
128 128 64
128 128 64
128 128 64
192 128 128
128 128 64
128 64 64
128 128 64
128 128 64
128 128 128
128 128 64
128 128 64
128 128 64
64 64 64
64 64 64
64 64 64
64 64 64
64 64 64
64 64 64
64 64 64
64 64 64
64 64 64
64 64 64
64 64 64
64 64 64
64 64 0
64 64 64
64 64 64
64 64 0
64 64 64
64 64 64
64 64 64
64 64 64
64 64 64
64 64 64
128 64 64
64 64 64
128 64 64
128 128 64
128 64 64
128 64 64
64 64 64
128 64 64
64 64 64
64 64 64
128 64 64
128 64 64
128 64 64
128 64 64
128 128 64
128 64 64
64 64 64
64 64 64
64 64 64
64 64 64
64 64 64
128 64 64
128 64 64
128 64 64
128 64 64
128 64 64
128 64 64
128 64 64
128 64 64
128 64 64
128 64 64
128 64 64
64 64 64
128 64 64
128 64 64
128 64 64
128 64 64
128 64 64
128 64 64
128 64 64
128 64 64
128 64 64
128 128 64
192 128 64
192 64 64
192 128 64
192 128 64
192 128 64
192 128 128
192 192 128
192 192 128
192 128 128
192 128 128
192 192 128
192 192 128
192 192 128
192 192 128
192 192 128
192 192 128
128 128 128
128 128 128
128 128 128
192 192 128
192 192 128
128 128 64
128 128 64
128 128 64
128 128 64
64 64 64
128 128 64
128 128 64
128 128 128
128 128 128
192 128 128
192 192 128
192 192 128
192 192 128
192 192 128
192 192 128
128 128 128
128 128 128
128 128 128
192 128 128
192 192 128
192 192 128
128 128 128
64 64 64
64 64 64
64 64 64
64 64 64
64 64 64
64 64 64
64 64 64
64 64 64
64 64 64
64 64 64
64 64 64
64 64 64
64 64 64
64 64 64
64 64 64
64 64 64
64 64 64
64 64 64
64 64 64
64 64 64
64 64 64
0 64 64
64 64 64
64 64 64
64 64 64
128 128 128
128 128 128
128 128 64
128 128 128
64 64 64
64 64 64
64 64 64
64 64 64
128 128 128
64 64 64
64 64 0
64 64 64
64 64 64
128 64 64
64 64 64
64 64 64
64 64 64
64 64 64
128 128 64
128 128 64
128 64 64
128 64 64
128 64 64
128 64 64
128 64 64
128 64 64
64 64 64
64 64 64
64 64 64
64 64 64
64 64 64
0 64 0
0 64 64
0 64 64
64 64 64
64 64 64
64 64 64
128 64 64
128 64 64
128 64 64
128 64 64
128 128 64
128 128 64
128 128 64
128 64 64
64 64 64
64 64 64
64 64 64
64 64 64
128 64 0
128 64 64
128 64 0
128 64 64
128 64 64
128 64 64
128 128 64
128 64 64
64 64 64
64 64 64
128 64 64
128 64 64
128 128 64
128 128 64
128 128 64
128 64 64
128 128 64
128 64 64
64 64 64
64 64 128
64 64 64
64 64 64
64 64 64
64 64 64
64 64 64
64 64 64
64 64 64
64 64 64
64 64 64
64 64 64
0 64 0
64 64 64
64 64 64
64 64 64
64 64 64
64 64 64
64 64 64
64 64 64
128 128 128
128 128 64
128 64 64
64 64 64
128 64 64
64 64 64
128 128 64
128 64 64
64 64 64
64 64 64
64 64 64
64 64 64
64 64 64
128 64 64
64 64 64
128 64 64
64 64 64
128 64 64
64 64 64
64 64 64
64 64 64
64 64 64
128 128 64
128 64 64
128 64 64
128 64 64
128 64 64
128 64 64
128 64 64
128 64 64
128 64 64
128 64 64
128 64 64
128 64 64
128 128 64
128 128 64
128 64 64
128 64 64
128 128 64
128 64 64
128 64 64
128 64 64
128 64 64
128 64 64
128 64 64
192 64 64
128 64 64
128 64 64
192 128 64
192 128 64
192 128 128
192 192 128
192 192 128
192 192 128
192 192 128
192 192 128
192 192 128
192 192 128
192 192 128
192 192 128
192 192 128
128 128 128
128 128 128
192 192 128
192 192 128
128 128 128
128 128 64
128 128 64
128 128 128
128 128 64
64 64 64
128 128 64
128 128 64
128 128 128
128 128 128
192 128 128
192 192 128
192 192 128
192 192 128
192 192 128
192 192 128
128 128 128
128 128 128
128 128 128
192 128 128
192 128 128
192 192 128
128 128 128
64 64 64
64 64 64
64 64 64
64 64 64
64 64 64
64 64 64
64 64 64
64 64 64
64 64 64
128 64 64
64 64 64
64 64 64
64 64 64
64 64 64
64 64 64
64 64 64
64 64 64
64 64 64
64 64 64
64 64 64
64 64 64
64 64 64
64 64 64
64 64 64
64 64 64
128 128 128
128 128 128
128 128 128
128 128 128
64 64 64
64 64 0
64 64 64
64 64 64
128 128 64
64 64 64
64 64 0
128 64 64
128 64 64
64 64 64
64 64 64
64 64 64
64 64 64
64 64 64
128 64 64
64 64 64
128 64 64
128 64 64
128 64 64
128 64 64
128 64 64
128 64 64
64 64 64
64 64 64
64 64 64
64 64 64
64 64 64
0 64 64
0 64 64
0 64 64
64 64 64
64 64 64
64 64 64
64 64 64
128 64 64
128 64 64
128 64 64
128 64 64
128 128 64
128 64 64
128 128 64
64 64 64
64 64 64
64 64 64
128 64 64
128 64 64
128 64 64
128 128 64
128 64 64
64 64 64
64 64 64
128 64 64
64 64 64
64 64 64
64 64 64
128 64 64
128 64 64
128 128 64
128 128 64
128 64 64
128 64 64
128 128 64
128 128 64
128 128 128
64 64 64
64 64 64
64 64 64
64 64 64
64 64 128
64 64 64
64 64 64
64 64 64
64 64 64
64 64 64
64 64 0
64 64 64
64 64 64
64 64 64
64 64 64
64 64 64
64 64 64
64 64 0
64 64 64
128 64 64
128 128 128
128 128 64
64 64 64
128 64 64
64 64 64
64 64 64
64 64 64
64 64 64
64 64 64
128 64 64
64 64 64
64 64 64
64 64 64
64 64 64
64 64 64
128 64 64
128 64 64
128 64 64
128 128 64
64 64 64
64 64 64
64 64 64
64 64 64
128 64 64
128 64 64
128 64 64
128 64 64
128 64 64
128 64 64
128 64 64
128 64 64
128 64 64
64 64 64
128 64 64
128 64 64
128 64 64
128 64 64
128 128 128
64 64 64
64 64 64
128 64 64
128 64 64
128 64 64
128 64 64
128 64 64
128 64 64
128 64 64
128 64 64
192 128 128
192 192 128
192 192 128
192 192 128
192 192 128
192 192 128
192 192 128
192 192 128
192 192 128
192 192 128
192 192 128
192 192 128
192 192 128
192 192 128
192 192 128
192 192 128
128 128 128
128 128 64
128 128 128
128 128 128
128 128 128
128 128 64
128 128 64
128 128 64
128 128 128
192 128 128
192 192 128
192 192 128
192 192 128
192 192 128
192 192 128
192 192 192
128 128 128
128 128 128
128 128 128
128 128 128
192 192 128
192 192 128
192 128 128
64 64 64
64 64 64
64 64 64
64 64 64
64 64 64
64 64 64
64 64 64
64 64 64
64 64 64
64 64 64
64 64 64
64 64 64
64 64 64
64 64 64
64 64 64
64 64 64
128 64 64
64 64 64
64 64 64
64 64 64
64 64 64
64 64 64
64 64 64
64 64 64
64 64 64
128 128 128
128 128 128
128 128 128
128 128 128
128 64 64
64 64 64
64 64 64
64 64 64
64 64 64
64 64 64
128 64 64
128 64 64
128 64 64
64 64 64
64 64 64
64 64 64
64 64 64
64 64 64
128 64 64
128 64 64
64 64 64
64 64 64
128 64 64
64 64 64
64 64 64
64 64 64
64 64 64
64 64 64
64 64 64
64 64 64
64 64 64
0 64 64
0 64 64
0 64 64
64 64 64
64 64 64
64 64 64
64 64 64
64 64 64
64 64 64
64 64 64
128 64 64
128 64 64
128 64 64
128 128 64
64 64 64
64 64 64
64 64 64
128 128 64
128 128 64
128 128 64
128 64 0
128 64 0
128 64 64
64 64 64
64 64 64
64 64 64
64 64 64
64 64 64
64 64 64
128 64 64
128 64 64
128 128 64
128 128 64
128 128 64
128 128 64
128 128 64
64 64 64
64 64 64
64 64 64
64 64 64
128 64 64
128 128 64
64 64 128
64 64 64
64 64 64
64 64 64
64 64 64
64 64 64
64 64 64
64 64 0
64 64 64
64 64 64
64 64 64
64 64 64
64 64 64
64 64 64
64 64 64
128 128 64
64 64 64
128 64 64
128 128 64
128 128 64
64 64 64
64 64 64
64 64 64
64 64 64
64 64 64
64 64 64
64 64 64
64 64 64
64 64 64
64 64 64
64 64 64
64 64 64
64 64 64
128 64 64
128 64 64
128 64 64
64 64 64
64 64 64
128 64 64
64 64 64
128 64 64
128 64 64
128 64 64
128 64 64
128 64 64
128 64 64
128 64 64
128 64 64
128 64 64
128 64 64
128 64 64
128 64 64
64 64 64
64 64 64
64 64 64
64 64 64
64 64 64
64 64 64
128 64 64
128 128 64
128 64 64
192 128 64
128 64 64
192 128 128
192 192 128
192 192 128
192 192 128
192 192 128
192 192 128
192 192 128
192 192 192
192 192 192
192 192 128
192 192 128
192 192 128
192 192 128
192 192 128
192 192 128
192 128 128
128 128 128
128 128 64
128 128 128
128 128 128
128 128 128
128 128 64
128 128 64
128 128 64
128 128 128
128 128 128
192 192 128
192 192 128
192 192 128
192 192 128
192 192 128
192 192 128
192 128 128
128 128 64
128 128 64
128 128 128
128 128 128
128 128 128
192 192 128
128 64 64
64 64 64
64 64 64
64 64 64
64 64 64
64 64 64
64 64 64
64 64 64
64 64 64
64 64 64
64 64 64
64 64 64
64 64 64
64 64 64
64 64 64
128 128 64
128 64 64
128 64 64
64 64 64
64 64 64
64 64 64
64 64 64
64 64 64
64 64 64
64 64 64
128 128 128
128 128 128
128 128 128
128 128 128
64 64 64
128 64 64
128 128 128
64 64 64
0 0 64
64 64 64
64 64 64
64 64 64
64 64 64
64 64 64
64 64 64
64 64 0
64 64 64
64 64 64
128 64 64
128 64 64
128 64 64
64 64 64
64 64 64
64 64 64
64 64 64
128 64 64
64 64 64
64 64 64
64 64 64
64 64 64
0 64 0
0 64 0
0 64 0
0 64 64
64 64 64
64 64 64
64 64 64
64 64 64
128 64 64
64 64 64
128 64 64
128 64 64
128 64 64
128 64 64
128 64 64
128 64 64
128 64 64
128 128 64
128 128 64
128 128 0
128 128 0
128 64 0
128 64 0
128 64 64
64 64 64
64 64 64
64 64 64
64 64 64
64 64 64
0 0 0
64 64 64
128 64 64
128 64 64
128 64 64
128 64 64
128 64 64
64 64 64
64 64 64
64 64 64
64 64 64
128 128 128
128 128 64
64 64 64
64 64 64
64 64 64
64 64 64
64 64 64
64 64 64
64 64 64
64 64 64
64 64 0
64 64 64
128 64 64
64 64 64
64 64 64
64 64 64
64 64 64
64 64 64
64 64 64
64 64 0
128 64 64
192 128 64
192 128 64
128 64 64
64 64 64
64 64 64
64 64 64
64 64 64
64 64 64
0 64 0
64 64 64
64 64 64
64 64 64
64 64 64
64 64 64
64 64 64
64 64 64
64 64 64
128 64 64
128 64 64
64 64 64
128 64 64
128 64 64
128 64 64
128 64 64
128 64 64
128 64 64
128 64 64
128 64 64
128 64 64
64 64 0
64 64 0
64 64 64
128 64 64
64 64 64
64 64 64
64 64 64
64 64 64
128 64 64
64 64 64
64 64 64
64 64 64
128 128 64
128 64 64
192 64 64
128 64 64
192 192 128
192 192 128
192 192 128
192 192 128
192 192 128
192 192 128
192 192 128
192 192 128
192 192 128
192 192 128
192 192 128
192 192 128
192 192 128
192 192 128
128 128 128
128 128 128
128 128 128
128 128 128
128 128 128
128 128 128
128 128 128
128 128 128
128 128 128
128 128 64
128 128 128
128 128 128
192 192 128
192 192 128
192 192 128
192 192 192
192 192 128
192 192 128
192 128 128
128 64 64
128 128 64
128 128 128
128 128 128
128 128 128
192 192 128
128 128 128
64 64 64
64 64 64
128 128 64
64 64 64
64 64 64
64 64 64
64 64 64
64 64 64
64 64 64
64 64 64
64 64 64
64 64 64
64 64 64
128 128 64
128 128 64
64 64 64
128 64 64
64 64 64
128 64 64
64 64 64
64 64 64
64 64 64
64 64 64
64 64 64
128 128 64
128 128 128
128 128 128
128 128 64
64 64 64
128 64 64
128 128 64
64 64 64
64 64 64
64 64 64
64 64 64
64 64 64
0 64 64
0 0 64
64 64 64
64 64 64
64 64 64
64 64 64
128 64 64
128 64 64
128 64 64
64 64 64
64 64 64
64 64 64
128 128 64
128 64 64
64 64 64
64 64 64
64 64 64
64 64 64
64 64 64
0 0 0
0 0 0
0 0 0
64 64 0
64 64 64
64 64 64
64 64 64
64 64 64
64 64 64
64 64 64
64 64 64
64 64 64
128 64 64
128 64 64
128 64 64
128 128 64
128 128 0
128 128 0
128 128 0
128 128 0
128 128 0
128 64 0
128 128 64
128 128 64
128 128 64
128 64 64
64 64 64
128 128 64
128 128 128
64 64 64
0 0 0
64 64 64
128 128 64
128 128 64
128 64 64
64 64 64
64 64 64
64 64 64
128 128 128
128 128 128
64 64 64
64 64 64
128 128 128
64 64 64
64 64 64
64 64 64
64 64 64
64 64 64
64 64 64
64 64 64
64 64 0
64 64 64
64 64 64
64 64 64
64 64 64
64 64 64
64 64 64
128 64 64
128 128 64
128 128 64
192 128 128
128 128 64
128 128 64
128 64 64
128 128 64
128 64 64
64 64 64
64 64 64
64 64 0
64 64 64
64 64 64
128 64 64
128 128 64
128 64 64
128 64 64
128 128 64
128 64 64
128 64 64
128 128 64
128 64 64
64 64 64
64 64 64
128 64 0
128 64 64
128 64 64
128 64 64
128 64 64
64 64 64
128 64 64
128 64 64
128 64 64
64 64 64
64 64 0
64 64 0
64 64 64
64 64 0
64 64 64
64 64 64
64 64 64
64 64 64
64 64 64
128 64 64
128 64 64
128 64 64
128 128 64
192 192 128
192 192 128
192 192 128
192 192 128
192 192 128
192 128 128
192 192 128
192 128 128
192 128 128
192 192 128
192 128 128
192 192 128
128 128 128
128 128 64
128 128 64
128 128 128
128 128 128
128 128 128
128 128 128
128 128 128
128 128 64
128 128 64
128 128 128
128 128 128
128 128 128
128 128 128
192 128 128
192 192 128
192 192 128
192 192 128
192 192 128
192 192 128
192 128 128
128 64 64
128 128 64
128 128 128
128 128 128
128 128 128
192 128 128
128 128 128
64 64 64
64 64 64
128 128 64
64 64 64
64 64 64
64 64 64
64 64 64
64 64 64
64 64 64
0 64 64
64 64 64
64 64 64
64 64 64
128 128 64
128 128 64
64 64 64
128 128 64
64 64 64
128 64 64
64 64 64
64 64 64
64 64 64
64 64 64
64 64 64
128 64 64
128 128 128
128 128 128
128 64 64
64 64 64
64 64 64
64 64 64
64 64 64
128 128 64
64 64 64
64 64 64
64 64 64
64 64 64
0 0 0
0 0 64
64 64 64
64 64 64
64 64 64
128 64 64
128 128 64
128 64 64
128 64 64
64 64 64
128 64 64
128 64 64
128 64 64
64 64 64
64 64 64
64 64 64
64 64 64
0 64 0
0 0 64
0 0 0
0 0 0
64 64 0
0 64 0
64 64 64
64 64 64
64 64 64
128 64 64
64 64 64
64 64 64
64 64 0
64 64 64
128 64 64
128 64 64
128 128 0
128 128 0
128 128 0
128 128 0
128 128 0
128 128 0
128 128 64
128 128 64
128 128 128
192 128 128
192 128 128
128 128 128
128 64 64
192 128 128
192 128 128
64 64 64
0 0 0
64 64 64
128 64 64
64 64 64
64 64 64
128 128 128
128 128 128
128 128 128
128 128 128
128 128 128
64 64 64
128 128 64
64 64 64
64 64 64
64 64 64
64 64 64
64 64 64
64 64 64
64 64 0
64 64 0
64 64 0
64 64 64
64 64 64
64 64 64
64 64 64
64 64 64
128 64 64
128 128 64
128 64 64
128 128 64
128 128 64
128 128 64
192 128 128
128 128 64
64 64 64
64 64 64
128 64 64
128 64 64
64 64 64
64 64 0
128 128 64
128 128 64
128 128 64
128 128 64
128 64 64
128 128 64
128 128 64
128 64 64
128 64 64
64 64 64
64 64 0
64 64 0
64 64 64
128 64 64
128 64 64
128 64 64
128 64 64
128 64 64
128 64 64
64 64 64
128 64 64
128 64 64
64 64 64
128 64 64
64 64 64
64 64 0
64 64 0
64 64 64
64 64 64
64 64 64
64 64 0
128 64 64
128 64 64
128 128 128
192 192 128
192 192 128
192 192 128
192 192 128
192 192 128
192 192 128
192 192 128
192 192 128
192 128 128
192 128 128
192 128 128
192 192 128
128 128 128
128 128 64
128 128 64
128 128 64
128 128 64
128 128 64
128 128 128
128 128 128
128 128 64
128 128 64
128 128 128
128 128 64
128 128 128
128 128 128
128 128 128
192 192 128
192 192 128
192 192 128
192 192 128
192 192 128
192 128 128
128 128 64
128 128 128
128 128 128
128 128 64
128 128 64
192 128 128
128 128 128
64 64 64
64 64 64
64 64 64
64 64 64
64 64 64
64 64 64
64 64 64
64 64 64
64 64 64
64 64 64
64 64 64
64 64 64
128 64 64
128 128 64
128 128 64
64 64 64
128 128 64
64 64 64
128 128 64
128 64 64
64 64 64
64 64 64
64 64 64
64 64 64
64 64 64
128 128 128
128 128 64
64 64 64
64 64 64
64 64 64
64 64 64
64 64 64
64 64 64
128 128 64
128 64 64
64 64 0
64 64 64
64 64 64
0 0 0
64 64 64
64 64 64
64 64 64
128 64 64
128 64 64
128 64 64
128 64 64
64 64 64
64 64 64
64 64 64
64 64 64
64 64 64
64 64 64
64 64 64
64 64 64
0 0 64
0 0 64
0 0 0
0 0 0
0 0 0
64 64 0
64 64 64
64 64 64
64 64 0
64 64 0
64 64 64
64 64 64
64 64 64
64 64 64
64 64 64
128 128 64
128 128 0
128 128 0
128 128 0
128 128 0
128 128 64
128 128 64
128 128 64
128 128 128
192 128 128
192 128 128
192 128 128
192 128 128
192 128 128
128 128 64
192 128 128
128 64 64
0 0 0
0 0 0
0 0 0
64 64 64
64 64 128
64 64 128
128 128 128
128 128 128
64 128 128
64 64 128
64 64 64
64 64 64
64 64 64
64 64 64
64 64 64
64 64 64
64 64 64
64 64 64
64 64 0
64 64 64
128 128 64
64 64 64
64 64 64
128 64 64
64 64 64
64 64 64
64 64 64
64 64 64
128 64 64
128 64 64
128 64 64
192 128 64
128 128 64
64 64 64
64 64 64
128 64 64
128 128 64
128 64 64
64 64 64
128 128 64
128 128 128
128 128 128
128 128 64
128 64 64
128 64 64
64 64 64
64 64 64
64 64 64
64 64 64
64 64 64
64 64 64
64 64 64
64 64 64
64 64 0
128 64 0
64 64 64
64 64 64
64 64 64
128 64 64
64 64 64
64 64 64
64 64 64
64 64 64
128 64 64
128 64 64
64 64 64
64 64 64
64 64 64
64 64 64
64 64 64
128 64 64
128 128 64
192 128 64
192 192 128
192 192 128
192 192 128
192 192 128
192 192 128
192 192 128
192 192 128
192 192 128
192 192 128
192 128 128
192 128 128
128 128 128
192 128 128
128 128 128
128 128 64
128 128 64
128 128 64
128 128 64
128 128 64
128 128 128
128 128 128
128 128 64
128 128 64
128 128 128
128 128 128
128 128 128
128 128 128
128 128 128
192 192 128
192 192 192
192 192 192
192 192 128
192 192 128
128 128 128
128 128 64
128 128 128
128 128 128
128 128 128
128 128 128
128 128 128
192 192 128
64 64 64
64 64 64
64 64 64
64 64 64
64 64 64
64 64 64
64 64 64
64 64 64
64 64 64
64 64 64
64 64 64
64 64 64
64 64 64
128 64 64
64 64 64
64 64 64
128 128 64
128 64 64
128 64 64
128 64 64
64 64 64
64 64 64
64 64 64
64 64 64
64 64 64
128 128 128
64 64 64
64 64 64
64 64 64
64 64 64
64 64 64
64 64 64
64 64 64
64 64 0
128 128 64
128 128 64
64 64 64
64 64 64
0 64 64
0 0 0
64 64 64
64 64 64
64 64 64
128 64 64
128 64 64
128 64 64
128 64 64
64 64 64
64 64 64
64 64 64
64 64 64
64 64 64
64 64 64
64 64 64
0 64 64
0 0 0
0 0 0
0 0 64
0 0 0
0 0 0
64 64 64
128 64 64
64 64 0
64 64 0
64 64 64
64 64 64
64 64 64
128 64 64
128 64 64
128 128 64
128 128 64
128 128 64
128 64 64
128 64 64
128 128 0
128 128 64
128 128 64
128 128 64
192 128 64
192 128 128
128 128 64
128 128 64
128 128 64
128 64 64
192 128 128
128 128 64
0 64 0
64 64 64
64 64 64
128 128 64
128 128 128
128 128 128
128 128 128
128 128 128
128 128 128
128 128 128
64 64 128
64 64 64
64 64 64
128 128 64
192 128 128
128 128 64
64 64 64
64 64 64
64 64 64
128 128 128
192 192 192
64 64 64
64 64 64
64 64 64
128 64 64
64 64 64
64 64 64
64 64 64
64 64 64
64 64 64
128 64 64
128 128 64
64 64 64
64 64 64
64 64 64
64 64 64
128 64 64
128 64 64
64 64 64
192 128 64
128 128 128
128 128 128
128 128 64
128 64 64
64 64 64
64 64 64
64 64 0
64 64 64
64 64 64
64 64 64
128 64 64
64 64 64
64 64 64
64 64 64
128 64 64
128 64 64
128 64 64
128 64 64
128 64 64
128 64 64
128 128 64
128 64 64
128 64 64
128 128 64
128 128 64
64 64 64
128 64 64
64 64 64
64 64 64
128 64 64
192 128 128
128 128 64
192 128 128
192 192 128
192 128 128
192 192 128
192 192 128
192 192 128
192 128 128
192 128 128
192 128 128
192 128 128
128 128 128
128 128 128
128 128 128
128 128 128
128 128 64
64 64 64
128 64 64
128 128 128
128 128 128
128 128 128
128 128 128
128 128 128
128 128 128
128 128 128
128 128 128
128 128 128
128 128 128
192 128 128
192 128 128
192 192 128
192 192 128
192 192 192
192 192 128
192 192 128
128 128 128
128 128 64
128 128 128
128 128 128
128 128 128
128 128 128
128 128 128
192 192 128
128 128 64
64 64 64
128 128 128
64 64 64
64 64 64
64 64 64
64 64 64
64 64 64
0 64 64
64 64 64
64 64 64
64 64 64
64 64 64
64 64 64
128 64 64
128 128 64
128 128 64
128 64 64
128 128 64
128 128 64
64 64 64
64 64 64
64 64 64
64 64 64
64 64 64
128 64 64
64 64 64
64 64 64
64 64 64
64 64 64
128 128 64
192 128 64
64 64 64
64 64 64
64 64 64
128 64 64
64 64 64
64 64 64
0 0 0
0 0 0
64 64 64
64 64 64
128 64 64
128 64 64
128 64 64
128 128 128
64 128 64
128 128 64
128 128 128
128 128 64
128 128 128
128 128 64
64 64 64
64 64 64
64 64 0
0 64 64
0 0 0
0 0 0
64 64 64
64 64 64
64 64 64
128 64 64
64 64 64
64 64 64
64 64 64
64 64 64
64 64 0
64 64 64
64 64 64
128 128 0
128 128 64
128 64 64
128 64 64
128 64 64
128 128 64
128 64 64
64 64 64
128 64 64
128 64 64
128 128 64
128 128 64
128 64 64
128 64 64
128 64 64
192 128 64
128 64 64
64 64 64
128 128 64
192 128 64
128 128 64
128 128 128
128 128 64
128 128 64
128 128 128
128 128 128
64 64 128
64 64 64
64 64 64
64 64 64
128 64 64
128 128 64
128 128 64
64 64 64
64 64 64
64 64 0
128 128 128
128 128 128
64 64 0
64 64 64
128 64 64
128 64 64
128 64 64
64 64 64
64 64 64
64 64 64
64 64 64
64 64 64
64 64 64
64 64 64
64 64 64
64 64 64
64 64 64
128 64 64
128 64 64
64 64 64
128 64 64
128 64 64
128 64 64
128 64 64
64 64 64
64 64 64
64 64 64
128 128 64
128 64 64
64 64 64
128 64 64
128 64 64
128 64 64
128 64 64
128 64 64
128 64 64
128 64 64
128 64 64
128 64 64
128 128 64
128 128 64
192 128 128
128 128 128
128 64 64
128 64 64
128 64 64
64 64 64
128 64 64
128 64 64
128 64 64
128 128 64
192 128 128
128 128 64
128 128 64
192 192 128
192 192 128
192 128 128
192 192 128
192 128 128
128 128 128
192 128 128
128 128 128
128 128 128
128 128 128
128 128 128
128 128 128
128 128 128
64 64 64
64 64 64
128 128 64
128 128 128
128 128 128
128 128 128
128 128 128
128 128 128
128 128 128
128 128 128
128 128 128
128 128 128
128 128 128
192 192 128
192 128 128
192 192 128
192 192 128
192 192 192
192 192 192
192 192 128
192 128 128
128 128 128
128 128 128
128 128 128
128 128 128
128 128 128
192 128 128
192 192 128
128 128 64
64 64 64
128 128 64
128 128 64
64 64 64
64 64 64
64 64 64
64 64 64
0 0 0
64 64 64
64 64 64
64 64 64
128 64 64
64 64 64
128 64 64
128 128 64
128 128 64
128 64 64
64 64 64
128 64 64
64 64 64
64 64 64
64 64 64
64 64 64
64 64 64
64 64 64
64 64 64
64 64 64
64 64 64
64 64 64
192 128 64
128 128 64
64 64 64
64 64 64
64 64 64
64 64 64
128 128 64
64 64 64
0 0 0
0 0 0
0 64 64
64 64 64
128 64 64
128 64 64
128 128 128
128 128 64
64 64 64
128 128 128
128 128 64
128 128 64
64 64 64
64 64 64
128 64 64
64 64 64
64 64 64
64 64 64
64 64 64
64 64 64
128 128 128
64 64 64
64 64 64
128 64 64
64 64 64
64 64 0
64 64 64
64 64 64
64 64 64
128 64 0
128 64 0
128 128 64
128 128 64
128 128 64
128 128 64
128 128 64
128 128 64
128 64 64
64 64 64
64 64 64
128 64 64
128 64 64
128 64 64
128 64 64
64 64 0
128 64 64
192 128 64
128 64 64
128 128 64
128 128 64
128 128 64
128 128 64
128 128 64
128 128 64
128 128 64
128 128 128
64 64 128
64 64 64
64 64 64
64 64 64
64 64 64
64 64 64
64 64 64
128 128 64
64 64 64
64 64 64
64 64 64
128 64 64
128 128 64
64 64 64
64 64 0
64 64 64
128 64 64
128 64 64
64 64 64
64 64 64
64 64 64
64 64 64
64 64 64
64 64 64
64 64 64
64 64 64
128 64 64
128 64 64
128 64 64
128 64 64
128 64 64
128 64 64
128 64 64
128 64 64
128 64 64
64 64 64
64 64 64
64 64 64
128 64 64
128 128 64
128 128 64
128 128 64
128 128 64
128 128 64
128 128 64
128 128 64
128 64 64
64 64 64
128 64 64
128 64 64
128 128 64
128 64 64
64 64 64
128 128 128
128 128 64
128 128 64
128 64 64
64 64 64
128 64 64
128 64 64
128 128 64
128 128 64
128 128 64
128 64 64
128 64 64
192 192 128
128 128 128
128 128 128
192 128 128
128 128 128
128 128 128
128 128 128
128 128 128
192 192 128
192 128 128
192 128 128
128 128 128
128 128 128
64 64 64
128 64 64
128 128 64
128 128 64
128 128 64
128 128 128
128 128 128
128 128 128
128 128 128
128 128 128
192 192 128
128 128 128
128 128 128
192 128 128
192 192 128
192 192 192
192 192 128
192 192 192
192 192 192
192 192 128
192 192 128
128 128 128
128 128 64
128 128 64
128 128 128
128 128 128
192 128 128
192 192 128
128 128 128
64 64 64
64 64 64
128 128 64
64 64 64
64 64 64
64 64 64
64 64 64
64 64 64
0 64 64
64 64 64
64 64 64
64 64 64
64 128 128
128 128 128
64 64 64
128 128 64
64 64 64
64 64 64
128 128 64
64 64 64
64 64 64
64 64 64
64 64 64
64 64 64
64 64 64
64 64 64
64 64 64
0 0 0
0 0 0
64 64 64
64 64 64
64 64 64
64 64 64
64 64 64
64 64 64
128 128 128
128 128 64
64 64 64
0 64 64
0 0 0
64 64 64
128 64 64
128 128 64
128 128 64
64 64 64
128 128 128
128 128 64
128 128 64
64 64 64
64 64 64
64 64 64
64 64 64
64 64 64
64 64 64
64 64 64
128 128 128
192 128 128
192 128 128
128 128 64
64 64 64
128 64 64
128 64 64
64 64 64
64 64 64
64 64 0
128 64 0
128 64 0
128 64 64
128 128 64
128 128 64
128 64 64
128 64 64
128 128 64
128 128 64
128 64 64
128 64 64
64 64 64
128 64 64
128 64 64
128 64 64
128 64 64
128 64 64
128 64 64
128 64 64
128 128 64
128 64 64
128 64 64
128 64 64
128 128 64
192 128 128
128 128 128
128 128 128
64 64 64
64 64 128
64 64 64
64 64 64
64 64 64
64 64 64
128 64 64
64 64 64
64 64 64
128 64 64
64 64 64
64 64 64
128 64 64
128 128 64
128 128 128
128 128 64
128 64 64
64 64 64
64 64 64
64 64 64
64 64 64
64 64 64
64 64 64
64 64 0
64 64 64
64 64 64
128 64 64
128 128 128
128 64 64
64 64 64
64 64 64
128 64 64
128 64 64
128 64 64
128 64 64
128 64 64
64 64 64
128 64 64
64 64 64
64 64 64
128 64 64
128 128 64
128 128 64
128 128 64
128 128 64
128 64 64
128 128 64
128 128 64
128 64 64
128 64 64
128 64 64
128 64 64
64 64 64
64 64 64
128 128 128
128 128 64
128 64 64
128 64 64
128 64 64
128 64 64
64 64 64
128 64 64
128 64 64
64 64 64
64 64 64
128 128 64
192 192 128
128 128 128
128 128 128
192 128 128
128 128 128
192 128 128
192 128 128
192 128 128
192 128 128
192 128 128
192 128 128
192 128 128
128 128 128
128 64 64
128 128 64
128 128 64
128 128 128
128 128 64
128 128 128
128 128 128
128 128 128
128 128 128
128 128 128
128 128 128
128 128 128
128 128 128
192 128 128
192 192 128
192 192 192
192 128 128
192 192 192
192 192 128
192 128 128
192 192 128
128 128 128
128 128 64
128 128 128
128 128 128
128 128 128
192 128 128
192 192 128
64 64 64
64 64 64
64 64 64
64 64 64
128 64 64
64 64 64
0 64 64
64 64 64
64 64 64
64 64 64
64 64 64
64 64 64
64 64 64
64 128 128
128 128 64
64 64 64
128 128 64
64 64 64
128 128 64
128 128 64
64 64 64
64 64 64
64 64 64
64 64 64
64 64 64
64 64 64
64 64 64
64 64 64
64 64 64
0 64 64
0 0 64
64 64 64
64 64 64
64 64 64
64 64 64
64 64 64
128 128 128
128 128 64
64 64 64
64 64 64
0 0 0
64 64 64
128 128 128
128 128 128
64 64 64
64 64 64
128 128 64
128 128 64
128 128 64
64 64 64
64 64 64
128 64 64
128 128 64
128 128 64
128 128 64
64 64 64
192 128 128
192 192 128
192 128 128
192 128 128
128 128 64
64 64 64
128 64 64
64 64 64
64 64 64
64 64 64
64 64 64
128 64 64
128 64 64
128 64 64
128 128 64
128 64 64
128 64 64
128 64 64
128 64 64
128 64 64
128 128 64
128 128 64
128 128 64
128 64 64
128 64 64
128 64 64
128 64 64
128 64 64
128 64 64
128 64 64
128 64 64
128 128 64
128 128 64
192 128 128
192 128 128
128 128 64
128 128 128
64 64 128
64 64 128
64 64 64
64 64 64
64 64 64
64 64 64
64 64 64
64 64 64
64 64 64
64 64 64
128 64 64
128 128 64
128 128 64
128 128 64
128 128 64
192 128 128
128 128 64
64 64 64
64 0 0
64 64 64
64 64 64
64 64 64
64 64 64
64 64 64
0 0 0
64 64 64
128 128 64
128 64 64
64 64 64
64 64 64
128 64 64
128 64 64
128 64 64
128 64 64
128 64 64
128 64 64
128 64 64
64 64 64
64 64 64
64 64 64
64 64 64
64 64 64
128 64 64
128 64 64
64 64 64
64 64 64
128 128 64
128 128 64
128 128 64
128 128 64
64 64 64
64 64 64
128 64 64
128 64 64
128 128 128
128 128 64
128 64 64
128 64 64
128 64 64
128 64 64
128 64 64
128 64 64
64 64 64
64 64 64
64 64 64
128 128 64
192 192 128
128 128 128
128 128 128
128 128 128
192 192 128
192 192 128
192 192 128
192 128 128
192 128 128
192 128 128
192 128 128
192 128 128
128 128 128
128 128 64
128 128 128
128 128 128
128 128 128
128 128 128
128 128 128
128 128 128
128 128 128
128 128 128
128 128 128
128 128 128
128 128 128
128 128 128
192 128 128
192 192 128
192 192 128
192 192 128
192 192 192
192 192 128
128 128 128
192 192 128
128 128 64
128 128 64
128 128 128
128 128 128
128 128 128
192 128 128
192 192 192
64 64 64
64 64 64
64 64 128
64 64 64
128 128 64
64 64 64
0 64 64
128 64 64
128 128 64
64 64 64
64 64 64
64 64 64
64 64 64
64 128 128
128 128 128
64 64 64
64 64 64
64 64 64
64 64 64
128 128 64
64 64 64
64 64 64
64 64 64
64 64 64
64 64 64
64 64 64
0 0 0
64 64 64
64 64 64
0 64 64
0 64 64
64 64 64
64 64 64
64 64 64
64 64 64
64 64 0
128 64 64
64 64 64
64 64 64
64 64 64
0 0 0
64 64 64
128 128 128
128 128 64
64 64 64
128 128 64
128 128 64
128 128 64
64 64 64
64 64 64
128 64 64
128 128 64
128 128 128
128 128 64
128 128 64
128 128 64
128 128 64
128 128 64
128 128 64
128 128 64
128 128 64
128 128 64
128 128 64
128 64 64
64 64 64
64 64 64
128 64 64
128 64 64
128 64 64
128 64 64
128 64 64
128 64 0
64 64 0
128 64 64
128 64 64
128 64 64
128 64 64
128 64 64
128 64 64
128 128 64
128 64 64
128 64 64
128 64 64
128 64 64
128 64 64
128 64 64
128 64 64
128 128 64
128 128 64
128 128 128
128 128 64
128 128 64
128 128 64
128 128 128
64 64 64
64 64 64
64 64 64
64 64 64
64 64 64
64 64 64
64 64 64
0 64 0
128 128 64
128 128 128
128 64 64
128 128 64
192 128 64
128 64 64
128 128 64
192 128 128
128 128 128
128 64 64
128 64 64
64 64 64
64 64 64
64 64 64
0 0 0
0 0 0
64 64 64
128 128 128
128 128 64
64 64 64
128 64 64
128 64 64
128 64 64
128 64 64
128 64 64
128 64 64
128 64 64
64 64 64
64 64 64
64 64 64
64 64 64
64 64 64
64 64 64
128 64 64
128 128 64
64 64 64
192 192 128
256 256 192
192 192 128
128 128 128
128 128 64
128 128 64
128 64 64
128 128 64
128 64 64
128 128 64
128 128 128
64 64 0
128 64 64
128 64 64
128 64 64
128 64 64
64 64 64
64 64 64
64 64 64
64 64 64
128 128 128
192 192 128
128 128 128
128 128 128
128 128 128
192 128 128
192 192 128
192 128 128
192 128 128
192 128 128
192 128 128
192 192 128
192 192 128
128 128 128
128 128 64
128 128 128
128 128 128
128 128 64
128 128 128
128 128 128
128 128 128
128 128 128
128 128 64
128 128 128
128 128 128
128 128 128
128 128 128
192 192 128
192 192 192
192 192 128
192 192 128
192 192 128
192 192 128
128 128 128
192 128 128
128 128 128
64 64 64
128 128 128
128 128 128
128 128 128
192 128 128
192 192 192
64 64 64
64 64 64
64 64 64
64 64 64
128 64 64
128 128 128
64 64 64
128 64 64
128 128 64
64 64 64
64 64 64
64 64 64
64 64 64
128 128 64
128 128 64
64 64 64
64 64 64
64 64 64
128 128 64
128 128 64
64 64 64
64 64 64
64 64 64
64 64 64
64 64 64
64 64 64
64 64 64
64 64 64
64 64 64
64 64 64
0 64 64
64 64 64
64 64 64
64 64 64
64 64 64
64 64 0
64 64 64
64 64 64
128 128 64
64 64 64
0 0 0
128 64 64
128 128 128
64 64 64
64 64 64
128 128 64
128 128 128
128 128 64
64 64 64
128 64 64
128 64 64
128 128 64
128 128 128
128 128 64
128 128 64
128 128 64
128 128 64
128 128 64
128 128 64
128 128 64
128 128 64
128 128 64
128 128 64
128 64 64
128 64 64
128 64 64
128 64 64
64 64 0
64 64 0
64 64 0
64 64 0
128 64 64
128 64 0
128 128 64
192 128 128
192 128 128
192 128 64
192 128 64
128 128 64
128 64 64
128 64 64
128 64 64
128 64 64
128 64 64
128 64 64
128 64 64
64 64 64
128 64 64
128 64 64
64 64 64
128 64 64
128 128 128
128 128 64
128 128 64
64 64 64
64 64 64
64 64 64
64 64 64
64 64 64
64 64 64
64 64 64
64 64 0
192 192 192
128 128 64
128 64 64
128 128 64
192 128 64
128 128 64
192 128 64
128 128 64
128 128 64
192 128 128
128 128 64
64 64 64
64 64 64
0 0 0
64 64 0
128 64 64
192 128 64
192 128 128
192 128 128
128 128 128
128 64 64
64 64 64
128 64 64
64 64 64
64 64 64
64 64 64
64 64 64
64 64 0
64 64 0
64 64 64
64 64 64
64 64 64
128 128 128
192 192 192
192 192 192
192 192 192
192 192 128
192 192 192
256 256 192
256 256 192
192 192 192
128 128 128
128 64 64
64 64 64
64 64 0
128 128 64
128 128 128
64 64 64
128 64 64
128 64 64
128 64 64
128 64 64
128 64 64
64 64 64
64 64 64
64 64 64
128 128 128
192 192 128
128 128 128
128 128 128
128 128 64
128 128 128
192 192 128
192 128 128
192 128 128
192 128 128
192 128 128
192 192 128
192 128 128
128 128 128
128 128 128
128 128 128
128 128 128
128 128 64
128 128 128
128 128 128
128 128 128
128 128 128
128 128 128
128 128 128
128 128 128
128 128 128
128 128 128
192 128 128
192 128 128
192 192 192
192 192 192
192 192 128
192 192 128
192 192 128
192 128 128
128 128 128
128 128 64
128 128 128
128 128 64
128 128 128
192 128 128
192 192 192
64 64 64
64 64 64
64 64 64
64 64 64
64 64 64
128 128 64
64 64 64
64 64 64
128 128 64
128 64 64
0 64 64
64 64 64
64 64 64
128 128 128
64 64 64
64 64 64
64 64 64
64 64 64
128 128 64
128 128 64
64 64 64
64 64 64
64 64 64
64 64 64
64 64 64
64 64 64
64 64 64
64 64 64
64 64 64
64 64 64
0 0 64
64 64 64
64 64 64
64 64 64
64 64 64
64 64 64
64 64 64
64 64 64
128 128 64
64 64 64
0 0 64
128 64 64
128 128 128
64 64 64
64 64 64
128 128 64
128 128 64
64 64 64
64 64 64
64 64 64
128 64 64
128 128 64
128 128 128
128 128 64
128 64 64
128 64 64
128 64 64
128 128 64
128 128 64
128 128 64
128 128 64
128 64 64
128 128 64
128 64 64
64 64 0
128 64 0
128 64 0
128 64 0
64 64 0
64 64 0
64 64 0
64 64 0
128 64 64
128 128 128
192 128 128
192 128 128
192 192 128
192 192 128
192 192 128
192 128 128
128 128 64
128 64 64
128 64 64
128 64 0
64 64 0
64 64 0
64 64 0
128 64 64
128 64 64
128 128 64
64 64 64
128 64 64
128 64 64
64 64 64
64 64 64
64 64 0
64 64 64
64 64 64
64 64 64
64 64 64
64 64 64
64 64 64
192 192 192
128 128 128
128 64 64
128 128 64
128 128 64
128 128 64
192 128 128
128 128 64
128 64 64
128 128 64
128 128 64
64 64 64
0 0 0
64 64 0
128 128 64
192 128 128
192 128 128
192 128 128
192 128 128
192 128 128
192 192 128
128 128 64
64 64 64
64 64 64
64 64 64
64 64 64
64 64 0
64 64 64
128 128 128
128 128 128
192 192 128
192 192 128
192 192 192
192 192 192
192 192 192
192 192 192
192 192 192
192 192 192
192 192 192
256 192 192
256 256 192
192 192 192
64 64 64
64 64 64
128 64 64
128 128 64
192 128 128
128 128 64
128 64 64
128 64 64
128 64 64
128 64 64
128 64 64
64 64 64
64 64 64
64 64 64
128 128 128
192 192 128
128 128 128
128 128 128
128 128 64
128 128 128
192 192 128
192 128 128
192 128 128
192 192 128
192 192 128
192 192 128
128 128 128
128 128 128
128 128 128
128 128 128
128 128 64
128 128 64
128 128 128
128 128 128
128 128 128
128 128 128
128 128 128
128 128 128
128 128 128
128 128 128
128 128 128
128 128 128
192 128 128
192 192 192
192 192 192
192 128 128
192 192 128
192 192 128
192 192 128
128 128 128
128 128 64
128 128 128
128 128 128
128 128 128
192 128 128
192 192 128
64 64 64
64 64 64
64 64 64
64 64 64
64 64 64
64 64 64
128 128 64
64 64 64
64 64 64
64 64 64
64 64 64
64 64 64
64 64 64
128 128 128
64 64 64
64 64 64
64 64 64
64 64 64
64 64 64
128 64 64
64 64 64
64 64 64
64 64 64
64 64 64
64 64 64
64 64 64
64 64 64
64 64 64
64 64 64
64 64 64
64 64 64
0 64 64
64 64 64
64 64 64
64 64 64
64 64 64
0 0 0
64 64 64
128 128 64
64 64 64
64 64 64
128 128 64
128 128 128
64 64 64
64 64 64
128 64 64
128 128 64
64 64 64
64 64 64
64 64 64
128 64 64
128 64 64
128 128 64
128 128 64
128 64 64
128 64 64
128 128 64
128 128 64
128 64 64
128 64 64
128 64 64
128 64 64
128 64 64
128 64 64
64 64 0
128 64 64
64 64 0
64 64 0
64 64 0
64 64 64
128 64 64
128 64 64
128 128 64
192 128 128
192 192 128
192 128 128
192 192 128
192 128 128
192 192 128
192 192 128
192 128 128
192 128 128
192 128 128
192 128 64
128 128 64
128 64 64
128 128 64
128 128 64
128 128 64
128 128 64
128 128 64
64 64 64
128 64 64
64 64 64
64 64 64
64 64 64
64 64 64
0 0 0
0 64 0
64 64 64
64 64 0
64 64 64
192 192 128
192 192 128
128 64 64
128 128 64
128 64 64
128 64 64
128 128 64
128 128 64
192 128 128
128 128 64
64 64 64
64 64 64
64 64 64
128 64 64
192 128 64
192 128 64
192 128 128
192 128 128
192 128 128
192 128 128
192 192 128
192 192 128
128 128 128
128 64 64
64 64 64
64 64 64
64 64 64
192 192 128
192 192 192
192 192 128
192 192 192
192 192 192
192 192 192
192 192 192
192 192 192
192 192 192
192 192 192
256 192 192
256 192 192
192 192 192
192 192 192
192 192 192
128 64 64
64 64 0
64 64 64
128 64 64
128 128 64
128 128 64
64 64 0
64 64 64
128 64 64
128 64 64
128 64 64
128 64 64
128 64 64
64 64 64
128 128 128
192 128 128
128 128 128
128 128 128
128 128 64
128 128 128
192 192 128
192 128 128
192 192 128
192 192 128
192 192 128
192 192 128
192 128 128
128 128 128
128 128 64
128 128 64
128 128 64
128 128 128
128 128 128
128 128 128
128 128 128
128 128 128
128 128 128
192 128 128
192 128 128
128 128 128
128 128 128
128 128 128
128 128 128
128 128 128
192 192 192
192 128 128
128 128 128
192 128 128
192 128 128
128 128 128
128 64 64
128 128 128
128 128 128
128 128 128
192 192 128
192 192 192
64 64 64
64 64 64
64 64 64
64 64 64
64 64 64
64 64 64
128 128 64
128 128 64
64 64 64
64 64 64
64 64 64
64 64 64
64 64 64
128 128 128
64 64 64
64 64 64
64 64 64
64 64 64
64 64 64
128 64 64
64 64 64
64 64 64
64 64 64
64 64 64
64 64 64
64 64 64
64 64 64
64 64 64
0 0 0
64 64 64
64 64 64
0 0 64
64 64 64
64 64 64
64 64 64
64 64 0
64 64 0
64 64 64
64 64 64
0 0 0
64 64 64
128 128 64
128 128 64
64 64 64
64 64 64
64 64 64
64 64 64
64 64 64
64 64 64
64 64 64
64 64 64
128 64 64
128 128 64
64 64 64
64 64 64
128 64 64
128 64 64
128 64 64
128 64 64
128 64 0
64 64 0
64 64 64
64 64 64
64 64 64
64 64 0
64 64 0
128 64 64
128 128 64
128 128 64
192 128 128
192 128 128
192 128 128
192 128 128
192 192 128
192 192 128
192 192 128
192 192 128
192 192 128
192 192 128
192 192 128
192 192 128
192 192 128
192 192 128
192 192 128
192 192 128
192 192 128
192 192 128
128 128 64
128 128 64
128 128 64
128 128 64
128 128 64
128 128 128
128 64 64
64 64 64
64 64 0
0 0 0
64 64 64
64 64 64
64 64 0
64 64 0
64 64 0
64 64 64
64 64 64
64 64 64
128 128 64
128 128 64
128 64 64
128 64 64
128 128 64
128 128 64
64 64 64
0 64 0
64 64 64
64 64 64
128 128 64
128 128 64
128 128 64
192 128 128
192 128 128
192 128 128
192 128 128
192 192 128
192 192 128
192 128 128
192 128 128
128 64 64
0 64 64
64 64 64
192 128 128
192 192 192
192 192 192
192 192 192
192 192 192
192 192 192
192 192 192
192 192 192
192 192 192
192 192 192
192 192 128
192 192 192
192 192 192
192 192 192
192 192 192
128 128 128
64 64 0
64 64 0
64 64 64
128 128 64
128 128 128
64 64 64
64 64 64
128 64 64
128 64 64
128 64 64
128 64 64
128 64 64
64 64 64
128 128 128
192 128 128
128 128 128
192 128 128
128 128 128
128 128 128
192 192 128
192 192 128
192 192 128
192 128 128
192 128 128
192 128 128
192 128 128
128 128 128
128 128 64
128 128 128
128 128 64
128 128 128
128 128 128
128 128 128
128 128 128
128 128 128
128 128 128
128 128 128
128 128 128
128 128 128
128 128 128
128 128 128
128 128 128
128 128 128
192 192 128
192 192 128
192 128 128
192 192 128
192 128 128
128 128 128
128 64 64
128 128 128
128 128 128
128 128 128
192 192 128
192 192 128
64 64 64
64 64 64
64 64 64
64 64 64
64 64 64
64 64 64
64 64 64
128 128 128
64 64 64
0 64 64
64 64 64
64 64 64
64 64 64
128 128 128
64 64 64
64 64 64
64 64 64
64 64 64
64 64 64
128 64 64
128 64 64
64 64 64
64 64 64
64 64 64
64 64 64
64 64 64
128 64 64
64 64 64
0 64 64
64 64 64
64 64 64
0 64 64
64 64 64
64 64 64
64 64 64
64 64 64
64 64 64
64 64 0
64 64 64
0 0 64
64 64 64
128 128 64
64 64 64
64 64 64
64 64 64
64 64 64
64 64 64
64 64 64
64 64 64
64 64 64
64 64 64
64 64 64
128 64 64
64 64 64
0 64 64
64 64 64
64 64 0
64 64 0
64 64 0
64 64 64
64 64 64
64 64 64
128 64 64
64 64 64
128 64 64
128 128 64
192 128 128
192 128 128
192 192 128
192 192 128
192 128 128
192 128 128
192 192 128
192 192 128
192 192 128
192 192 128
192 192 128
192 192 128
192 192 128
192 192 128
192 192 128
192 192 128
192 192 192
192 192 128
256 192 192
256 192 192
192 192 128
192 128 128
128 128 64
128 128 64
128 64 64
128 64 64
128 128 128
128 64 64
64 64 64
0 64 0
0 0 0
0 64 64
128 128 128
128 128 128
0 64 0
0 64 0
0 64 0
0 0 0
0 0 0
64 64 64
128 128 64
128 64 64
128 64 64
128 128 64
64 64 64
64 64 0
64 64 64
64 64 64
64 64 64
128 128 64
128 128 64
128 128 64
192 128 128
192 128 128
192 192 128
192 192 128
192 192 128
192 192 128
192 192 128
192 128 128
128 128 128
64 64 64
128 128 128
192 192 192
192 192 192
192 192 192
192 192 192
192 192 128
192 192 128
192 192 128
192 192 192
192 192 192
192 192 192
192 192 192
192 192 128
192 192 192
256 192 192
256 256 192
192 128 128
64 64 0
64 64 0
64 64 64
128 128 64
128 128 128
64 64 64
64 64 64
128 64 64
128 64 64
128 64 64
128 64 64
128 64 64
128 64 64
192 128 128
192 128 128
192 128 128
192 128 128
192 192 128
128 128 128
192 128 128
192 128 128
192 192 128
192 128 128
192 192 128
192 128 128
192 192 128
128 128 128
128 128 64
128 128 128
128 128 64
128 128 128
128 128 128
128 128 128
128 128 128
128 128 128
128 128 128
128 128 128
128 128 128
128 128 128
128 128 128
128 128 128
128 128 64
128 128 128
128 128 128
192 192 128
192 192 128
192 192 128
192 128 128
128 128 128
64 64 64
128 128 128
128 128 128
128 128 128
192 192 128
192 128 128
64 64 64
64 64 64
64 64 64
64 64 64
64 64 64
64 64 64
64 64 64
128 128 64
64 64 64
64 64 64
64 64 64
64 64 64
128 128 128
128 128 128
64 64 64
64 64 64
64 64 64
64 64 64
64 64 64
64 64 64
128 64 64
64 64 64
64 64 64
64 64 64
64 64 64
128 64 64
128 64 64
64 64 64
64 64 64
64 64 64
0 64 64
0 0 0
64 64 64
64 64 64
64 64 64
64 64 64
0 64 64
0 0 64
64 64 64
0 64 64
64 64 64
128 128 64
64 64 64
64 64 64
64 64 64
64 64 64
64 64 64
0 64 64
64 64 64
64 64 64
64 64 64
64 64 64
64 64 64
64 64 64
64 64 64
64 64 64
64 64 64
128 64 64
64 64 64
64 64 64
128 128 64
128 128 64
128 128 128
128 128 64
192 128 128
192 128 128
192 128 128
192 128 128
192 192 128
192 192 128
192 192 128
192 192 128
192 192 128
192 192 128
192 192 128
192 192 128
192 192 128
192 192 128
192 192 128
192 128 128
192 128 128
192 192 128
192 192 128
192 192 128
256 192 128
256 192 192
192 192 128
192 192 128
192 192 128
128 64 64
64 64 64
128 64 64
128 128 64
128 128 64
128 64 64
64 64 64
0 0 0
0 0 0
64 64 64
192 192 192
192 192 192
64 64 64
0 64 0
0 64 64
0 0 0
0 0 0
0 0 0
0 0 0
0 64 64
64 64 64
64 64 64
64 64 64
64 64 64
64 64 64
128 128 64
128 64 64
128 128 64
128 128 64
192 128 128
192 128 128
192 192 192
192 192 192
192 128 128
192 192 128
192 192 128
192 128 128
128 128 128
192 192 128
256 256 192
192 192 192
192 192 192
192 192 192
192 192 192
192 192 192
192 192 192
128 128 128
192 192 192
192 192 192
192 192 192
192 192 192
192 192 128
192 192 128
192 192 192
256 256 192
192 128 128
64 64 64
64 64 0
64 64 0
128 64 64
128 128 128
128 64 64
64 64 64
128 64 64
128 64 64
128 64 64
128 64 64
128 64 64
128 64 64
192 128 128
192 128 128
128 128 128
192 128 128
192 192 128
128 128 128
192 192 128
192 192 128
192 192 128
192 192 128
192 192 128
192 128 128
192 192 128
128 128 128
128 128 64
128 128 64
128 128 64
128 128 128
128 128 128
128 128 128
128 128 128
128 128 128
128 128 128
128 128 128
192 128 128
128 128 128
128 128 128
128 128 64
128 64 64
128 128 64
128 128 128
192 128 128
192 192 128
192 192 128
192 192 128
128 128 128
64 64 64
128 128 128
128 128 128
128 128 128
192 128 128
128 128 128
64 64 64
64 64 64
64 64 64
64 64 64
64 64 64
64 64 64
64 64 64
64 64 64
128 128 64
64 64 64
64 64 64
64 64 64
128 128 128
128 128 128
64 64 64
64 64 64
64 64 64
64 64 64
64 64 64
64 64 64
128 64 64
64 64 64
64 64 64
128 64 64
128 64 64
128 64 64
128 64 64
64 64 64
64 64 64
64 64 64
0 64 64
0 0 0
64 64 64
64 64 64
0 0 64
0 64 64
64 64 64
64 64 64
64 64 0
64 64 64
64 64 64
128 64 64
64 64 64
64 64 64
64 64 64
64 64 64
64 64 64
0 64 64
0 0 0
64 64 0
64 64 64
64 64 64
64 64 64
64 64 64
64 64 64
64 64 64
128 64 64
128 128 64
64 64 64
64 64 64
64 64 64
128 128 128
192 128 128
192 128 128
128 128 64
192 128 128
192 128 128
192 192 128
192 192 128
192 192 128
192 192 128
192 192 128
192 192 128
192 192 128
192 192 128
192 192 128
192 192 128
192 192 128
192 192 128
192 192 128
192 192 128
192 128 128
192 128 128
192 128 128
192 192 128
192 192 128
192 192 128
192 192 128
192 192 128
192 192 128
128 64 64
64 64 0
128 128 64
128 128 64
128 64 64
64 64 64
0 0 0
0 64 64
0 0 0
64 64 64
256 256 192
192 192 192
64 64 64
0 0 0
0 64 64
0 0 0
0 0 0
0 0 0
0 0 0
0 0 0
0 64 0
64 64 64
64 64 64
64 64 64
64 64 64
128 64 64
128 128 64
128 128 64
128 128 64
192 128 128
192 192 128
192 192 128
192 128 128
192 192 128
192 192 128
192 128 128
128 128 128
128 128 128
192 192 192
192 192 192
192 192 192
192 192 192
192 192 192
192 192 192
192 192 192
192 192 128
192 128 128
192 192 192
192 192 192
192 192 192
192 192 128
192 128 128
192 192 128
192 192 128
128 128 128
128 64 64
128 64 64
64 64 0
64 64 64
128 128 128
128 128 64
64 64 64
64 64 64
128 64 64
128 64 64
128 64 64
128 64 64
128 64 64
192 192 128
192 128 128
128 128 128
128 128 128
192 192 128
192 192 128
192 128 128
192 192 128
192 192 128
192 128 128
192 128 128
192 128 128
192 128 128
128 128 64
128 128 64
128 128 64
128 128 64
128 128 128
128 128 128
128 128 128
192 128 128
128 128 128
128 128 128
128 128 128
128 128 128
128 128 128
128 128 128
128 64 64
128 64 64
128 128 128
128 128 128
192 128 128
192 192 128
192 128 128
192 192 128
128 128 128
128 64 64
128 128 128
128 128 64
128 128 128
128 128 128
192 128 128
128 128 128
64 64 64
64 64 64
64 64 64
64 64 64
64 64 64
64 64 64
64 64 64
64 64 64
128 128 64
64 64 64
64 64 64
128 128 128
128 128 128
64 64 64
64 64 64
64 64 64
64 64 64
64 64 64
64 64 64
128 64 64
64 64 64
64 64 64
128 64 64
128 64 64
128 64 64
128 64 64
64 64 64
64 64 64
64 64 64
64 64 64
0 0 0
64 64 64
64 64 64
0 64 64
0 64 64
64 64 64
64 64 64
0 0 0
64 64 64
64 64 64
64 64 64
64 64 64
64 64 64
64 64 64
64 64 64
64 64 64
64 64 64
64 64 64
0 0 0
64 64 64
128 64 64
64 64 64
64 64 64
128 64 64
64 64 64
128 64 64
128 64 64
128 128 64
64 64 64
128 128 64
128 128 128
192 128 128
128 128 64
192 128 128
192 192 128
192 192 128
192 192 128
192 192 128
192 192 128
192 192 128
192 192 128
192 192 128
192 192 128
192 192 128
192 192 128
192 192 128
192 192 128
192 192 128
192 192 128
192 192 128
192 192 128
192 128 128
192 128 128
192 128 128
192 128 128
192 192 128
192 192 128
192 192 128
192 192 128
192 128 128
64 64 0
128 64 64
128 128 64
64 64 0
64 0 0
0 0 0
0 0 0
64 64 0
64 64 0
64 64 64
192 192 192
192 192 128
64 64 0
64 64 0
0 64 0
0 0 0
0 0 0
0 0 0
64 64 64
64 64 64
64 64 64
64 64 0
0 0 0
64 64 64
128 64 64
128 128 64
128 128 64
192 128 64
192 128 128
192 128 128
192 128 128
192 128 128
192 192 128
192 128 128
128 128 64
128 128 64
128 64 64
128 128 64
192 192 128
192 192 192
192 192 192
192 192 192
192 192 192
192 192 192
192 192 192
128 128 128
192 192 128
192 192 128
192 192 128
192 192 192
192 192 128
192 192 128
192 192 128
128 128 64
128 64 64
128 64 64
64 64 0
64 64 64
128 128 64
128 128 64
64 64 64
64 64 64
128 64 64
128 64 64
128 64 64
128 64 64
128 64 64
192 192 128
192 128 128
128 128 128
192 128 128
192 192 128
192 192 128
192 192 128
192 192 128
192 192 128
192 192 128
192 192 128
192 192 128
192 192 128
192 128 128
128 128 64
128 128 64
128 128 128
128 128 128
128 128 128
128 128 128
128 128 128
128 128 128
128 128 128
128 128 128
128 128 128
128 128 128
128 128 128
128 128 64
128 64 64
128 128 64
128 128 128
192 128 128
192 192 128
128 128 128
192 192 128
128 128 128
128 128 64
128 128 128
128 128 64
128 128 128
128 128 128
192 128 128
128 128 128
64 64 64
64 64 64
64 64 64
64 64 64
64 64 64
64 64 64
64 64 64
64 64 64
128 64 64
128 64 64
64 64 64
128 128 128
128 128 128
64 64 64
64 64 64
64 64 64
64 64 64
64 64 64
128 64 64
128 64 64
64 64 64
64 64 64
128 64 64
128 64 64
128 64 64
64 64 64
64 64 64
64 64 64
128 64 64
64 64 64
0 64 64
64 64 64
64 64 64
0 64 64
0 0 0
64 64 64
128 64 64
64 64 64
64 64 64
64 64 64
64 64 64
64 64 64
64 64 64
64 64 64
64 64 64
64 64 64
64 64 64
64 64 64
64 0 0
64 64 64
128 64 64
64 64 64
64 64 64
128 64 64
128 64 64
64 64 64
64 64 64
128 128 64
128 64 64
128 64 64
128 128 64
128 128 128
192 128 128
192 192 128
192 192 128
192 192 128
192 192 128
192 192 128
192 192 128
192 192 128
192 192 128
192 192 128
192 192 128
192 192 128
192 192 128
192 192 128
192 192 128
192 192 128
192 128 128
192 128 128
192 128 128
192 128 128
192 128 128
192 128 64
192 128 64
192 128 128
192 128 128
192 128 128
192 128 128
192 192 128
128 128 64
128 64 64
192 128 64
128 128 64
64 64 64
64 64 64
64 64 64
0 64 0
0 0 0
0 64 0
128 128 64
192 192 192
64 64 64
0 0 0
0 0 64
0 0 0
0 0 0
64 64 64
128 128 64
64 64 64
0 0 0
0 0 0
64 64 64
128 64 64
128 64 64
128 64 64
128 128 64
128 128 64
192 128 64
192 128 128
192 128 128
192 128 128
192 128 64
128 128 64
128 128 64
128 64 64
128 128 64
128 128 64
128 128 64
192 128 128
192 192 192
192 192 192
192 192 192
192 192 192
192 192 192
192 192 128
192 192 128
192 192 128
192 128 128
192 192 192
192 192 128
192 192 128
192 192 128
128 64 64
64 64 64
128 64 64
64 64 64
64 64 64
128 64 64
128 128 64
64 64 64
64 64 0
64 64 64
128 64 64
128 64 64
128 64 64
128 128 64
192 192 128
128 128 128
192 128 128
192 128 128
192 128 128
192 128 128
192 192 128
192 192 128
192 192 128
192 192 128
192 192 128
192 192 128
192 192 128
192 192 128
128 128 128
128 128 64
128 128 64
128 128 128
128 128 128
128 128 128
192 128 128
128 128 128
128 128 128
128 128 128
128 128 128
192 128 128
128 128 128
128 128 64
64 64 64
128 128 64
128 128 128
192 128 128
192 128 128
128 128 128
192 192 128
192 128 128
128 128 64
128 128 128
128 128 64
128 128 64
128 128 128
128 128 128
128 128 128
64 64 64
64 64 64
64 64 64
64 64 64
64 64 64
64 64 64
64 64 64
64 64 64
128 128 64
128 128 128
128 64 64
128 128 128
128 128 128
64 64 64
64 64 64
64 64 64
64 64 64
64 64 64
128 64 64
128 128 64
128 64 64
128 64 64
128 64 64
128 64 64
128 64 64
64 64 64
64 64 64
64 64 64
64 64 64
64 64 64
0 64 0
64 64 64
64 64 64
64 64 64
64 64 64
64 64 64
64 64 64
64 64 64
64 64 64
64 64 64
128 128 64
64 64 64
64 64 64
64 64 64
128 128 64
64 64 64
64 64 64
64 64 64
64 0 0
64 64 64
128 128 64
64 64 64
64 64 64
128 128 64
128 64 64
128 64 64
128 64 64
128 128 64
128 64 64
64 64 64
128 128 64
192 128 128
192 192 128
192 192 128
192 192 128
192 192 128
192 192 128
192 192 128
192 192 128
192 192 128
192 192 128
192 192 128
192 192 128
192 192 128
192 192 128
192 192 128
192 128 128
192 128 128
192 128 64
192 128 64
128 128 64
128 128 64
128 128 64
192 128 64
192 128 64
192 128 128
192 128 128
192 128 128
192 128 128
192 192 128
192 192 128
192 128 128
128 128 64
128 128 64
64 64 64
64 64 64
64 64 64
128 128 64
128 128 64
128 128 64
192 192 128
192 128 64
128 128 64
64 64 64
0 0 0
0 0 0
64 64 64
128 128 128
128 128 64
64 64 64
0 0 0
64 64 64
192 128 128
128 64 64
128 64 64
128 64 64
128 128 64
128 128 64
128 128 128
192 128 128
192 128 64
128 128 64
128 128 64
128 128 64
128 128 64
128 64 64
128 128 128
192 192 192
128 128 64
192 128 128
192 192 128
192 192 192
192 192 192
192 192 192
192 192 192
192 192 128
192 128 128
192 192 192
128 128 128
192 192 128
192 192 192
192 192 128
128 128 128
128 64 64
64 64 64
64 64 64
128 64 64
64 64 64
64 64 64
128 128 64
64 64 64
64 64 0
64 64 64
128 64 64
128 64 64
128 64 64
128 128 64
128 128 128
128 128 128
128 128 128
128 128 128
192 128 128
192 128 128
192 128 128
192 192 128
192 192 128
192 192 128
192 192 128
192 192 128
192 128 128
192 192 128
128 128 128
128 128 64
128 128 64
128 128 128
128 128 128
128 128 128
128 128 128
128 128 128
128 128 128
128 128 128
192 128 128
192 128 128
128 128 64
128 128 128
128 128 64
128 64 64
128 128 128
192 128 128
128 128 128
192 128 128
192 192 128
128 128 128
128 128 64
128 128 128
128 128 128
128 128 128
128 128 128
128 128 128
128 128 128
64 64 64
64 64 64
64 64 64
64 64 64
64 64 64
64 64 64
64 64 64
64 64 64
64 64 64
128 128 64
128 128 64
64 64 64
64 64 64
64 64 64
64 64 64
64 64 64
64 64 64
64 64 64
64 64 64
128 128 64
128 64 64
128 64 64
128 128 64
128 64 64
128 128 64
128 64 64
128 64 64
64 64 64
64 64 64
64 64 64
0 0 64
64 64 64
64 64 64
64 64 64
64 64 64
64 64 64
64 64 64
64 64 64
64 64 64
64 64 64
64 64 64
128 128 64
64 64 64
64 64 64
128 128 128
128 64 64
64 64 64
64 64 64
64 0 0
64 64 0
128 64 64
64 64 64
64 64 64
64 64 64
128 128 64
128 128 64
128 64 64
64 64 64
64 64 64
128 64 64
192 128 128
192 192 128
192 128 128
192 192 128
192 192 192
192 192 128
192 192 128
192 192 128
192 192 128
192 192 128
192 192 128
192 192 128
192 192 128
192 192 128
192 128 128
192 128 128
128 128 64
128 128 64
128 128 64
128 64 64
64 64 0
64 64 0
64 64 0
128 64 64
128 128 64
192 128 128
192 128 128
192 192 128
192 192 128
192 192 128
192 192 128
192 192 128
192 128 128
192 128 128
128 128 64
64 64 64
128 128 64
192 128 128
128 128 64
192 128 128
192 128 128
192 128 128
192 128 64
128 128 64
64 64 64
0 0 0
64 64 64
64 128 64
128 128 64
64 64 64
64 64 64
128 128 64
128 128 64
128 64 64
128 64 64
128 64 64
128 64 64
128 128 64
128 128 64
128 128 64
128 128 64
128 128 64
128 128 64
128 128 64
128 128 64
128 64 64
128 128 128
256 192 192
192 128 64
192 128 128
192 192 192
192 192 128
192 192 192
192 192 192
192 192 192
192 192 192
192 192 128
192 192 192
128 128 128
192 128 128
192 192 192
192 192 192
128 128 64
64 64 64
64 64 64
64 64 64
128 64 64
64 64 64
128 64 64
128 128 64
128 128 64
64 64 0
64 64 64
128 64 64
128 64 64
128 64 64
128 128 64
128 128 128
128 128 128
128 128 128
128 128 128
192 128 128
128 128 128
192 128 128
192 192 128
192 192 128
192 128 128
192 192 128
192 192 128
192 192 128
192 192 128
128 128 128
128 128 64
128 128 128
128 128 64
128 128 128
128 128 128
128 128 128
128 128 128
128 128 128
128 128 128
128 128 128
192 128 128
128 128 128
64 64 64
128 128 64
64 64 64
128 128 128
192 192 128
192 128 128
192 128 128
192 128 128
128 128 128
128 64 64
128 128 64
128 128 128
128 128 128
128 128 128
192 128 128
192 128 128
64 64 64
64 64 64
64 64 64
64 64 64
64 64 64
64 64 64
64 64 64
64 64 64
64 64 64
64 64 64
128 64 64
128 64 64
64 64 64
64 64 64
64 64 64
64 64 64
64 64 64
64 64 64
128 64 64
128 128 64
128 128 64
128 64 64
128 64 64
128 64 64
128 64 64
64 64 64
128 64 64
128 64 64
64 64 64
64 64 64
64 64 64
64 64 64
64 64 64
0 0 0
64 0 0
0 64 0
64 64 64
64 64 64
64 64 64
64 64 64
64 64 64
64 64 64
128 64 64
128 128 64
64 64 64
64 64 0
64 64 0
64 0 0
64 64 64
64 64 64
64 64 64
64 64 64
64 64 64
64 64 64
64 64 64
128 128 64
64 64 0
64 64 64
128 64 64
128 128 64
192 192 128
192 192 128
192 192 128
192 192 128
192 192 128
192 192 128
192 192 128
192 192 128
192 192 128
192 192 128
192 192 128
192 192 128
192 192 128
192 128 128
192 128 128
128 128 64
128 128 64
128 64 64
64 64 64
64 64 64
128 64 64
64 64 64
64 64 64
128 64 64
128 64 64
128 128 64
192 128 128
192 128 128
192 192 128
192 192 128
192 128 128
192 128 128
192 128 128
192 128 128
192 192 128
192 128 128
192 128 128
128 128 64
128 128 64
128 128 64
192 128 128
192 128 64
128 128 64
128 128 64
128 128 64
128 128 128
128 128 128
64 128 64
128 128 128
128 128 128
192 128 128
192 128 128
128 128 64
128 64 64
128 64 64
64 64 0
64 64 64
128 64 64
128 64 64
128 128 64
128 128 64
128 64 64
128 128 64
128 128 64
128 128 64
128 64 64
64 64 64
192 192 192
192 192 128
128 128 64
192 192 192
192 192 192
192 192 192
192 192 192
192 192 192
192 192 192
192 192 128
192 192 192
192 192 128
128 128 128
192 192 128
192 192 128
64 64 64
64 64 64
64 64 64
128 64 64
64 64 64
64 64 64
64 64 64
128 64 64
64 64 64
64 64 0
64 64 64
64 64 64
128 64 64
128 64 64
128 128 128
192 192 128
128 128 128
128 128 128
128 128 128
128 128 128
128 128 128
192 192 128
192 192 128
192 192 128
192 192 128
192 192 128
192 192 128
192 192 128
192 192 128
128 128 128
128 128 128
128 128 128
128 128 64
128 128 64
128 128 128
128 128 128
128 128 128
128 128 128
128 128 128
192 128 128
192 128 128
128 128 128
128 64 64
64 64 64
128 64 64
128 128 128
192 192 128
192 128 128
192 128 128
192 192 128
128 128 128
128 128 64
128 128 64
128 128 64
128 128 128
128 128 128
128 128 128
192 128 128
128 128 64
64 64 64
64 64 64
64 64 64
64 64 64
64 64 64
64 64 64
64 64 64
64 64 64
64 64 64
64 64 64
128 128 64
64 64 64
64 64 64
64 64 64
64 64 64
64 64 64
64 64 64
64 64 64
128 64 64
128 64 64
64 64 64
128 64 64
128 64 64
128 64 64
64 64 64
64 64 64
128 64 64
64 64 64
0 64 64
64 64 64
64 64 64
0 0 64
64 64 64
64 64 64
64 64 64
64 64 64
64 64 64
64 64 64
64 64 64
64 0 64
0 0 0
64 0 0
64 0 0
64 64 64
128 128 64
0 0 0
64 64 0
64 64 64
64 64 64
64 64 0
64 64 64
128 64 64
64 64 64
64 64 64
64 64 64
128 128 64
192 128 128
128 128 64
192 128 128
192 192 128
192 192 128
192 192 128
192 192 128
192 192 128
192 192 128
192 192 128
192 192 128
192 192 128
192 192 128
192 128 128
192 128 128
192 128 128
192 128 128
128 128 64
128 128 64
128 128 64
64 64 64
64 64 64
128 64 64
64 64 64
64 64 64
128 64 64
128 64 64
128 64 64
128 64 64
128 64 64
128 128 64
192 128 128
192 128 128
192 128 128
192 128 128
192 128 128
192 128 128
192 128 128
192 192 128
192 192 128
128 128 64
128 128 64
128 128 64
128 128 64
128 128 64
128 128 64
128 128 64
192 128 128
192 192 192
128 128 128
128 128 128
128 128 128
192 192 128
128 128 128
128 128 128
128 128 64
128 128 64
128 64 64
64 64 0
64 64 64
64 64 64
128 64 64
128 64 64
128 64 64
128 64 64
128 128 64
128 128 64
128 64 64
128 64 64
128 64 64
192 192 192
192 192 192
128 128 64
192 192 192
192 192 192
192 192 192
192 192 192
192 192 128
192 192 128
192 192 192
192 192 192
192 192 128
192 128 128
192 192 192
128 128 128
64 64 64
64 64 64
128 64 64
64 64 64
64 64 64
64 64 64
64 0 0
0 0 0
64 64 64
64 64 0
64 64 64
64 64 64
128 64 64
128 64 64
128 128 128
192 128 128
128 128 128
128 128 128
128 128 128
128 128 128
128 128 128
192 128 128
192 192 128
192 192 128
192 128 128
192 192 128
192 192 128
192 192 128
192 192 128
128 128 128
128 128 128
128 128 128
128 128 128
128 128 128
128 128 128
128 128 128
128 128 128
128 128 128
128 128 128
192 192 128
128 128 128
128 128 128
128 64 64
64 64 64
128 128 64
128 128 128
128 128 128
128 128 128
192 128 128
192 128 128
128 128 128
128 128 64
128 128 64
128 128 64
128 128 128
128 128 128
128 128 128
192 128 128
128 128 128
64 64 64
0 64 64
64 64 64
64 64 64
64 64 64
64 64 64
64 64 64
64 64 64
64 64 64
64 64 64
128 64 64
128 128 64
64 64 64
64 64 64
64 64 64
64 64 64
64 64 64
64 64 64
64 64 64
128 64 64
128 64 64
128 64 64
128 64 64
128 64 64
64 64 64
64 64 64
128 64 64
64 64 64
0 64 64
64 64 64
64 64 64
64 64 64
64 64 64
64 64 64
64 64 64
64 64 64
64 64 64
0 0 64
64 64 64
64 0 0
0 0 0
0 0 0
0 0 0
128 64 64
128 128 128
64 64 64
0 0 0
0 0 0
64 64 64
64 64 64
64 64 64
64 64 64
128 64 64
64 64 64
128 64 64
128 128 64
128 128 128
128 128 64
192 128 128
192 192 128
192 192 128
192 192 128
192 192 128
192 192 128
192 192 128
192 192 128
192 192 128
192 192 128
192 192 128
192 128 128
192 128 128
192 128 128
128 128 64
128 128 64
128 128 64
128 64 64
128 64 64
128 128 64
64 64 64
64 64 64
64 64 64
128 64 64
128 128 128
128 128 128
128 128 128
128 128 128
128 128 64
128 128 64
128 128 64
128 128 128
192 128 128
192 128 128
192 128 128
192 128 128
192 128 128
192 128 128
128 128 128
128 128 128
128 128 128
128 128 128
128 128 64
128 128 128
192 192 192
192 192 192
128 128 128
128 128 64
128 128 128
192 192 128
192 192 192
192 128 128
192 128 128
192 192 192
192 192 192
128 128 128
128 64 64
64 64 64
128 64 64
128 64 64
128 64 64
128 64 64
128 64 64
128 64 64
128 64 64
128 64 64
64 64 64
128 128 128
192 192 192
192 192 192
192 128 64
192 192 128
256 192 192
192 192 128
192 192 192
192 192 192
192 192 192
192 192 192
192 192 192
192 192 128
192 192 128
192 192 192
128 128 128
64 64 64
64 64 64
64 64 64
64 64 64
128 64 64
64 64 64
64 64 64
0 0 0
64 64 64
64 64 64
64 64 0
64 64 0
64 64 64
128 64 64
128 128 128
192 128 128
128 128 128
128 128 128
128 128 64
128 128 128
128 128 128
128 128 128
192 192 128
192 128 128
192 128 128
192 128 128
192 192 128
192 192 128
192 192 128
128 128 128
128 128 128
128 128 128
128 128 128
128 128 128
128 128 128
128 128 128
128 128 128
128 128 128
128 128 128
192 128 128
128 128 128
128 128 128
128 128 64
64 64 64
128 128 128
128 128 128
128 128 128
128 128 128
192 128 128
192 128 128
128 128 128
128 128 64
128 128 64
128 128 128
128 128 128
128 128 128
128 128 128
192 128 128
128 128 128
64 64 64
64 64 64
64 64 64
64 64 64
64 64 64
64 64 64
64 64 64
64 64 64
64 64 64
64 64 64
64 64 64
64 64 64
128 128 64
64 64 64
0 64 64
64 64 64
128 128 64
128 64 64
128 64 64
128 64 64
128 64 64
128 64 64
128 64 64
64 64 64
64 64 64
128 64 64
64 64 64
64 64 64
0 64 64
64 64 64
64 64 64
64 64 64
64 64 64
64 64 64
64 64 64
64 64 64
64 64 64
64 64 64
64 64 64
64 0 0
64 0 0
0 0 0
0 0 0
0 0 0
64 64 64
128 128 64
128 128 64
64 64 64
128 64 64
128 128 64
128 128 64
128 64 64
64 64 64
64 64 64
128 128 64
192 128 128
128 128 128
128 128 64
192 128 128
192 192 128
192 192 128
192 192 128
192 192 128
192 192 128
192 192 128
192 192 128
192 192 128
192 192 128
192 128 128
192 128 128
128 128 64
128 128 64
128 128 64
128 128 64
128 64 64
128 64 64
128 64 64
128 64 64
64 64 0
64 64 64
64 64 64
64 64 64
64 64 64
64 64 64
64 64 64
64 64 64
128 64 64
128 128 64
128 64 64
128 64 64
128 128 64
128 128 128
192 128 128
192 128 128
192 128 128
192 128 128
192 128 128
128 128 128
128 128 128
128 128 128
128 128 128
128 128 128
128 128 64
128 128 128
128 128 128
128 128 128
128 128 128
128 128 128
192 192 192
128 128 128
128 128 64
192 192 128
192 192 192
64 64 64
128 128 128
64 64 64
64 64 0
128 64 64
128 64 64
128 64 64
128 64 64
128 64 64
128 64 64
64 64 64
128 64 64
192 128 128
192 192 192
192 192 192
128 128 64
192 128 128
192 192 192
192 192 128
192 192 192
192 192 192
192 192 192
192 192 192
192 192 192
192 192 192
192 192 192
128 128 128
128 128 128
64 64 64
64 64 64
64 64 64
128 64 64
128 128 64
128 128 64
128 64 64
64 64 64
64 64 64
64 64 64
64 64 64
64 64 64
64 64 64
128 64 64
128 128 128
128 128 128
128 128 128
128 128 128
128 128 128
128 128 128
128 128 128
128 128 128
192 192 128
192 192 128
192 192 128
192 192 128
192 192 128
192 128 128
192 192 128
128 128 128
128 128 128
128 128 128
128 128 128
128 128 128
128 128 128
128 128 128
128 128 128
128 128 128
128 128 128
128 128 128
128 128 128
128 128 128
128 128 64
128 128 64
128 128 128
128 128 128
128 128 128
192 128 128
192 128 128
128 128 128
128 128 128
128 128 128
128 128 64
128 128 128
128 128 128
128 128 128
128 128 128
128 128 128
192 128 128
64 64 64
64 64 64
64 64 64
64 64 64
64 64 64
64 64 64
0 64 64
0 0 0
0 0 0
64 64 64
0 64 64
64 64 64
128 64 64
128 64 64
64 64 64
64 64 64
128 64 64
128 64 64
128 64 64
64 64 64
64 64 64
128 64 64
128 64 64
64 64 64
64 64 64
64 64 64
64 64 64
64 64 64
0 64 64
64 64 64
64 64 64
0 64 64
64 64 64
64 64 64
64 64 64
64 64 64
64 64 64
192 128 128
64 64 64
64 64 64
64 64 64
0 0 0
0 0 0
0 0 0
0 0 64
64 64 64
128 128 64
128 128 128
128 128 64
128 128 64
128 64 64
64 64 64
64 64 64
128 128 64
192 128 128
128 128 128
128 128 128
128 128 64
192 128 128
192 192 128
192 128 128
192 128 128
192 128 128
192 128 128
192 128 128
192 128 128
192 128 128
192 128 64
128 128 64
128 128 64
128 128 64
128 128 64
128 64 64
128 64 64
64 64 64
64 64 64
64 64 64
64 64 0
64 64 64
64 64 64
64 64 64
64 64 64
64 64 64
128 64 64
128 64 64
64 64 64
64 64 0
64 64 64
128 64 64
128 64 64
128 64 64
128 128 64
192 128 128
192 128 128
192 128 128
192 128 128
192 128 128
64 64 64
64 64 64
64 64 64
64 64 64
64 64 64
64 64 64
128 64 64
128 128 128
128 128 64
128 128 128
128 128 128
128 128 64
128 64 64
128 64 64
128 128 128
128 128 64
128 128 128
128 128 128
128 128 64
64 64 64
128 64 64
128 64 64
128 64 64
128 64 64
128 64 64
128 64 64
128 64 64
128 128 128
192 128 128
192 192 192
192 192 192
128 128 64
192 128 128
192 192 192
192 192 128
192 192 128
192 192 128
192 192 128
192 192 128
192 192 192
192 192 192
192 192 192
128 128 128
128 128 64
128 64 64
128 128 64
128 128 64
128 128 128
128 128 64
128 128 128
128 128 128
128 128 128
128 128 128
128 128 128
128 128 128
128 128 128
128 128 128
128 64 64
128 128 128
128 128 128
128 128 128
128 128 128
128 128 128
128 128 128
192 128 128
128 128 128
192 128 128
192 192 128
192 192 128
192 192 128
192 192 128
192 192 128
192 192 128
128 128 128
128 128 128
128 128 128
128 128 128
128 128 128
128 128 128
128 128 128
128 128 128
128 128 128
128 128 128
128 128 128
192 128 128
128 128 64
128 64 64
128 128 128
128 128 64
128 128 128
128 128 128
128 128 128
128 128 128
128 128 128
192 128 128
128 128 128
128 128 64
128 128 128
128 128 128
128 128 128
128 128 128
128 128 128
128 128 128
0 64 64
0 0 64
0 0 64
64 64 64
64 64 64
0 64 64
0 0 0
0 0 0
0 0 0
0 0 0
64 64 64
64 64 64
64 64 64
128 64 64
64 64 64
64 64 64
128 64 64
64 64 64
128 64 64
128 64 64
64 64 64
128 64 64
64 64 64
64 64 64
64 64 64
64 64 64
64 64 64
64 64 64
64 64 64
64 64 64
64 64 64
64 64 64
64 64 64
64 64 64
0 64 64
64 64 64
128 128 128
192 128 128
64 64 64
64 64 64
64 64 64
64 0 0
64 0 0
0 0 0
0 0 0
64 64 64
64 64 64
128 128 64
128 128 128
128 128 128
128 128 128
64 64 64
64 64 64
192 128 64
192 128 128
128 128 128
192 128 128
128 128 64
192 128 128
192 192 128
192 192 128
192 192 128
192 128 128
192 128 128
192 128 128
192 128 128
192 128 64
128 128 64
128 128 64
128 128 64
128 128 64
128 128 64
128 64 64
128 64 64
64 64 64
64 64 0
64 64 0
64 64 0
64 64 64
64 64 64
64 64 64
128 64 64
128 128 64
128 128 128
128 128 64
128 128 64
128 128 64
64 64 64
64 64 64
64 64 64
64 64 64
128 64 64
128 128 64
128 128 64
128 128 64
192 128 64
128 128 128
128 64 64
64 64 64
64 64 64
64 64 64
128 128 128
128 128 128
128 128 128
128 128 64
64 64 64
64 64 64
64 64 64
64 64 64
64 64 64
128 128 64
64 64 64
128 128 128
192 192 128
128 128 128
128 128 128
128 128 64
128 128 64
128 128 64
128 64 64
128 64 64
128 64 64
128 128 64
128 128 64
128 128 128
192 192 128
192 192 128
192 192 192
128 128 64
192 128 128
192 192 192
192 192 128
192 192 128
192 192 128
192 128 128
192 192 128
192 192 128
192 192 192
192 192 128
128 64 64
64 64 64
128 128 64
128 128 128
128 128 128
128 128 128
128 128 128
128 128 128
128 128 128
128 128 128
128 128 128
128 128 128
128 128 128
128 128 128
128 128 128
128 128 128
128 128 128
128 128 128
128 128 128
128 128 128
128 128 128
128 128 128
128 128 128
128 128 128
128 128 128
192 128 128
128 128 128
192 128 128
192 128 128
128 128 128
128 128 64
128 128 128
128 128 128
128 128 128
128 128 128
128 128 64
128 128 128
128 128 128
128 128 128
128 128 128
192 128 128
192 128 128
192 192 128
128 128 128
128 128 64
128 128 128
128 128 64
128 128 128
128 128 128
128 128 128
128 128 128
128 128 128
192 128 128
128 128 128
128 128 64
128 128 64
128 128 128
128 128 128
128 128 128
128 128 128
128 128 128
0 64 64
0 0 0
0 64 64
64 64 64
64 64 64
64 64 64
64 64 64
0 64 64
0 0 0
0 0 64
64 64 64
64 64 64
64 64 64
64 64 64
128 64 64
128 64 64
64 64 64
64 64 64
128 64 64
128 64 64
64 64 64
128 64 64
64 64 64
64 64 64
64 64 64
64 64 64
64 64 64
64 64 64
64 64 64
64 64 64
64 64 64
64 64 64
64 64 64
64 64 64
0 0 0
64 64 64
128 128 128
128 128 128
64 64 64
64 0 0
0 0 0
0 0 0
64 0 0
64 0 0
64 0 0
64 64 64
64 64 64
64 64 64
64 64 64
192 192 128
128 128 128
64 64 64
64 64 64
128 128 64
128 128 64
128 128 64
192 128 128
128 128 64
192 128 128
192 192 128
192 192 128
192 192 128
192 192 128
192 128 128
192 128 128
192 128 128
192 128 64
128 128 64
128 128 64
128 128 64
128 128 64
128 64 64
128 64 64
64 64 64
64 64 0
64 64 0
64 64 64
64 64 64
64 64 64
64 64 64
64 64 64
64 64 64
128 64 64
128 128 64
64 64 64
128 64 64
128 128 64
128 128 64
128 128 128
128 128 128
128 64 64
64 64 64
64 64 64
128 64 64
128 64 64
128 64 64
128 128 64
128 128 128
128 128 128
128 128 128
128 128 64
128 128 64
128 128 64
128 64 64
64 64 64
64 64 64
64 64 64
64 64 64
64 64 64
64 64 64
64 64 64
128 128 128
192 192 192
192 128 128
128 128 128
128 128 128
128 128 128
128 128 128
128 128 64
128 128 64
128 128 64
128 128 64
128 128 64
128 128 64
192 192 128
192 192 192
192 128 128
192 192 128
128 128 64
192 192 128
256 192 192
192 192 192
192 192 192
192 192 128
192 192 128
192 128 128
192 192 128
192 192 192
192 128 128
128 128 64
128 128 64
128 128 64
128 128 128
128 128 128
128 128 128
128 128 128
128 128 128
128 128 128
128 128 128
128 128 128
128 128 128
128 128 128
128 128 128
128 128 128
128 128 128
128 128 128
128 128 128
128 128 128
128 128 64
128 128 128
128 128 128
128 128 128
128 128 128
128 128 64
128 128 64
128 128 64
128 128 64
128 128 64
128 128 64
128 128 64
128 128 128
128 128 128
128 128 128
128 128 64
128 128 128
128 128 128
128 128 128
128 128 128
128 128 128
192 128 128
192 128 128
192 128 128
128 128 128
128 128 64
128 128 128
128 128 128
128 128 64
128 128 128
128 128 128
128 128 128
128 128 128
192 128 128
128 128 128
128 128 128
128 128 64
128 128 128
128 128 64
128 128 128
128 128 128
128 64 64
64 64 64
0 64 64
0 64 64
0 64 64
0 64 64
0 64 64
64 64 64
0 64 64
0 0 0
0 64 0
64 64 64
64 64 64
64 64 64
64 64 64
64 64 64
128 64 64
128 128 128
128 64 64
64 64 64
128 64 64
128 64 64
128 128 64
128 128 64
128 64 64
128 64 64
128 64 64
128 64 64
64 64 64
64 64 64
64 64 64
64 64 64
64 64 64
64 64 64
64 64 64
0 0 0
64 64 64
128 128 128
128 128 64
64 0 0
64 0 0
64 0 0
0 0 0
64 64 64
64 64 64
64 64 64
64 64 64
64 64 64
64 64 64
64 64 64
64 64 64
128 128 128
128 128 128
64 64 64
64 64 64
64 64 64
64 64 64
128 128 64
128 128 64
192 128 64
192 192 128
192 192 128
192 192 128
192 192 128
192 192 128
192 192 128
192 128 128
128 128 64
128 128 64
128 128 64
128 128 64
128 64 64
128 64 64
64 64 64
64 64 64
64 64 0
64 64 0
64 64 64
64 64 64
64 64 64
64 64 64
128 64 64
128 128 64
128 128 128
128 128 64
128 128 64
128 128 64
128 128 64
128 128 128
128 128 128
128 128 128
128 128 128
128 128 128
128 128 128
128 128 128
128 128 128
128 128 128
128 128 128
128 128 128
128 128 128
128 128 128
128 128 64
128 128 64
128 128 128
128 128 128
128 128 64
64 64 64
64 64 64
128 128 64
128 128 64
128 64 64
128 128 128
192 192 192
192 192 192
192 192 192
192 192 128
192 192 128
192 192 128
192 128 128
128 128 128
128 128 128
128 128 128
128 128 128
128 128 128
128 128 128
192 128 128
192 192 192
192 192 128
128 128 128
128 128 64
192 192 128
256 256 192
192 192 192
192 192 192
192 192 192
192 192 192
192 192 128
192 128 128
192 128 128
192 128 128
128 128 128
128 128 128
128 128 128
128 128 64
128 128 64
128 128 64
128 128 64
128 128 64
128 128 64
128 128 64
128 128 64
128 64 64
128 64 64
128 64 64
128 128 64
128 128 64
128 128 128
128 128 128
128 128 128
128 128 64
128 128 128
128 128 128
128 128 64
128 128 64
128 128 64
128 128 64
128 128 64
128 128 64
128 128 64
128 128 64
128 128 64
128 128 128
128 128 128
128 128 128
128 128 128
128 128 128
128 128 128
128 128 128
128 128 128
128 128 128
192 128 128
128 128 128
192 128 128
128 128 128
128 128 128
128 128 64
128 128 128
128 128 128
128 128 128
128 128 128
128 128 128
128 128 128
128 128 128
128 128 128
128 128 64
128 128 64
128 128 128
128 128 64
64 64 64
64 64 64
64 64 64
0 64 64
0 64 64
0 0 64
0 0 64
0 64 64
0 64 64
64 64 64
0 64 64
0 0 64
0 0 64
64 64 64
0 64 0
64 64 64
64 64 64
64 64 64
128 128 64
128 128 64
64 64 64
128 64 64
64 64 64
128 128 64
128 128 64
128 64 64
128 64 64
64 64 64
64 64 64
128 64 64
64 64 64
64 64 64
64 64 64
64 64 64
64 64 64
64 64 64
64 64 64
0 64 64
64 64 64
64 64 64
64 64 64
0 0 0
64 64 64
128 64 64
64 0 0
64 64 64
64 64 64
64 64 64
64 0 0
64 64 64
64 64 64
64 64 64
64 64 64
128 128 64
128 128 64
128 128 128
128 128 64
64 64 64
64 64 64
64 64 64
128 64 64
64 64 64
64 64 64
64 64 64
128 128 64
128 128 128
192 192 128
192 192 128
192 192 128
192 128 128
128 128 64
128 128 64
128 128 64
128 128 64
128 64 64
128 64 64
64 64 64
0 0 0
0 0 64
0 64 64
64 64 64
64 64 64
64 64 64
64 64 64
128 128 64
128 128 128
128 128 128
128 128 128
192 128 128
192 128 128
128 128 128
128 128 128
128 128 128
128 128 128
128 128 128
192 128 128
192 128 128
192 128 128
128 128 128
128 128 128
128 128 128
128 128 128
128 128 128
128 128 128
128 128 128
192 192 128
192 128 128
192 128 128
128 128 128
128 128 128
128 128 128
128 128 128
192 192 128
192 192 192
192 192 192
192 192 192
192 192 192
192 192 192
192 192 192
192 192 128
192 192 128
192 192 128
192 192 128
192 192 128
192 192 128
192 192 128
192 192 128
128 128 128
192 192 128
192 192 128
128 128 128
128 128 64
192 128 128
256 192 192
192 192 192
192 192 192
192 192 192
192 192 192
192 192 192
128 128 64
128 128 64
128 128 128
192 128 128
128 128 64
128 128 64
128 128 64
64 64 64
64 64 64
128 64 64
128 128 64
128 128 64
128 64 64
64 64 64
128 64 64
64 64 64
64 64 64
64 64 64
128 64 64
128 128 128
128 128 128
128 128 64
128 128 128
128 128 128
128 128 128
128 128 64
128 128 128
128 128 128
128 128 64
128 128 64
128 128 64
128 128 64
128 128 64
128 128 64
128 128 128
128 128 64
128 128 128
128 128 128
128 128 128
128 128 128
128 128 128
128 128 128
128 128 128
128 128 128
128 128 128
192 128 128
128 128 128
128 128 128
128 128 64
128 128 128
128 128 128
128 128 128
128 128 128
128 128 128
128 128 128
128 128 128
128 128 128
128 128 64
128 128 64
128 128 128
128 128 128
64 64 64
64 64 64
64 64 64
0 64 0
0 64 64
0 0 0
0 64 64
64 64 64
64 64 64
0 64 64
0 0 0
0 0 0
0 64 64
0 64 64
0 0 0
64 64 64
64 64 64
64 64 64
64 64 64
64 64 64
128 64 64
128 128 64
128 128 64
192 128 128
192 128 128
128 128 128
128 64 64
64 64 64
64 64 64
128 128 64
64 64 64
64 64 64
64 64 64
128 64 64
64 64 64
64 64 64
64 64 64
64 64 64
64 64 64
64 64 64
64 64 64
64 64 64
64 64 64
64 64 64
64 64 64
64 64 64
64 64 64
0 0 64
64 64 64
64 64 64
64 64 64
128 64 64
128 64 64
128 128 64
128 128 128
128 128 64
192 128 128
128 128 64
128 64 64
128 64 64
128 128 128
128 64 64
64 64 64
64 64 64
64 64 64
64 64 64
64 64 64
128 128 128
192 128 128
192 128 128
192 128 128
192 128 128
128 128 64
128 128 64
128 128 64
64 64 64
0 0 0
0 0 64
0 0 64
0 0 64
0 64 64
64 64 64
64 64 64
64 64 64
64 64 64
64 64 64
128 128 64
128 128 128
192 128 128
128 128 128
192 128 128
128 128 128
128 128 128
128 128 128
128 128 128
128 128 128
128 128 128
128 128 128
128 128 64
128 128 128
128 128 128
128 128 64
128 128 64
128 128 128
192 192 128
192 192 192
192 192 192
192 192 192
192 192 192
192 192 128
192 192 128
192 192 128
192 192 192
192 192 192
192 192 192
192 192 192
192 192 192
192 192 192
192 192 192
192 192 192
192 192 192
192 192 192
192 192 192
192 192 128
192 192 128
192 192 128
192 192 128
192 192 128
192 192 128
192 192 128
128 128 128
128 64 64
192 128 64
192 192 128
192 192 192
192 192 192
192 192 192
256 192 192
192 192 128
128 128 64
128 64 64
128 128 64
192 128 128
128 128 128
64 64 64
64 64 64
64 64 64
64 64 64
64 64 64
64 64 64
64 64 64
64 64 64
64 64 64
64 64 64
64 64 64
64 64 64
64 64 0
64 64 64
128 128 128
128 128 128
128 128 128
128 128 128
128 128 128
128 128 128
128 128 128
128 128 128
128 128 128
128 128 64
128 128 64
128 128 64
128 128 64
128 128 64
128 128 64
128 128 128
128 128 128
128 128 128
128 128 128
128 128 128
128 128 128
128 128 128
128 128 128
128 128 64
128 128 128
128 128 128
192 128 128
128 128 128
128 128 128
128 128 128
128 128 128
128 128 128
128 128 128
128 128 64
128 128 128
128 128 128
128 128 128
128 128 128
128 128 64
128 128 128
128 128 128
128 128 128
64 64 64
64 64 64
64 64 64
64 64 64
64 64 64
0 64 64
64 64 64
0 64 64
0 64 64
0 0 0
0 0 0
0 0 64
0 64 64
0 0 0
0 0 0
0 64 64
64 64 64
64 64 64
64 64 64
64 64 64
64 64 64
128 128 64
192 128 128
192 192 128
192 128 128
128 128 128
128 64 64
64 64 64
128 64 64
128 64 64
64 64 64
64 64 64
64 64 64
128 64 64
64 64 64
64 64 64
0 0 0
64 64 64
64 64 64
64 64 64
64 64 64
64 64 64
64 64 64
64 64 64
64 64 64
64 64 64
64 64 64
0 0 0
64 64 64
64 64 64
64 64 64
192 128 64
128 128 64
64 64 64
192 192 128
128 128 128
128 64 64
64 64 64
64 64 64
128 128 64
192 128 128
128 128 64
128 128 128
128 128 64
128 128 128
128 128 128
64 64 64
128 64 64
128 128 64
128 128 64
128 128 64
128 128 64
128 128 64
128 128 64
128 64 64
64 64 0
0 64 64
0 64 64
0 64 64
0 64 64
0 64 64
0 0 0
0 64 64
64 64 64
64 64 64
64 64 64
64 64 64
64 64 64
128 128 64
128 128 64
128 128 64
128 128 64
64 64 64
128 64 64
128 64 64
128 64 64
128 64 64
128 64 64
128 64 64
128 64 64
128 64 64
128 64 64
128 128 128
192 192 192
192 192 192
256 192 192
192 192 192
192 192 192
256 192 192
256 192 192
256 256 192
192 192 192
192 192 192
256 192 192
192 192 192
192 192 192
256 256 192
256 192 192
192 192 192
192 192 192
192 192 192
192 192 192
192 192 192
192 192 128
192 192 128
192 192 128
192 128 128
128 128 128
192 192 128
192 128 128
128 128 128
128 64 64
128 128 64
128 128 128
128 128 128
128 128 128
128 128 64
128 128 128
128 128 64
128 64 64
64 64 64
128 64 64
128 64 64
192 128 128
128 128 64
0 0 0
64 64 0
64 64 0
0 64 0
64 0 0
64 64 0
64 64 64
64 64 64
64 64 64
128 64 64
64 64 64
64 64 0
64 64 64
128 128 128
128 128 128
128 128 128
128 128 128
128 128 128
128 128 128
128 128 128
128 128 128
128 128 128
128 128 64
128 128 64
128 128 64
128 128 64
128 128 64
128 128 64
128 128 128
128 128 128
128 64 64
128 128 128
128 128 128
128 128 128
128 128 128
128 128 128
128 128 128
128 128 128
128 128 128
128 128 128
128 128 128
128 128 128
128 128 128
128 128 128
128 128 128
128 128 128
128 128 128
128 128 128
128 128 128
128 128 128
128 128 128
128 128 64
128 128 128
128 128 128
128 128 128
128 128 64
64 64 64
64 64 64
0 64 64
0 64 64
0 64 64
64 64 64
0 0 0
0 0 0
0 0 0
0 0 0
0 0 0
64 64 64
0 64 64
0 64 64
64 64 64
64 64 64
64 64 64
128 128 64
64 64 64
64 64 64
192 128 128
192 192 128
192 128 128
128 128 64
64 64 64
64 64 64
64 64 64
128 64 64
64 64 64
64 64 64
64 64 64
64 64 64
64 64 64
64 64 64
64 64 64
64 64 64
64 64 64
0 64 64
64 64 64
64 64 64
64 64 64
64 64 64
0 64 64
64 64 64
64 64 64
64 64 64
0 0 64
64 0 0
64 64 64
128 128 64
128 128 64
128 64 64
64 64 64
128 128 64
128 128 128
64 64 64
64 64 0
64 64 64
64 64 64
64 64 64
128 128 64
128 128 128
128 128 128
128 128 128
128 128 128
128 128 128
192 192 192
192 192 192
192 128 128
192 128 128
192 192 128
192 128 128
128 128 64
64 64 0
64 64 0
64 64 0
64 64 0
0 0 64
0 0 0
0 0 0
0 0 64
0 64 64
0 64 64
0 64 64
64 64 64
64 64 64
64 64 64
64 64 64
128 64 64
128 64 64
128 64 64
128 64 64
128 64 64
64 64 64
64 64 64
64 64 64
64 64 64
64 64 64
64 64 64
64 64 64
128 128 128
192 192 192
192 192 192
192 192 192
192 192 192
192 192 192
192 192 192
192 192 192
192 192 192
192 192 192
192 192 128
192 192 192
256 192 192
192 192 192
256 192 192
256 192 192
192 192 192
192 192 192
256 192 192
192 192 192
192 192 128
192 192 192
192 192 192
192 192 128
192 192 128
192 128 128
128 128 128
128 128 128
128 128 128
128 128 128
128 128 64
128 128 64
128 128 128
128 128 64
128 128 64
64 64 64
64 64 64
64 64 64
64 64 0
64 64 0
128 64 64
128 128 64
192 128 128
192 128 128
128 64 64
64 64 0
0 0 0
0 0 64
64 64 0
128 64 64
128 64 64
64 64 0
64 64 64
128 64 64
64 64 64
64 64 0
64 64 64
128 128 128
128 128 128
128 128 128
128 128 128
128 128 128
128 128 128
128 128 64
128 128 128
128 128 128
128 128 64
128 128 64
128 128 64
128 128 64
128 128 64
128 128 64
128 128 128
128 64 64
128 128 64
128 128 128
128 128 128
128 128 128
128 128 128
128 128 128
128 128 128
128 128 128
128 128 128
128 128 128
128 128 128
128 128 128
128 128 128
128 128 128
128 128 128
128 128 128
128 128 128
128 128 128
128 128 128
128 128 128
128 128 128
128 128 64
128 128 128
128 128 128
128 128 128
128 128 64
64 64 0
64 64 0
0 64 64
0 64 64
64 64 64
0 64 64
0 64 64
0 0 0
0 0 0
0 0 64
0 64 0
64 64 64
0 64 64
0 64 64
64 64 64
0 64 64
64 64 64
64 64 64
64 64 64
128 64 64
192 128 128
192 192 128
128 64 64
64 64 64
64 64 64
64 64 64
64 64 64
64 64 64
64 64 64
64 64 64
64 64 64
64 64 64
0 64 64
0 64 64
0 0 0
0 0 0
0 0 64
64 64 64
64 64 64
64 64 64
64 64 64
0 64 64
0 64 64
64 64 64
64 64 64
64 64 64
0 64 64
0 0 0
128 64 64
128 128 64
128 64 64
128 64 64
64 64 64
128 128 64
128 128 128
128 128 64
128 128 128
128 128 128
128 128 128
64 64 64
128 128 128
128 128 128
128 128 128
128 128 128
128 128 128
128 128 128
128 128 128
192 192 192
192 192 192
192 192 192
192 192 192
256 256 192
192 192 192
192 128 128
128 64 64
64 64 0
128 64 64
64 64 0
64 64 0
64 64 0
64 0 0
64 64 0
64 64 0
0 64 64
0 0 0
0 0 64
64 64 64
64 64 64
64 64 64
64 64 64
64 64 64
64 64 64
64 64 64
64 64 64
64 64 64
64 64 64
64 64 64
64 64 64
64 64 64
128 64 64
192 192 192
192 192 192
192 192 192
192 192 192
192 192 192
192 192 192
192 192 192
192 192 192
256 192 192
192 192 192
192 128 128
192 192 192
192 192 192
192 192 192
192 192 192
192 192 192
192 192 128
192 192 192
192 192 192
192 192 192
192 192 192
192 192 192
192 192 128
192 192 128
192 192 128
192 192 128
192 128 128
128 128 128
128 128 128
128 128 128
128 64 64
128 128 128
128 128 128
128 128 128
128 128 128
128 64 64
64 64 64
128 64 64
64 64 64
128 64 64
128 128 64
128 64 64
192 128 128
192 128 128
128 128 64
64 64 64
0 0 0
0 0 64
64 0 0
64 64 0
64 64 64
64 64 0
64 64 64
128 64 64
64 64 64
64 0 0
128 64 64
128 128 128
128 128 128
128 128 128
128 128 128
128 128 128
128 128 64
128 128 64
128 128 128
128 128 128
128 128 64
128 128 64
128 128 64
128 128 64
128 128 64
128 128 64
128 128 64
128 128 64
128 128 128
128 128 128
128 128 128
128 128 128
128 128 128
128 128 128
192 128 128
128 128 128
128 128 128
128 128 128
128 128 128
128 128 128
128 128 128
128 128 128
128 128 128
128 128 128
128 128 128
128 128 128
128 128 128
128 128 128
128 128 128
128 128 64
128 128 128
128 128 128
128 128 128
128 128 128
64 64 0
64 64 0
0 64 0
0 64 64
0 64 64
0 0 64
0 0 0
0 0 0
0 0 64
0 0 0
0 64 0
0 0 0
0 64 64
64 64 64
0 64 64
0 64 64
64 64 64
64 64 64
64 64 64
64 64 64
128 64 64
128 128 64
128 64 64
64 64 64
64 64 64
64 64 64
64 64 64
64 64 64
64 64 64
64 64 64
64 64 64
0 64 64
0 0 0
0 0 0
0 0 0
0 0 64
64 64 64
64 64 64
0 64 64
64 64 64
64 64 64
0 64 64
64 64 64
64 64 64
64 64 64
64 64 64
64 64 64
64 64 64
64 64 64
128 128 64
128 64 64
64 64 64
64 64 64
64 64 64
128 128 128
192 128 128
192 192 128
192 192 128
192 128 128
128 128 128
128 64 64
64 64 64
128 128 128
128 128 64
128 64 64
64 64 64
64 64 64
64 64 64
192 128 128
192 192 192
192 192 192
192 192 192
256 192 192
192 192 192
128 128 128
128 64 64
128 64 64
128 64 0
128 64 0
128 64 64
128 64 0
128 64 0
128 64 64
128 64 64
64 64 64
64 64 64
64 64 64
64 64 64
0 0 64
0 0 0
0 0 0
0 0 0
0 0 0
0 0 64
64 64 0
0 64 0
0 0 0
0 64 64
64 64 64
192 192 128
192 192 192
192 192 192
192 192 192
192 192 192
192 192 192
192 192 192
192 192 192
192 192 192
256 192 192
256 192 192
192 192 128
192 192 192
192 192 192
192 192 192
192 192 192
256 192 192
192 192 192
192 192 128
192 192 128
192 192 128
192 192 192
256 256 192
192 192 192
192 192 128
192 192 128
192 192 128
192 192 128
128 128 128
128 128 128
128 128 128
128 64 64
192 128 128
192 192 128
192 128 128
128 128 128
64 64 64
64 64 64
128 128 64
128 128 64
128 64 64
192 128 128
128 64 64
128 64 64
192 128 128
192 128 64
64 64 64
0 0 0
0 0 0
64 0 0
64 0 0
64 64 0
64 64 64
64 64 0
64 64 64
64 64 64
64 64 64
128 64 64
128 128 128
128 128 128
128 128 64
128 128 128
128 128 128
128 128 64
128 128 128
128 128 128
128 128 64
128 128 64
128 128 64
128 128 64
128 128 64
128 128 64
128 128 64
128 128 64
128 128 64
128 128 128
128 128 128
128 128 128
128 128 128
128 128 128
128 128 128
192 128 128
128 128 128
128 128 128
128 128 128
192 128 128
128 128 128
128 128 128
128 128 128
128 128 128
128 128 128
128 128 128
128 128 128
128 128 128
192 128 128
128 128 128
128 128 64
128 128 64
128 128 128
128 128 128
128 128 128
64 64 0
0 0 0
0 0 0
0 64 64
64 64 64
0 64 64
0 0 0
0 0 0
0 0 0
0 64 64
0 64 64
0 0 64
0 0 64
64 64 64
64 64 64
0 64 64
64 64 64
128 64 64
64 64 64
128 64 64
64 64 64
64 64 64
64 64 64
64 64 64
64 64 64
64 64 64
64 64 64
64 64 64
64 64 64
64 64 64
64 64 64
0 64 64
0 64 64
0 64 64
0 64 64
0 64 64
0 64 64
64 64 64
64 64 64
64 64 64
64 64 64
64 64 64
64 64 64
64 64 64
64 64 64
64 64 64
64 64 64
64 64 64
64 64 64
64 64 64
64 64 64
64 64 64
64 64 64
64 64 64
128 128 128
192 192 128
192 192 192
192 192 192
192 128 128
192 128 128
128 128 128
64 64 64
64 64 64
64 64 64
64 64 64
128 128 64
128 128 64
128 128 64
128 128 64
192 192 128
192 192 192
192 128 128
192 192 192
192 192 192
192 192 128
128 64 64
128 64 64
128 64 64
128 64 64
128 64 64
128 64 64
128 64 64
128 64 64
128 64 64
128 128 64
128 128 64
128 128 64
128 128 64
128 64 64
64 64 64
64 64 64
0 0 0
0 0 0
0 0 0
0 0 0
0 0 0
0 0 0
0 0 0
128 128 64
192 192 192
192 192 128
192 192 128
192 192 192
192 192 192
192 192 192
192 192 192
192 192 192
192 192 192
256 192 192
256 192 192
192 192 128
192 192 128
192 192 128
192 192 192
192 192 192
256 192 192
192 192 192
192 192 192
192 192 192
192 192 128
128 128 128
192 192 192
192 192 192
192 192 192
192 192 128
192 128 128
192 192 128
192 192 128
192 128 128
128 128 128
128 64 64
192 128 128
192 192 128
192 128 128
128 128 64
64 64 64
128 128 64
128 128 64
128 128 128
128 64 64
128 128 64
192 128 128
128 64 64
128 128 64
192 128 128
128 64 64
0 0 0
0 0 0
64 0 0
64 0 0
64 0 0
64 64 64
64 64 64
64 64 64
64 64 64
128 64 64
128 64 64
128 128 128
128 128 128
128 128 128
128 128 128
128 128 128
128 128 128
128 128 64
128 128 128
128 128 64
128 128 64
128 128 64
128 128 64
128 128 64
128 128 64
128 128 64
128 128 64
128 128 128
128 128 128
128 128 128
192 128 128
128 128 128
128 128 128
128 128 128
128 128 128
192 128 128
128 128 128
128 128 128
128 128 128
128 128 128
128 128 128
128 128 128
128 128 128
128 128 128
128 128 128
128 128 128
128 128 128
192 128 128
128 128 128
128 128 64
128 128 64
128 128 128
128 128 128
128 128 128
64 64 64
0 0 0
64 64 64
0 0 0
64 64 64
64 64 64
0 0 0
0 0 0
0 0 0
0 64 64
0 64 64
0 64 64
0 64 0
64 64 64
64 64 64
64 64 64
64 64 64
64 64 64
128 64 64
64 64 64
64 64 64
64 64 64
64 64 64
64 64 64
64 64 64
64 64 0
64 64 64
64 64 64
0 64 64
64 64 64
0 64 64
0 64 64
64 64 64
64 64 64
64 64 64
64 64 64
128 128 64
128 128 64
128 128 64
128 128 64
64 64 64
64 64 64
64 64 64
64 64 0
64 64 0
0 0 0
0 0 0
0 0 0
64 0 0
64 64 64
64 64 64
64 64 64
64 64 64
64 64 64
128 128 128
192 192 128
192 128 128
192 192 128
192 128 128
192 192 128
128 128 64
128 64 64
64 64 64
128 64 64
128 128 64
192 128 64
192 128 64
128 128 64
128 128 64
128 128 128
256 192 192
192 128 128
192 128 128
192 192 192
192 192 192
128 128 64
128 64 64
128 64 64
128 128 64
128 64 64
64 64 64
128 64 64
128 64 64
128 64 64
128 128 64
128 128 64
128 128 64
128 128 64
192 128 64
192 128 64
128 128 64
64 64 64
64 64 64
64 64 64
64 64 64
64 64 64
64 64 64
64 64 64
128 128 128
192 192 128
192 192 128
192 192 128
192 192 128
192 192 192
192 192 128
192 192 192
192 192 192
192 192 192
192 192 192
192 192 192
192 128 128
192 192 128
192 192 192
192 192 192
256 192 192
256 192 192
256 192 192
256 192 192
192 192 192
192 192 192
192 128 128
128 128 128
192 192 128
192 192 192
192 192 192
128 128 128
192 128 128
192 192 128
192 128 128
128 128 128
128 64 64
192 128 128
192 192 128
64 64 64
64 64 64
64 64 64
128 128 128
128 128 64
128 128 64
128 128 64
64 64 64
128 128 64
192 128 128
128 64 64
128 128 64
192 128 128
64 64 64
64 0 0
64 64 0
64 0 0
64 0 0
64 0 0
64 64 0
64 64 64
64 64 64
128 64 64
128 128 64
128 128 128
128 128 128
128 128 128
128 128 128
128 128 128
128 128 64
128 128 128
128 128 128
128 128 64
128 128 64
128 128 64
128 128 64
128 128 64
128 128 64
128 128 64
128 128 64
128 128 128
128 128 128
128 128 128
128 128 128
128 128 128
128 128 128
128 128 128
128 128 128
128 128 128
192 128 128
128 128 128
128 128 128
128 128 128
128 128 128
128 128 128
128 128 64
128 128 128
128 128 128
128 128 128
128 128 128
192 128 128
128 128 128
128 128 64
128 128 128
128 128 128
128 128 128
128 128 128
64 64 64
0 0 0
0 0 0
0 0 0
64 64 64
64 64 64
0 0 0
0 0 64
0 0 0
0 64 64
0 0 0
0 0 0
0 0 64
0 0 0
0 64 64
64 64 64
0 64 64
64 64 64
128 64 64
64 64 64
128 64 64
128 64 64
64 64 64
64 64 64
64 64 64
64 64 64
64 64 64
64 64 64
64 64 64
64 64 64
0 64 64
0 0 64
64 64 64
64 64 64
128 128 64
128 128 64
128 64 64
64 64 64
0 0 0
0 0 0
64 64 64
64 64 64
64 64 64
64 64 0
0 0 0
64 64 0
64 64 0
64 64 0
64 0 0
64 64 64
64 64 64
64 64 64
64 64 64
64 64 64
128 128 128
192 128 128
192 128 128
192 192 128
192 128 128
128 128 128
128 128 64
128 64 64
128 128 128
128 128 64
64 64 64
128 128 128
192 128 128
192 128 128
128 128 64
192 128 128
192 192 192
192 192 192
192 192 128
192 192 192
192 192 128
128 128 64
128 64 64
128 128 64
128 128 64
128 128 64
128 128 64
128 128 64
128 128 64
128 128 64
128 128 64
128 128 64
128 128 64
128 64 64
128 64 64
128 64 64
64 64 64
128 64 64
128 64 64
128 64 64
128 128 64
128 128 64
128 128 64
128 128 64
64 64 64
64 64 64
128 64 64
128 128 64
192 128 128
192 192 128
192 192 128
192 192 192
192 192 192
192 192 192
256 192 192
192 192 192
128 128 128
192 128 128
192 192 128
192 192 192
192 192 192
256 256 192
256 256 192
256 192 192
192 192 192
192 192 192
256 256 192
192 128 128
128 128 64
128 128 128
192 192 192
192 192 128
128 128 128
128 128 128
192 128 128
128 128 64
128 64 64
192 128 128
64 64 64
64 64 64
64 64 64
128 64 64
128 128 64
128 128 64
128 128 64
128 128 64
64 64 64
64 64 64
192 128 128
128 64 64
128 64 64
128 128 64
128 64 64
64 0 0
64 64 0
64 64 0
64 0 0
64 0 0
64 0 0
64 64 64
64 64 64
128 64 64
128 128 128
128 128 128
128 128 128
128 128 128
128 128 128
128 128 128
128 128 64
128 128 128
128 128 128
128 128 64
128 128 64
128 128 64
128 128 64
128 128 64
128 128 64
128 64 64
128 128 64
128 128 128
128 128 128
128 128 128
192 128 128
128 128 128
128 128 64
128 128 128
128 128 128
128 128 128
128 128 128
128 128 128
128 128 128
128 128 128
128 128 128
128 128 128
128 128 64
128 128 128
128 128 128
128 128 128
128 128 128
192 128 128
128 128 128
128 128 64
128 128 64
128 128 64
128 128 128
128 128 128
64 64 64
64 64 0
0 0 0
0 0 0
64 64 64
64 64 64
0 0 0
0 0 0
0 0 0
0 64 64
0 0 64
0 64 64
0 64 64
0 0 0
0 64 64
64 64 64
0 64 64
64 64 64
64 64 64
64 64 64
64 64 64
64 64 64
64 64 64
64 64 64
64 64 64
64 64 64
64 64 64
64 64 0
64 64 64
64 64 0
64 64 0
64 64 64
128 128 64
128 64 64
64 64 64
64 64 0
64 64 64
64 64 64
64 64 0
64 64 64
64 64 64
64 64 0
128 64 0
64 64 0
0 0 0
64 64 0
64 64 64
64 0 0
64 0 0
64 64 64
64 64 64
64 64 64
64 64 64
128 64 64
128 128 128
128 128 128
192 128 64
192 128 128
128 128 128
128 128 128
128 128 128
128 128 64
128 64 64
128 128 128
128 128 128
128 128 128
128 128 64
128 128 64
128 128 64
192 128 128
192 192 192
192 192 192
192 192 192
192 192 128
128 128 128
64 64 64
64 64 64
128 64 64
128 128 64
128 128 64
128 128 64
128 128 64
128 128 64
128 128 64
128 128 64
128 128 64
128 128 64
128 128 64
128 128 64
128 64 64
128 128 64
128 128 64
128 64 64
0 0 0
0 0 0
0 0 0
0 0 0
64 64 64
128 128 128
128 64 64
64 64 64
64 64 64
64 64 64
64 64 64
128 128 64
128 128 64
192 128 64
192 128 128
192 192 128
192 192 192
128 128 128
192 128 128
192 128 128
192 192 128
192 192 128
192 192 192
256 256 192
192 192 128
128 128 128
128 128 64
128 128 128
128 128 128
64 64 64
128 64 64
128 128 128
192 192 128
192 128 128
192 128 128
128 128 128
128 128 64
128 64 64
128 128 128
64 64 64
64 64 64
64 64 64
128 64 64
128 64 64
128 128 64
128 128 128
128 128 64
64 64 64
64 64 64
64 64 64
128 64 64
128 64 64
128 64 64
128 64 64
64 64 0
64 64 0
64 64 0
64 64 0
64 0 0
64 0 0
64 0 0
64 64 64
64 64 64
128 128 64
192 128 128
128 128 128
128 128 128
128 128 128
128 128 128
128 128 64
128 128 128
128 128 128
128 128 128
128 128 128
128 128 64
128 128 64
128 128 64
128 128 64
128 64 64
128 128 64
128 128 128
128 128 128
128 128 128
128 128 128
128 128 128
128 128 128
128 128 128
128 128 128
192 128 128
128 128 128
128 128 128
128 128 128
128 128 128
128 128 128
128 128 64
128 128 64
128 128 128
128 128 128
128 128 128
128 128 128
128 128 128
128 128 128
128 128 64
128 128 64
128 128 64
128 128 128
128 128 128
128 128 64
64 64 0
0 64 64
0 0 0
64 64 64
64 64 64
0 0 0
0 0 0
0 0 0
0 64 64
64 64 64
64 64 64
0 0 0
0 0 64
64 64 64
64 64 64
0 64 64
64 64 64
64 64 64
64 64 64
64 64 64
64 64 64
64 64 64
64 64 64
64 64 64
64 64 64
128 64 0
128 64 0
128 64 64
128 128 64
128 128 0
128 64 64
128 64 64
64 64 64
64 0 0
64 64 64
128 64 64
128 64 64
128 64 0
64 64 0
128 64 0
128 64 0
128 64 0
64 64 0
64 0 0
64 0 0
64 64 64
64 64 64
64 0 0
64 64 0
64 64 64
64 64 64
64 64 64
64 64 64
128 128 64
128 128 128
192 128 64
128 128 64
128 128 128
128 128 128
128 128 128
128 64 64
64 64 64
64 64 64
64 64 64
192 128 64
192 128 0
192 128 64
192 128 64
192 128 128
192 192 192
192 192 192
192 192 192
192 192 128
192 192 128
128 64 64
64 64 64
64 64 64
64 64 64
64 64 64
128 64 64
128 64 64
128 64 64
128 128 64
128 128 64
128 128 64
128 128 64
128 128 64
128 128 64
128 128 64
128 128 64
128 64 64
64 64 64
0 64 0
0 0 64
0 0 64
0 0 0
128 128 128
192 192 192
192 192 192
192 192 128
128 128 128
128 128 64
128 64 64
64 64 64
128 64 64
64 64 64
64 64 64
128 64 64
128 128 64
192 128 128
192 128 128
128 128 128
192 128 128
128 128 64
128 128 128
192 192 128
192 192 192
192 192 192
192 128 128
64 64 64
64 64 64
64 64 64
128 128 64
128 128 64
128 128 64
192 128 128
192 192 128
128 128 128
128 64 64
128 64 64
64 64 64
64 64 64
64 64 64
128 64 64
64 64 64
64 64 64
64 64 64
128 128 64
64 64 64
64 64 64
64 64 64
64 64 64
64 64 64
128 64 64
128 128 64
128 64 64
64 0 0
64 64 0
64 64 0
64 64 64
64 64 0
64 64 0
64 64 0
64 64 0
64 64 64
128 128 64
192 128 128
128 128 128
128 128 128
128 128 128
128 128 64
128 128 128
128 128 128
128 128 128
128 128 128
128 128 128
128 128 64
128 128 64
128 128 64
128 128 64
128 128 64
128 128 64
128 128 128
128 128 128
128 128 128
128 128 128
128 128 128
128 128 128
128 128 128
192 128 128
192 128 128
192 128 128
128 128 128
128 128 128
128 128 64
128 128 128
128 128 128
128 128 128
128 128 128
128 128 128
128 128 128
128 128 128
128 128 128
128 128 128
128 128 64
128 128 64
128 128 64
128 128 128
128 128 128
128 128 128
64 64 64
0 64 64
0 0 0
0 64 64
0 64 64
0 0 0
0 0 0
0 0 0
64 64 64
64 64 64
64 64 64
0 64 64
64 64 64
0 64 64
0 64 64
0 64 64
64 64 64
64 64 64
64 64 64
64 64 64
64 64 0
64 0 0
64 64 64
64 64 64
64 64 0
128 128 0
128 64 64
128 64 64
128 128 64
128 64 0
64 64 64
128 64 64
64 0 0
64 0 0
64 64 0
128 64 64
128 64 64
128 64 0
64 64 0
128 64 0
128 64 0
64 64 0
0 0 0
64 0 0
64 64 64
64 64 64
64 64 64
64 0 0
64 64 64
64 64 64
64 64 64
64 64 64
64 64 64
128 128 64
128 128 128
128 128 64
128 128 64
128 128 128
128 128 128
128 128 64
128 64 64
64 64 64
64 64 64
64 64 64
192 192 64
192 192 64
192 192 64
192 128 64
128 128 64
128 128 128
256 192 192
256 192 192
192 192 192
192 192 192
128 128 64
64 64 64
64 64 64
64 64 0
64 64 64
64 64 64
64 64 64
64 64 64
64 64 64
64 64 64
64 64 64
64 64 64
128 64 64
64 64 64
64 64 64
64 64 64
64 64 0
64 64 64
64 64 64
0 64 64
0 0 0
128 64 64
192 128 128
192 192 192
192 192 192
192 192 128
192 128 128
192 192 128
192 128 64
128 128 64
128 64 64
0 64 64
64 64 64
128 128 128
128 64 64
128 128 128
192 128 128
192 128 128
192 128 128
128 128 128
128 64 64
128 128 64
128 128 128
128 128 128
128 64 64
64 64 64
64 64 64
64 64 64
192 128 128
192 128 128
128 128 64
128 128 64
128 128 128
128 128 128
128 64 64
64 64 64
64 64 64
64 64 64
128 128 64
128 128 64
128 128 64
64 64 64
64 64 64
128 128 64
128 64 64
64 64 64
64 64 64
64 64 64
64 64 64
64 64 64
64 64 64
128 128 64
128 64 64
64 64 0
64 64 0
64 64 0
64 64 0
64 64 0
64 64 64
64 64 0
64 64 64
128 128 128
128 128 128
128 128 128
128 128 128
128 128 128
128 128 64
128 128 128
128 128 128
128 128 128
128 128 64
128 128 64
128 128 64
128 128 64
128 128 64
128 64 64
128 128 64
128 128 64
128 128 128
128 128 128
128 128 128
128 128 128
128 128 128
128 128 128
128 128 128
192 128 128
192 128 128
128 128 128
128 128 64
128 128 128
128 128 64
128 128 128
128 128 128
128 128 128
128 128 128
128 128 128
128 128 128
128 128 128
128 128 128
128 128 128
128 128 64
128 128 64
128 128 64
128 128 64
128 128 128
128 128 128
64 64 64
0 0 0
0 0 0
64 64 64
0 64 0
0 64 64
0 0 0
0 64 64
64 64 64
64 64 64
64 64 64
0 64 64
0 0 64
0 0 0
0 64 0
0 64 64
64 64 64
64 64 64
64 64 64
64 64 64
64 64 64
64 64 0
64 64 64
64 64 64
128 64 0
128 64 0
128 64 64
128 64 0
128 64 64
128 64 0
128 64 0
64 64 64
64 64 0
64 0 0
64 0 0
64 64 0
128 64 64
64 64 64
64 64 64
128 64 0
64 64 0
0 0 0
0 0 0
64 0 0
64 64 64
64 64 64
64 64 64
64 64 64
64 0 0
64 64 64
0 64 64
64 64 64
0 64 64
64 64 64
128 128 128
128 128 128
128 128 128
128 128 128
128 128 64
128 128 64
64 64 64
64 64 64
64 64 64
64 64 64
192 128 64
256 192 64
192 192 64
192 192 0
192 128 64
192 128 128
192 192 192
256 192 192
192 192 192
192 192 128
128 128 128
64 64 64
64 64 64
64 64 64
64 64 64
64 64 64
64 64 0
64 64 64
64 64 0
64 64 64
64 64 64
64 64 64
64 64 64
64 64 64
64 64 64
64 64 0
64 64 64
64 64 0
64 64 64
64 64 64
128 64 64
192 128 64
192 192 128
192 192 192
192 192 128
192 192 128
192 128 128
192 128 128
192 128 128
192 128 64
128 128 64
64 64 64
64 64 64
64 64 64
64 64 64
64 64 64
192 128 128
192 128 128
192 128 128
128 128 128
128 128 64
64 64 64
64 64 64
64 64 64
64 64 64
64 64 64
192 128 128
128 128 128
128 64 64
128 128 128
128 128 128
128 128 64
128 128 128
64 64 64
128 64 0
64 64 64
64 64 64
128 64 64
128 128 64
192 128 128
128 128 128
64 64 64
64 64 64
128 128 64
128 64 64
64 64 64
64 64 64
64 64 64
64 64 64
64 64 64
64 64 64
64 64 64
128 64 64
128 64 64
64 64 64
128 64 64
64 64 64
64 64 0
64 64 64
64 64 64
128 64 64
128 128 128
128 128 128
128 128 128
128 128 128
128 128 128
128 128 128
128 128 128
128 128 128
128 128 128
128 128 64
128 128 64
128 128 64
128 128 64
128 128 64
128 128 64
128 128 64
128 128 64
128 128 128
128 128 128
128 128 128
128 128 128
128 128 128
128 128 128
128 128 128
128 128 128
128 128 128
128 128 128
128 128 128
128 128 128
128 128 128
128 128 128
128 128 128
128 128 128
128 128 128
128 128 128
128 128 128
128 128 128
128 128 128
128 128 128
128 128 128
128 128 64
128 128 128
128 128 64
128 128 128
128 128 128
64 64 64
0 0 64
0 64 0
64 64 64
64 64 64
0 0 0
0 0 0
0 64 64
64 64 64
64 64 64
64 64 64
64 64 64
0 64 64
0 64 64
64 64 64
64 64 64
64 64 64
64 64 64
64 64 64
128 64 64
64 64 64
64 64 0
64 64 64
64 64 64
64 64 0
128 64 0
128 128 0
128 64 0
128 64 64
128 128 0
128 64 64
64 64 64
64 64 0
64 64 64
64 64 0
64 64 0
64 64 0
128 64 64
64 64 64
64 64 64
64 64 64
64 64 64
64 64 64
64 64 0
64 64 0
64 64 64
64 64 64
64 64 64
64 64 0
64 64 64
0 64 64
64 64 64
64 64 64
64 64 64
128 128 64
128 128 64
128 128 64
128 128 64
128 128 64
128 128 64
64 64 64
64 64 64
64 64 64
64 64 64
128 128 0
192 192 64
192 192 64
192 192 0
192 128 64
128 128 128
192 192 128
256 192 192
192 192 192
192 128 128
192 192 192
128 128 128
64 64 64
64 64 0
64 64 0
64 64 0
64 64 0
64 64 0
64 64 64
64 64 64
64 64 64
64 64 64
64 64 64
64 64 64
64 64 0
64 64 64
64 64 64
64 64 64
64 64 64
64 64 64
128 64 64
192 128 128
192 192 192
192 192 192
192 192 128
128 128 128
128 128 128
128 128 128
192 192 128
192 192 128
128 128 64
128 64 64
64 64 64
0 0 0
64 64 64
64 64 64
128 64 64
192 128 128
192 128 128
128 128 128
128 128 64
64 64 64
64 64 64
64 64 64
64 64 64
64 64 64
192 128 128
192 128 128
128 64 64
64 64 64
128 128 64
128 128 64
128 128 64
64 64 0
128 64 64
128 128 64
128 128 64
128 64 64
128 64 64
128 128 128
128 128 128
128 128 64
64 64 64
128 128 64
128 64 64
64 64 64
64 64 64
64 64 64
64 64 64
64 64 64
64 64 64
64 64 64
64 64 64
64 64 0
64 64 0
64 64 0
128 64 64
64 64 64
64 64 64
64 64 0
128 64 64
128 128 128
128 128 128
128 128 128
128 128 128
128 128 128
128 128 128
128 128 64
128 128 128
128 128 128
128 128 64
128 128 64
128 128 64
128 128 64
128 128 64
128 128 64
128 128 64
128 128 64
128 128 128
128 128 128
128 128 128
128 128 128
128 128 128
128 128 128
128 128 128
128 128 128
128 128 128
128 128 128
128 128 128
128 128 64
128 128 128
128 128 128
128 128 64
128 128 128
128 128 128
128 128 128
128 128 128
128 128 128
128 128 128
128 128 128
128 128 128
128 128 64
128 128 64
128 128 128
128 128 128
128 128 64
64 64 64
0 0 0
0 64 0
64 64 64
64 64 64
0 0 0
0 0 0
0 0 0
0 64 64
0 64 64
64 64 64
0 64 64
64 64 64
64 64 64
0 64 64
64 64 64
64 64 64
64 64 64
64 64 64
64 64 64
64 64 64
128 64 64
64 64 64
64 64 64
64 64 0
128 64 0
128 64 64
128 64 0
128 64 64
128 128 64
128 64 0
128 64 0
64 64 0
64 0 0
64 64 0
64 64 0
64 64 0
128 64 64
64 64 64
64 64 64
64 64 64
64 64 64
64 64 64
64 64 64
64 64 64
64 64 64
64 64 64
64 64 64
64 64 0
64 64 64
64 64 64
64 64 64
64 64 64
64 64 64
64 64 64
128 64 64
128 128 64
128 128 64
128 128 64
64 64 64
64 64 64
64 64 64
64 64 64
64 64 64
64 64 64
128 128 64
128 128 64
192 128 0
192 128 64
128 128 64
128 128 128
192 192 128
192 128 128
192 192 128
192 192 192
192 192 192
128 128 64
0 0 0
64 0 0
64 0 0
0 0 0
64 64 0
64 64 64
64 64 64
64 64 64
64 64 0
64 64 64
64 64 0
64 64 64
0 0 0
0 0 64
64 64 64
64 64 64
64 64 64
128 64 64
192 192 128
192 192 192
192 192 192
192 192 128
192 128 128
192 192 128
192 192 128
192 192 128
192 192 128
128 128 128
128 64 64
64 64 64
64 64 64
128 128 128
128 64 64
64 64 64
192 128 128
128 128 128
128 64 64
128 64 64
128 64 64
64 64 64
64 64 64
64 64 64
64 64 64
128 64 64
128 128 64
128 64 64
64 64 64
64 64 64
128 64 64
128 64 64
128 64 64
128 64 64
128 128 64
128 128 64
128 64 64
128 64 64
128 128 64
128 64 64
64 64 64
64 64 64
128 128 128
64 64 64
128 64 64
128 128 64
64 64 64
64 64 64
64 64 64
64 64 64
64 64 64
64 64 64
64 64 64
64 0 0
64 64 0
64 64 0
128 64 64
128 64 64
128 64 64
128 64 64
128 128 64
192 128 128
128 128 128
128 128 128
128 128 128
128 128 128
128 128 64
128 128 128
128 128 128
128 128 128
128 128 64
128 128 64
128 128 64
128 128 64
128 128 64
128 128 64
128 128 64
128 128 128
128 128 128
128 128 128
128 128 128
128 128 128
128 128 128
192 128 128
192 128 128
128 128 128
128 128 128
128 128 128
128 128 64
128 128 64
128 128 64
128 128 128
128 128 128
128 128 128
128 128 128
128 128 128
128 128 128
128 128 128
192 128 128
128 128 128
128 128 64
128 128 128
128 128 128
128 128 128
128 128 64
64 64 64
0 0 0
0 0 0
64 64 64
64 64 64
0 0 0
0 0 0
0 0 0
0 0 0
0 0 0
0 0 64
0 0 64
0 64 64
0 64 64
0 64 64
64 64 64
64 64 64
64 64 64
64 64 64
64 64 64
64 64 64
128 128 64
64 64 64
64 64 64
64 64 64
64 64 0
64 64 0
64 64 0
128 64 0
128 64 0
128 64 0
128 64 0
64 64 0
64 64 0
64 64 0
64 64 0
64 64 64
64 64 64
64 64 64
64 64 64
64 64 64
64 64 64
64 64 64
64 64 64
64 64 64
64 64 64
64 64 64
64 64 64
0 0 0
64 64 0
64 64 64
64 64 64
64 64 64
64 64 64
64 64 64
0 64 64
64 64 64
64 64 64
64 64 64
64 64 64
64 64 64
64 64 64
0 64 0
64 64 64
64 64 64
64 64 64
64 64 64
64 64 64
64 64 0
64 64 64
128 64 64
192 128 128
192 128 128
192 128 128
192 128 128
192 192 192
192 128 128
64 64 64
0 0 64
0 0 0
0 0 0
0 0 0
0 0 0
64 64 64
64 64 0
64 64 0
64 64 64
64 64 64
0 64 64
0 0 64
0 0 0
0 64 64
64 64 64
64 64 0
128 128 64
192 192 128
192 192 128
192 192 192
192 192 128
192 192 192
192 192 128
192 128 128
192 128 128
192 128 128
128 128 64
64 64 64
64 64 64
128 128 64
64 64 64
128 128 128
128 128 128
128 128 64
128 64 64
64 64 64
64 64 64
64 64 64
128 128 64
128 128 128
128 128 128
128 128 128
192 128 128
192 192 128
192 192 128
128 128 64
64 64 64
64 64 64
64 64 64
128 64 64
128 64 64
128 64 64
128 128 64
128 64 64
128 64 64
128 128 128
128 64 64
128 64 64
128 128 128
128 128 128
64 64 64
64 64 64
128 128 64
64 64 64
64 64 64
64 64 64
64 64 64
64 64 64
64 64 64
64 64 64
64 64 64
64 64 64
64 64 64
64 64 64
128 64 64
64 64 64
64 64 64
64 64 0
128 64 64
128 128 128
128 128 128
128 128 128
128 128 64
128 128 64
128 128 128
128 128 128
128 128 64
128 128 64
128 128 64
128 128 64
128 128 64
128 128 64
128 128 64
128 128 64
128 128 128
128 128 128
128 128 128
128 128 128
128 128 128
128 128 128
192 128 128
192 192 128
192 128 128
128 128 128
128 128 128
128 128 128
128 128 64
128 128 64
128 128 128
128 128 128
128 128 128
128 128 128
128 128 128
128 128 128
128 128 128
192 128 128
128 128 64
128 128 64
128 128 128
128 128 128
128 128 128
128 128 128
64 64 64
0 0 0
0 0 0
0 64 64
64 64 64
0 0 0
0 0 0
0 0 0
0 0 0
0 0 64
0 0 0
0 64 0
64 64 64
0 64 64
64 64 64
64 64 64
64 64 64
64 64 64
64 64 64
64 64 64
64 64 64
128 64 64
64 64 64
64 64 64
64 64 64
64 64 64
64 64 64
64 0 0
64 64 0
128 64 0
64 64 0
64 64 0
64 64 0
64 64 64
64 64 0
128 64 0
64 64 64
64 64 64
64 64 64
64 64 64
64 64 64
64 64 64
64 64 64
64 64 64
64 64 64
64 64 64
64 64 64
64 64 64
0 64 0
64 64 64
0 64 0
64 64 64
64 64 64
0 64 0
0 64 64
0 64 64
0 64 64
0 64 64
0 64 64
64 64 64
64 64 64
0 64 64
0 64 64
0 64 64
64 64 64
64 64 64
64 64 64
64 64 64
64 64 64
0 64 64
128 128 64
192 192 128
192 192 128
192 192 128
128 128 128
192 192 192
192 128 128
64 64 64
0 64 64
0 0 0
0 0 0
0 0 0
0 0 0
0 0 64
0 0 0
0 64 64
0 64 64
0 0 64
0 64 64
64 64 64
0 64 64
0 64 0
0 64 64
64 64 0
192 128 128
192 192 128
192 192 128
192 192 128
192 192 128
192 128 128
128 128 128
128 128 64
128 128 64
128 128 64
128 64 64
64 64 64
64 64 64
128 128 64
128 64 64
192 128 128
64 64 64
64 64 64
64 64 64
64 64 64
128 64 64
128 128 128
192 128 128
128 128 128
128 128 128
192 128 128
192 192 128
192 192 128
192 192 128
192 192 128
128 128 128
64 64 64
64 64 0
128 64 64
128 64 64
128 64 64
64 64 64
128 64 64
128 64 64
128 64 64
128 64 0
128 64 64
128 128 128
64 64 64
64 64 64
64 64 64
64 64 64
64 64 64
64 64 64
64 64 64
64 64 64
64 64 64
64 64 64
64 64 64
64 64 64
64 64 64
64 64 64
64 64 64
64 64 64
64 64 64
64 64 64
128 64 64
64 64 0
128 128 64
128 128 128
128 128 128
128 128 64
128 128 64
128 128 128
128 128 128
128 128 64
128 128 64
128 128 64
128 128 64
128 128 64
128 128 64
128 128 64
128 128 64
128 128 128
128 128 128
128 128 128
128 128 128
128 128 128
128 128 128
128 128 128
192 128 128
192 192 128
128 128 128
128 128 128
128 128 128
128 128 64
128 128 64
128 128 64
128 128 64
128 128 128
128 128 128
128 128 128
128 128 128
192 128 128
192 128 128
128 128 128
128 128 64
128 128 128
128 128 128
128 128 128
128 128 128
64 64 64
0 0 0
0 0 64
0 0 64
64 64 64
64 64 64
0 0 0
0 0 0
0 0 0
0 0 0
0 0 0
0 64 64
64 64 64
0 0 64
64 64 64
64 64 64
64 64 64
128 64 64
64 64 64
64 64 64
64 64 64
64 64 64
64 64 64
64 64 64
64 64 64
128 64 64
128 64 64
64 64 0
64 64 0
64 64 0
64 0 0
64 64 0
64 64 64
64 64 64
128 64 64
64 64 64
64 64 64
64 64 64
64 64 64
64 64 64
64 64 64
64 64 64
64 64 64
64 64 64
64 64 64
64 64 64
64 64 64
64 64 64
0 64 0
0 64 64
0 0 0
64 64 64
128 64 64
128 64 64
64 64 64
64 64 64
0 64 64
0 0 0
0 0 0
0 0 0
0 0 0
0 0 0
0 0 0
0 64 64
0 0 0
0 64 0
64 64 64
64 64 64
64 64 64
64 64 64
64 64 64
192 192 128
192 128 128
192 192 192
192 192 128
192 128 128
64 64 64
64 64 64
0 64 64
0 0 0
0 0 0
0 0 0
0 0 0
0 0 0
0 0 64
0 0 64
0 64 64
0 0 64
64 64 64
64 64 64
64 64 64
0 0 0
0 64 64
64 64 0
128 128 128
192 192 128
192 128 128
192 192 128
192 128 128
128 128 64
128 128 64
128 64 64
128 64 64
64 64 64
64 64 64
64 64 64
64 64 64
128 128 64
64 64 64
128 64 64
64 64 64
64 64 64
64 64 64
128 128 128
192 192 128
128 128 128
128 128 128
128 128 128
128 128 128
128 128 128
192 128 128
192 192 128
192 192 128
192 192 128
192 192 192
128 128 128
128 64 64
128 128 64
128 128 64
128 128 64
128 128 128
64 64 64
64 64 64
64 64 64
128 64 64
128 128 128
128 128 64
128 64 64
128 128 64
128 64 64
128 128 64
64 64 64
64 64 64
64 64 64
64 64 64
64 64 64
64 64 64
64 64 64
64 64 64
64 64 64
64 64 64
64 64 64
64 64 64
64 64 64
64 64 64
128 64 64
128 64 0
128 64 64
128 64 64
128 64 64
128 128 64
128 128 128
128 128 128
128 128 128
128 128 64
128 128 64
128 128 64
128 128 64
128 128 64
128 128 64
128 128 64
128 128 64
128 128 128
128 128 128
128 128 128
128 128 128
128 128 128
128 128 128
128 128 128
128 128 128
192 128 128
192 128 128
128 128 128
128 128 128
128 128 128
128 128 64
128 128 128
128 128 128
128 128 128
128 128 128
128 128 128
128 128 128
192 128 128
192 128 128
128 128 128
128 128 64
128 128 128
128 128 128
128 128 128
128 128 64
128 64 64
0 64 64
0 0 0
0 0 0
64 64 64
64 64 64
0 0 0
0 0 0
0 64 64
0 0 0
0 0 64
0 64 64
64 64 64
0 64 64
64 64 64
64 64 64
64 64 64
64 64 64
64 64 64
64 64 64
64 64 64
64 64 64
64 64 64
64 64 64
64 64 64
64 64 64
128 64 64
64 64 0
64 64 0
64 64 0
64 64 0
64 64 0
64 64 64
64 64 64
128 64 64
64 64 64
64 64 64
64 64 64
64 64 64
64 64 64
64 64 64
64 64 64
64 64 64
64 64 64
64 64 64
64 64 64
64 64 64
64 64 64
0 64 64
0 64 0
0 0 0
64 64 64
128 128 128
128 128 128
192 128 128
128 128 128
128 128 128
128 128 64
64 64 64
64 64 64
64 64 64
64 64 64
64 64 64
64 64 64
64 64 64
64 64 64
0 64 0
64 64 64
64 64 64
64 64 64
0 64 64
128 128 128
192 192 128
192 192 128
192 192 192
128 128 64
64 64 64
64 64 64
0 64 64
0 0 0
0 0 0
0 0 0
0 0 0
0 0 0
0 0 0
0 0 0
0 64 64
0 64 64
0 64 64
64 64 64
64 64 64
0 0 0
0 0 0
64 64 64
192 192 128
192 128 128
128 128 128
128 128 128
128 128 128
128 128 128
128 128 64
64 64 64
64 64 64
64 64 64
64 64 64
64 64 64
64 64 64
64 64 64
64 64 64
64 64 64
64 64 64
128 64 64
192 128 128
192 192 128
192 192 128
192 128 128
128 128 128
128 128 128
128 128 128
192 128 128
192 128 128
192 192 128
192 192 128
192 192 128
192 192 128
192 128 128
128 128 128
128 128 128
128 128 64
128 128 64
128 128 128
128 128 64
128 64 64
64 64 64
128 128 64
128 128 64
64 64 64
128 128 128
128 128 128
128 128 64
128 128 128
64 64 64
64 64 64
64 64 64
64 64 64
64 64 64
64 64 64
64 64 64
64 64 64
64 64 64
64 64 64
64 64 64
64 64 64
64 64 64
64 64 64
128 64 64
128 64 64
128 64 64
128 128 64
128 64 64
128 64 64
128 128 64
128 128 128
128 128 128
128 128 64
128 128 64
128 128 64
128 128 64
128 128 64
128 128 64
128 128 64
128 128 64
128 128 128
128 128 128
128 128 128
128 128 128
128 128 128
192 128 128
128 128 128
192 128 128
192 128 128
128 128 128
128 128 128
128 128 128
128 128 128
128 128 64
128 128 128
128 128 128
128 128 128
128 128 128
128 128 128
128 128 128
192 128 128
192 128 128
128 128 128
128 128 64
128 128 128
128 128 128
128 128 128
128 128 128
128 64 64
0 0 0
0 0 0
0 0 0
64 64 64
64 64 64
64 64 0
0 0 0
0 0 0
0 64 64
0 0 0
0 0 0
0 64 64
0 64 64
64 64 64
64 64 64
64 64 0
64 64 64
64 64 64
64 64 64
64 64 64
64 64 64
64 64 64
64 64 64
64 64 64
128 64 64
128 64 64
64 64 0
128 64 64
128 64 64
128 64 64
64 64 0
64 64 64
64 64 64
128 128 64
64 64 64
64 64 64
128 128 64
128 128 64
128 64 64
128 64 64
128 64 64
128 64 64
128 64 64
128 128 64
64 64 64
64 64 64
64 64 64
64 64 64
0 64 64
0 64 0
64 64 64
128 128 64
128 128 128
192 128 128
128 128 128
192 128 128
192 192 128
192 192 128
192 192 192
192 192 128
192 128 128
192 128 128
192 128 128
128 128 128
128 128 128
128 128 64
64 64 64
64 64 64
64 64 64
64 64 64
64 64 64
128 128 128
192 192 192
128 128 128
128 128 128
128 128 64
64 64 64
64 64 64
0 0 64
0 0 0
0 0 0
0 0 64
0 0 0
0 0 0
0 0 0
0 64 64
64 64 64
0 64 0
64 64 64
64 64 64
0 0 0
0 0 0
64 64 64
128 128 128
128 128 128
128 128 128
128 128 128
128 128 64
64 64 64
64 64 64
64 64 64
128 128 64
128 128 128
64 64 64
64 64 64
64 64 64
64 64 64
64 64 64
128 64 64
128 128 128
128 128 64
128 128 128
192 192 128
192 192 128
192 192 192
192 192 128
192 128 128
128 128 128
192 128 128
192 128 128
192 128 128
128 128 128
192 192 128
192 192 128
128 128 64
128 128 128
128 128 64
128 128 64
128 128 128
128 128 128
128 128 128
128 128 128
128 128 128
128 128 128
64 64 64
128 128 128
128 128 128
128 64 64
128 128 64
128 128 64
128 128 128
64 64 64
64 64 64
64 64 64
64 64 64
64 64 64
64 64 64
64 64 0
0 0 0
64 64 64
64 64 0
64 64 0
64 64 64
64 64 64
64 64 64
128 64 64
128 64 64
128 128 64
128 128 64
128 128 64
128 64 64
128 64 64
128 128 64
128 128 128
128 128 128
128 128 64
128 128 64
128 128 64
128 128 64
128 64 64
128 128 64
128 128 128
128 128 128
128 128 128
128 128 128
128 128 128
128 128 128
192 128 128
192 128 128
128 128 128
128 128 128
128 128 128
192 128 128
128 128 128
128 128 64
128 128 64
128 128 128
128 128 128
128 128 128
128 128 128
128 128 128
128 128 128
192 128 128
128 128 128
128 128 64
128 128 64
128 128 64
128 128 64
128 128 128
128 64 64
0 0 0
0 0 0
0 0 0
0 0 0
64 64 64
64 64 0
64 0 0
64 0 0
0 0 64
0 0 0
0 0 0
0 64 64
0 0 0
64 64 64
64 64 64
64 64 0
0 0 0
0 0 0
64 64 64
64 64 0
64 64 64
64 64 64
64 64 64
64 64 64
64 64 64
128 64 64
128 128 64
128 128 64
128 64 64
64 64 0
64 64 0
64 64 64
128 64 64
64 64 64
128 64 64
128 128 64
128 64 64
128 64 64
192 64 64
128 64 64
128 64 64
128 64 64
128 64 64
128 64 64
128 128 64
64 64 64
64 64 64
64 64 64
64 64 64
0 0 0
0 64 64
128 128 64
128 128 128
128 128 128
128 128 64
128 128 64
128 128 64
128 128 64
128 128 128
128 128 128
128 128 128
128 128 64
128 128 64
128 64 64
128 64 64
128 64 64
64 64 64
64 64 64
64 64 64
64 64 64
64 64 64
64 64 64
64 64 64
64 64 64
64 64 64
64 64 64
128 128 64
64 64 64
0 0 0
0 64 64
0 0 64
0 0 0
0 0 0
0 64 64
0 64 0
0 64 64
0 64 64
0 0 0
64 64 64
64 64 64
0 64 0
64 64 0
0 64 0
128 128 64
128 128 128
128 128 64
128 64 64
128 64 64
128 128 128
128 128 128
128 128 128
128 128 128
64 64 64
64 64 64
64 64 64
64 64 0
64 64 0
64 64 64
128 128 64
128 128 128
128 128 64
128 64 64
128 128 64
192 192 128
192 192 128
192 192 192
192 192 128
192 192 128
192 128 128
128 128 128
128 128 128
128 128 128
192 192 128
192 128 128
128 128 64
128 128 64
192 128 128
128 128 128
128 128 128
128 128 64
128 128 64
128 128 64
128 128 128
128 128 128
128 128 128
128 128 128
64 64 64
64 64 64
64 64 64
128 128 64
192 128 64
128 128 64
128 128 64
64 64 64
64 64 64
64 64 64
64 64 64
64 64 64
64 64 64
64 64 0
64 64 0
64 64 0
64 64 0
64 64 0
64 64 0
64 64 64
128 64 64
128 128 64
128 128 64
128 128 64
128 64 64
64 64 64
64 64 0
128 64 64
128 128 64
128 128 64
128 128 64
128 128 64
128 128 64
128 128 64
128 128 64
128 128 128
128 128 128
128 128 128
128 128 128
192 128 128
128 128 128
192 128 128
128 128 128
128 128 128
128 128 128
192 128 128
192 128 128
128 128 128
128 128 64
128 128 128
128 128 128
128 128 64
128 128 128
128 128 128
128 128 128
128 128 128
128 128 128
128 128 128
128 128 64
128 128 64
128 128 64
128 128 128
128 128 64
128 64 64
0 64 64
0 64 0
0 0 0
64 64 64
128 64 64
64 64 64
64 64 64
0 0 0
0 0 0
0 0 0
0 0 0
0 64 64
64 64 64
64 64 64
128 64 64
64 64 64
64 64 64
0 0 0
0 0 0
64 64 64
64 64 64
0 64 64
64 64 64
64 64 64
64 64 64
128 64 64
128 64 64
128 64 64
64 64 0
64 64 0
64 64 64
128 64 64
128 64 64
128 64 64
128 64 64
128 64 64
128 64 64
128 64 64
192 64 64
192 64 64
128 64 64
192 64 64
128 64 64
128 64 64
128 64 64
128 128 64
64 64 64
64 64 64
64 64 64
64 64 64
0 0 0
128 64 64
128 128 64
64 64 64
128 64 64
64 64 64
64 64 64
64 64 64
64 64 64
128 128 64
128 64 64
64 64 64
128 64 64
64 64 64
64 64 64
64 64 64
64 64 64
64 64 64
64 64 64
64 64 64
64 64 64
64 64 64
64 64 64
64 64 64
64 64 64
128 128 128
192 192 192
128 128 128
64 64 64
0 64 0
0 64 64
0 0 64
0 0 0
0 0 0
0 0 0
0 64 64
0 64 64
0 64 64
64 64 64
64 64 64
64 64 0
64 64 0
64 64 0
64 64 64
64 64 64
128 64 64
128 128 128
128 128 128
128 128 128
128 128 128
128 64 64
64 64 64
64 64 64
64 64 64
64 64 64
64 64 64
64 64 64
64 64 64
64 64 64
64 64 64
64 64 64
128 64 64
128 128 64
128 128 64
192 192 128
192 192 128
192 192 192
192 192 192
192 192 192
192 192 128
192 192 128
192 192 128
192 192 192
128 128 128
64 64 64
64 64 64
64 64 64
128 128 128
64 64 64
128 128 64
128 128 128
128 128 128
128 128 128
128 128 128
128 128 128
128 128 128
64 64 64
64 64 64
128 128 128
128 128 64
128 128 64
128 128 128
128 64 64
64 64 64
64 64 0
64 64 64
64 64 64
64 64 64
64 64 64
64 64 64
64 64 64
64 64 64
64 64 64
64 64 64
0 64 0
64 64 64
128 128 64
128 128 64
128 64 64
128 64 64
128 128 64
64 64 64
64 64 0
64 64 0
64 64 0
64 64 0
128 64 64
128 64 64
128 64 64
128 64 64
128 128 128
128 128 128
128 128 128
128 128 128
128 128 128
192 128 128
192 128 128
128 128 128
128 128 128
128 128 128
128 128 128
192 128 128
128 128 128
128 128 128
128 128 64
128 128 64
128 128 64
128 128 64
128 128 64
128 128 128
128 128 128
128 128 128
128 128 128
128 128 128
128 64 64
128 64 64
128 64 64
128 128 64
128 64 64
128 64 64
0 0 0
0 0 0
0 0 64
64 64 64
128 64 64
128 64 64
128 64 64
64 64 64
64 0 0
64 0 0
0 0 0
64 64 64
64 64 64
128 64 64
128 128 64
128 128 64
128 64 64
64 64 64
0 64 0
64 64 64
64 64 64
0 0 0
64 64 64
64 64 64
64 64 64
128 128 64
128 64 64
128 128 64
128 128 64
128 64 64
128 64 64
128 64 64
128 128 64
128 64 64
128 64 64
128 64 64
192 64 64
192 128 64
192 128 64
192 64 64
192 64 64
192 64 64
128 64 64
128 64 64
128 64 64
128 64 64
128 64 64
64 64 64
64 64 64
64 64 64
0 0 0
64 64 64
128 64 64
64 64 64
128 64 64
64 64 64
64 64 64
64 64 64
128 64 64
128 64 64
128 64 64
128 64 64
128 64 64
64 64 64
64 64 64
64 64 64
64 64 64
64 64 64
64 64 64
0 64 0
0 64 64
64 64 64
64 64 64
64 64 64
64 64 64
64 64 64
128 128 128
128 128 128
128 128 128
64 64 64
0 0 0
0 0 64
0 0 0
0 0 0
0 64 64
0 64 64
0 0 64
0 64 64
64 64 64
64 64 0
64 64 0
64 64 0
64 64 64
64 64 64
64 64 64
128 128 128
128 128 128
128 128 128
128 128 64
64 64 64
64 64 64
64 64 0
64 64 0
64 64 64
64 64 64
64 64 64
64 64 64
128 128 64
128 64 64
64 64 64
64 64 64
64 64 64
64 64 64
128 64 64
128 128 128
192 192 128
192 192 128
192 192 128
192 192 128
192 128 128
128 128 128
128 128 128
128 128 64
128 128 64
128 128 128
64 64 64
64 64 64
0 64 0
64 64 64
64 64 64
128 128 128
128 128 128
128 128 128
128 128 128
128 128 128
128 128 128
64 64 64
64 64 64
128 64 64
128 128 64
128 128 128
128 128 128
128 128 64
128 128 64
64 64 0
64 64 0
64 64 64
64 64 64
64 64 64
64 64 64
64 64 64
64 64 64
64 64 64
64 64 64
64 64 64
64 64 64
128 64 64
128 64 64
128 64 64
128 64 64
128 64 64
64 64 64
64 64 0
128 64 64
128 64 64
64 64 0
64 64 64
64 64 0
64 64 0
64 64 64
128 128 128
128 128 128
128 128 128
128 128 128
128 128 128
128 128 128
128 128 128
128 128 128
128 128 128
128 128 128
128 128 128
128 128 128
128 128 128
192 128 128
128 128 64
128 128 64
128 128 128
128 128 64
128 128 128
128 128 128
128 128 128
128 128 128
128 128 64
128 64 64
64 64 64
64 64 64
64 64 64
128 64 64
128 64 64
128 64 64
0 0 0
0 0 0
0 0 0
64 64 64
128 64 64
64 64 64
128 64 64
64 64 64
64 0 0
64 64 0
64 0 0
64 64 0
64 64 64
64 64 64
64 64 64
128 128 64
128 64 64
128 64 64
128 64 64
64 64 64
64 64 64
64 64 64
64 64 64
128 64 64
128 64 64
128 64 64
128 128 64
128 128 64
128 64 64
128 64 64
128 128 64
128 128 64
128 128 64
128 128 64
128 64 64
128 64 64
128 64 64
192 128 64
192 128 64
192 128 64
128 64 64
128 64 64
192 64 64
128 64 64
128 64 64
128 64 64
128 64 64
64 64 64
64 64 0
64 64 64
64 64 64
64 64 64
64 64 64
64 64 64
64 64 64
64 64 64
64 64 64
64 64 64
64 64 64
64 64 64
64 64 64
64 64 64
64 64 64
64 64 0
0 64 0
0 0 64
0 0 0
0 0 0
0 0 64
0 64 64
0 0 0
0 64 0
64 64 64
64 64 64
64 64 64
64 64 64
64 64 64
64 64 64
64 64 64
64 64 64
0 64 64
0 0 64
0 0 64
0 64 64
0 64 64
0 64 64
0 64 64
64 64 64
64 64 64
64 64 64
64 64 64
64 64 64
64 64 0
64 64 64
128 128 128
128 128 128
128 128 64
64 64 64
64 64 64
64 64 64
64 64 0
64 64 64
128 64 64
128 64 64
64 64 64
64 64 64
128 64 64
128 64 64
128 64 64
128 64 64
128 128 64
64 64 64
64 64 64
64 64 0
128 64 64
128 128 64
128 64 64
64 64 64
64 64 0
64 64 0
64 64 0
128 64 64
128 64 64
128 64 64
64 64 64
128 64 64
128 128 64
64 64 64
64 64 64
64 64 64
64 64 64
128 128 64
128 128 128
128 128 128
128 128 128
128 128 128
128 128 64
64 64 64
64 64 64
128 128 128
128 128 128
128 128 128
128 128 128
128 128 64
64 64 64
64 0 0
64 64 0
64 64 64
128 64 64
64 64 64
64 64 64
64 64 64
64 64 64
64 64 64
64 64 64
128 64 64
128 64 64
64 64 64
64 64 64
64 64 64
64 64 64
128 64 64
64 64 64
64 64 0
64 64 64
128 64 64
64 64 64
64 64 64
64 64 64
64 64 64
128 64 64
128 128 64
128 128 128
128 128 128
128 128 128
192 128 128
128 128 128
192 128 128
128 128 128
192 128 128
192 128 128
192 128 128
128 128 128
128 128 64
64 64 64
64 64 64
64 64 64
64 64 64
128 64 64
128 128 64
128 128 64
64 64 64
64 64 64
64 64 64
64 64 64
64 64 64
64 64 64
128 64 64
128 64 64
64 64 64
64 64 64
0 0 0
0 0 0
64 64 64
64 64 64
128 64 64
128 64 64
64 64 64
64 0 0
64 64 0
64 64 0
64 64 0
64 64 64
64 64 64
64 64 64
64 64 64
128 64 64
64 64 64
64 64 64
128 64 64
128 128 64
128 64 64
128 64 64
128 64 64
128 64 64
128 64 64
128 64 64
128 128 64
128 128 64
128 128 64
128 128 64
128 128 64
128 64 64
128 64 64
128 64 64
128 64 64
128 64 64
128 128 64
192 128 64
128 64 64
128 64 0
128 64 64
192 64 64
128 64 64
128 64 64
128 64 64
128 64 64
64 64 64
64 64 0
64 64 0
64 64 64
0 64 0
0 0 0
0 64 64
0 64 0
0 0 0
0 0 0
0 0 0
0 0 0
0 0 0
0 0 0
0 64 64
0 0 0
0 0 0
0 0 0
0 0 0
64 64 64
64 64 64
64 64 64
0 64 64
0 64 0
64 64 0
0 64 0
0 64 0
0 64 0
64 64 64
64 64 64
64 64 64
64 64 64
64 64 64
64 64 64
0 64 64
0 64 64
64 64 64
0 64 64
64 64 64
64 64 64
64 64 64
64 64 64
64 64 64
64 64 64
64 64 0
64 64 64
128 128 64
128 128 64
64 64 64
64 64 64
64 64 64
64 64 64
64 64 64
64 64 64
128 128 64
128 128 64
128 64 64
64 64 64
128 64 64
128 128 64
128 128 64
128 128 64
128 128 64
128 128 64
128 64 64
64 64 64
64 64 64
128 64 64
128 64 64
64 64 64
128 64 64
128 64 64
128 64 64
128 64 64
128 128 64
128 64 64
128 128 64
128 128 128
128 64 64
128 64 64
128 128 64
128 128 64
64 64 64
64 64 64
64 64 64
64 64 64
64 64 64
64 64 64
64 64 64
128 128 128
128 128 64
128 64 64
128 128 128
128 128 128
128 128 128
128 128 128
128 128 64
128 128 64
64 64 64
64 64 0
64 64 64
64 64 64
128 64 64
64 64 64
64 64 64
64 64 64
64 64 64
64 64 64
64 64 64
64 64 64
64 64 64
64 64 0
64 64 64
64 64 0
128 64 64
128 64 64
128 64 64
64 64 64
128 64 64
64 64 64
64 64 64
64 64 64
64 64 64
64 64 64
64 64 64
64 64 64
128 64 64
128 128 64
128 128 64
128 128 64
128 128 64
128 128 64
128 128 64
64 64 64
64 64 64
64 64 64
64 64 64
64 64 64
64 64 64
64 64 0
64 64 64
64 64 64
64 64 64
64 64 64
64 64 64
64 64 64
64 64 64
64 64 64
64 64 64
64 64 64
64 64 64
64 64 64
64 64 64
64 64 64
0 64 64
0 0 0
64 64 64
128 64 64
128 64 64
128 64 64
64 64 64
64 64 0
64 64 0
64 64 64
64 64 64
128 64 64
128 64 64
64 64 64
64 64 64
64 64 64
64 64 64
64 64 64
128 64 64
128 128 64
128 64 64
128 64 64
128 64 64
128 64 64
128 64 64
128 64 64
128 64 64
128 128 64
128 128 64
128 128 64
128 128 64
128 64 64
128 64 64
128 64 64
128 64 64
128 64 64
128 64 64
128 64 64
128 64 64
128 64 0
128 64 64
192 64 64
128 64 64
128 64 64
128 64 64
128 64 64
128 64 64
128 64 64
64 64 64
64 64 64
0 64 64
0 0 0
0 0 0
0 0 0
0 0 0
0 0 0
0 0 0
0 0 0
0 64 0
0 64 0
0 64 0
0 0 64
0 64 0
64 64 64
64 64 64
64 64 64
64 64 64
64 64 64
64 64 64
64 64 64
64 64 64
0 64 0
0 0 0
0 0 0
0 0 0
0 0 64
0 64 64
64 64 64
64 64 64
64 64 64
64 64 64
0 64 64
64 64 64
64 64 64
64 64 64
0 64 64
64 64 64
64 64 64
64 64 64
64 64 64
64 64 64
64 64 64
64 64 64
64 64 64
64 64 0
64 64 64
64 64 0
64 64 64
128 64 64
64 64 64
128 64 64
128 64 64
64 64 64
64 64 64
128 128 128
128 128 128
128 128 128
128 128 128
128 128 128
128 128 128
128 128 128
128 128 64
128 128 64
128 128 64
128 128 64
128 128 64
128 128 64
128 128 64
128 128 64
128 128 64
128 128 128
128 128 64
128 128 64
128 128 64
128 128 128
128 128 64
128 64 64
128 128 64
128 128 128
128 128 64
64 64 64
64 64 64
64 64 64
64 64 64
128 128 64
128 128 128
128 128 64
128 128 128
128 128 128
128 128 128
128 128 128
128 128 128
128 128 128
128 128 64
64 64 64
64 64 0
0 0 0
64 64 0
64 64 64
128 64 64
128 64 64
64 64 64
64 64 64
64 64 64
64 64 64
64 64 64
64 64 0
64 64 64
64 64 64
64 64 64
128 64 64
128 64 64
64 64 64
64 64 64
64 64 0
64 0 0
64 64 0
64 64 64
64 64 64
64 64 64
64 64 64
64 64 64
64 64 64
64 64 64
64 64 64
64 64 64
64 64 64
64 64 64
64 64 64
64 0 0
64 0 0
64 0 0
64 0 0
64 0 0
64 64 64
64 0 0
64 64 64
64 64 64
64 64 64
64 64 64
64 64 64
64 64 64
64 64 64
64 64 64
64 64 64
64 64 64
64 64 64
64 64 64
64 64 64
64 0 0
64 0 0
64 64 64
128 64 64
128 64 64
128 64 64
128 64 64
64 64 64
64 64 0
64 64 0
64 64 0
64 64 0
64 64 64
128 64 64
128 128 64
128 128 64
64 64 64
128 64 64
128 64 64
128 64 64
128 64 64
128 64 64
128 64 64
128 64 64
128 64 64
128 128 64
128 64 64
128 64 64
128 128 64
128 64 64
128 64 64
128 64 64
128 64 64
128 64 64
128 64 64
128 64 64
128 64 64
128 64 64
128 64 64
128 64 64
128 64 64
128 64 64
128 64 64
128 64 64
128 64 64
128 64 64
128 64 64
128 64 64
128 64 64
64 64 0
64 64 64
0 64 64
0 0 0
0 0 0
0 0 0
0 0 0
0 0 0
0 0 0
0 0 0
0 0 0
0 0 0
0 64 64
0 64 0
64 64 64
64 128 128
64 128 128
64 64 64
64 64 64
64 64 64
64 64 64
64 64 64
64 64 64
64 64 64
0 64 64
0 0 0
0 0 0
0 0 64
0 0 0
0 0 0
0 0 0
0 64 0
0 64 64
0 64 64
0 64 64
0 64 64
0 64 64
64 64 64
64 64 64
64 64 64
64 64 64
64 64 64
64 64 64
64 64 64
64 64 0
64 64 0
64 64 0
64 64 0
64 64 64
64 64 64
64 64 64
64 64 64
128 128 64
128 128 64
128 128 64
128 128 128
128 128 128
128 128 128
128 128 128
128 128 128
128 128 128
128 128 128
128 128 128
192 128 128
128 128 128
128 128 128
128 128 128
128 128 128
128 128 128
128 128 128
128 128 128
128 128 64
128 128 64
128 128 64
128 128 128
128 128 64
128 64 64
128 128 64
128 128 128
128 128 64
128 128 64
128 128 128
128 128 128
128 128 64
128 128 64
128 128 64
128 128 128
128 128 64
128 128 64
128 128 128
128 128 128
128 128 128
128 128 128
128 128 128
128 128 128
128 64 64
64 64 64
64 64 64
64 64 64
64 64 64
64 64 64
64 64 64
128 64 64
64 64 64
64 64 64
64 64 64
64 64 64
64 64 64
64 64 64
64 64 64
64 64 64
128 64 64
128 64 64
64 64 0
64 64 0
64 64 64
64 64 64
64 64 64
64 64 64
64 64 64
64 64 64
64 64 64
64 64 64
64 64 64
64 64 64
64 64 64
64 64 64
64 64 64
64 64 64
64 64 64
64 64 64
64 0 0
64 0 0
64 64 0
64 0 0
64 0 0
64 64 0
64 64 64
64 64 64
64 64 64
64 64 64
64 64 64
64 64 64
64 64 64
64 64 64
64 64 64
64 64 64
64 64 64
64 64 64
64 64 64
64 64 64
64 64 64
64 0 0
64 64 64
128 64 64
128 64 64
128 64 64
128 128 64
128 64 64
64 64 0
64 64 64
64 64 0
64 64 64
64 64 0
64 64 64
128 64 64
64 64 64
128 64 64
128 128 64
128 128 64
128 64 64
128 64 64
128 64 64
128 64 64
128 64 64
128 64 64
128 64 64
128 64 64
128 64 64
128 64 64
128 64 64
128 64 64
128 64 64
128 64 64
128 64 64
128 64 64
128 64 64
128 64 64
128 64 64
128 64 64
128 64 64
128 64 64
128 64 64
128 64 64
128 64 64
128 64 64
128 64 64
128 64 64
128 64 0
128 64 64
64 64 0
64 64 0
0 64 0
0 64 64
0 0 0
0 0 0
0 0 0
0 0 0
0 0 0
0 0 64
0 0 64
0 0 0
0 0 0
64 64 64
64 128 128
64 64 128
64 64 64
64 64 64
64 64 64
64 128 128
64 64 64
0 64 0
64 64 64
0 64 64
64 64 64
64 64 64
0 64 64
0 0 0
0 0 0
0 0 0
0 0 0
0 0 0
64 64 64
0 64 0
0 0 0
0 0 0
64 64 64
64 64 64
64 64 64
64 64 64
64 64 64
64 64 64
64 64 64
64 64 0
64 64 0
64 64 0
64 64 64
128 64 64
128 64 64
128 128 64
128 128 64
128 128 64
128 128 64
128 128 64
128 64 64
128 64 64
64 64 64
64 64 64
64 64 64
64 64 64
128 64 64
128 64 64
128 64 64
128 64 64
128 128 64
128 128 64
128 128 128
128 128 128
128 128 128
128 128 128
128 128 128
128 128 64
128 128 64
128 128 64
128 128 64
128 128 64
128 128 64
128 128 64
128 128 64
128 128 64
128 128 64
128 128 64
128 128 128
128 128 128
128 128 64
128 128 128
128 128 64
128 128 64
128 128 128
128 128 128
128 128 128
128 128 128
128 128 128
128 128 128
128 128 128
128 128 64
128 64 64
64 64 64
64 64 64
64 64 64
64 64 64
64 64 64
64 64 64
64 64 64
64 64 64
64 64 64
64 64 64
64 64 64
64 64 64
64 64 64
64 64 64
64 64 64
128 64 0
128 64 64
64 64 64
64 64 0
64 64 64
64 64 0
64 64 64
64 64 64
64 64 64
64 64 64
64 64 64
64 64 64
64 64 64
64 64 64
64 64 64
64 64 64
64 64 64
64 64 64
64 64 0
64 64 0
64 0 0
64 0 0
64 0 0
64 64 0
64 64 0
64 64 64
64 64 64
64 64 64
64 64 64
64 64 64
64 64 64
64 64 64
64 64 64
64 64 64
64 64 64
64 64 64
64 64 64
64 64 64
64 64 64
64 64 0
64 64 0
64 64 0
128 64 64
128 64 64
128 64 64
128 128 64
128 64 64
64 64 0
64 64 0
64 64 0
64 64 0
64 64 64
64 64 64
64 64 64
64 64 64
64 64 64
128 64 64
128 64 64
128 64 64
128 64 64
128 64 64
128 64 64
128 64 64
128 64 64
128 64 64
128 64 64
128 64 64
128 64 64
128 64 64
128 64 64
128 64 64
128 64 64
128 64 64
128 64 64
128 64 64
128 64 64
128 64 64
128 64 64
128 64 64
128 64 64
128 64 64
128 128 64
128 64 64
128 64 64
128 64 64
128 64 64
64 64 0
128 64 64
64 64 64
64 64 0
64 64 0
0 0 0
0 0 0
0 0 64
0 64 64
0 64 64
0 0 0
0 0 0
0 0 0
0 64 0
0 64 64
64 64 64
64 128 128
64 64 64
64 64 64
64 64 64
64 64 64
64 64 64
64 64 64
0 64 0
64 64 64
0 64 64
0 64 64
64 64 64
64 64 64
0 64 64
0 0 0
0 0 0
0 0 0
0 0 0
0 0 0
0 0 0
0 0 0
64 64 64
64 64 64
64 64 64
64 64 64
64 64 64
64 64 64
64 64 0
64 64 0
64 64 64
64 64 64
128 64 64
128 128 64
128 128 128
128 128 64
64 64 64
64 64 64
64 64 64
64 64 64
64 64 0
64 64 64
64 64 0
64 64 0
64 64 0
64 64 0
64 64 64
64 64 0
64 64 64
64 64 64
64 64 64
64 64 64
64 64 64
64 64 64
128 64 64
128 64 64
128 128 128
128 128 128
128 128 128
128 128 128
128 128 64
128 128 64
128 128 64
128 128 64
128 128 64
128 128 64
128 64 64
128 128 64
128 128 64
128 128 64
128 128 64
128 128 64
128 128 64
128 64 64
128 128 64
128 128 64
128 128 128
128 128 128
128 128 64
128 128 64
128 128 128
128 128 128
128 128 64
128 64 64
64 64 64
64 64 64
64 64 64
64 64 64
64 64 64
64 64 64
64 64 64
64 64 64
64 64 64
64 64 64
64 64 64
64 64 64
64 64 64
64 64 64
64 64 64
64 0 0
64 0 0
64 64 0
64 64 64
64 64 64
64 64 64
64 64 64
64 64 64
64 64 64
64 64 64
64 64 64
64 64 64
64 64 64
64 64 64
64 64 64
64 64 64
64 64 64
64 64 64
64 64 64
64 64 64
64 64 64
64 0 0
64 64 0
64 64 0
64 64 0
64 64 0
64 64 64
64 64 64
64 64 64
64 64 64
64 64 64
64 64 64
64 64 64
64 64 64
64 64 64
64 64 64
64 64 64
64 64 64
64 64 64
64 64 64
64 64 0
64 64 0
128 64 64
128 128 64
128 128 64
128 128 64
64 64 64
64 64 64
64 64 64
64 64 64
64 0 0
64 64 64
64 64 64
64 64 64
64 64 64
128 64 64
128 128 64
128 64 64
128 64 64
128 64 64
128 64 64
128 64 64
128 64 64
128 64 64
128 64 64
128 64 64
128 64 64
128 64 64
128 64 64
128 64 64
128 64 64
128 64 64
128 64 64
192 64 64
128 64 64
128 64 64
128 64 64
128 64 0
128 64 0
128 64 64
128 128 64
128 64 64
128 64 64
128 64 64
128 64 64
128 64 64
128 64 0
128 64 64
64 64 0
64 64 0
64 64 0
0 64 64
0 0 0
0 64 0
64 64 0
64 64 64
0 64 64
0 0 0
0 0 0
0 0 0
64 64 64
64 64 64
64 64 64
64 64 64
64 64 64
64 64 64
64 64 64
64 64 64
64 64 0
0 64 64
0 64 64
0 64 64
0 0 0
0 64 64
64 64 64
64 64 64
0 64 64
0 0 0
0 0 0
0 0 0
0 0 0
0 0 0
64 64 0
64 64 64
64 64 64
64 64 64
64 64 64
64 64 0
64 64 0
64 64 0
64 64 0
64 64 64
128 128 128
128 128 128
128 128 64
64 64 64
64 64 64
64 64 64
64 64 64
64 64 64
64 64 0
64 64 0
64 64 64
64 64 64
64 64 64
64 64 64
64 64 64
64 64 64
64 64 64
64 64 64
64 64 64
64 64 64
64 64 64
64 64 0
64 64 0
64 64 0
64 64 64
64 64 64
128 64 64
128 128 64
128 128 128
128 128 128
128 128 128
128 128 64
128 128 64
128 128 64
128 128 64
128 128 64
128 128 64
128 128 64
128 128 128
128 128 64
128 128 64
128 128 64
128 128 64
128 128 64
128 128 64
128 128 128
128 128 64
128 128 64
128 128 64
128 128 64
128 128 64
128 128 64
128 64 64
64 64 64
64 64 64
128 64 64
64 64 64
64 64 64
64 64 64
64 64 64
64 64 64
64 64 64
64 64 64
64 64 64
64 64 64
64 64 64
64 64 64
64 64 64
64 64 64
64 64 64
64 64 0
64 64 64
128 64 64
64 64 64
64 64 64
64 64 64
64 64 64
64 64 64
64 64 64
64 64 64
64 64 64
64 64 64
64 64 64
64 64 64
64 64 0
64 64 64
64 64 64
64 64 0
64 64 0
64 64 0
64 64 0
64 64 0
64 64 64
64 64 0
64 0 0
64 64 64
64 64 64
64 64 64
64 64 64
64 64 0
64 64 64
64 64 64
64 64 64
64 64 64
64 64 64
64 64 64
64 64 64
64 64 0
64 64 0
64 64 0
64 64 64
128 128 64
128 128 64
128 128 64
64 64 64
64 64 0
64 64 64
64 64 0
64 64 0
64 64 64
64 64 64
64 64 64
128 64 64
128 64 64
128 64 64
128 64 0
128 64 0
128 64 0
128 64 64
128 64 64
128 64 64
128 64 64
128 64 64
128 64 64
128 64 64
128 64 64
128 64 64
128 64 64
128 64 64
128 64 64
128 64 64
128 64 64
128 64 64
128 64 64
128 64 0
128 64 0
128 64 64
128 64 64
128 64 0
128 64 64
128 64 64
128 64 64
128 64 64
128 64 64
128 64 0
128 64 64
64 64 0
64 64 0
0 0 0
0 64 0
0 0 0
0 64 0
0 64 0
0 64 0
0 64 0
0 0 0
0 0 0
0 0 0
64 64 64
128 128 128
64 64 64
64 64 64
64 64 64
64 64 64
64 64 64
64 64 64
64 64 64
0 64 0
0 64 64
0 64 64
0 0 0
0 64 64
0 64 0
0 64 0
0 64 64
0 0 0
0 0 0
0 0 0
0 0 0
64 64 0
64 64 64
64 64 64
64 64 64
64 64 64
64 64 0
64 64 0
64 64 64
64 64 64
64 64 64
128 128 128
128 128 64
64 64 64
64 64 64
64 64 0
64 64 0
64 64 64
64 64 64
64 64 64
6