P3
180 215
255
0 0 0
0 0 0
0 0 0
0 0 0
0 0 0
0 0 0
0 0 0
0 0 0
0 0 0
0 0 0
0 0 0
0 0 0
0 0 0
0 0 0
0 0 0
0 0 0
0 0 0
0 0 0
0 0 0
0 0 0
0 0 0
0 0 0
0 0 0
0 0 0
0 0 0
0 0 0
0 0 0
0 0 0
0 0 0
0 0 0
0 0 0
0 0 0
0 0 0
0 0 0
0 0 0
0 0 0
0 0 0
0 0 0
64 64 64
64 64 64
64 64 64
64 64 64
64 64 64
64 64 64
64 64 64
64 64 64
64 64 64
64 64 64
64 64 64
64 64 64
128 128 128
128 128 128
64 64 64
64 64 64
64 64 64
64 64 64
128 128 128
64 64 64
64 64 64
64 64 64
128 128 128
128 128 128
64 64 64
64 64 64
64 64 64
64 64 64
64 64 64
64 64 64
64 64 64
64 64 64
64 64 64
64 64 64
64 64 64
64 64 64
128 128 128
128 128 128
128 128 128
128 128 128
128 128 128
128 128 128
128 128 128
128 128 128
128 128 128
128 128 128
128 128 128
128 128 128
128 128 128
128 128 128
128 128 128
128 128 128
128 128 128
128 128 128
128 128 128
128 128 128
192 192 192
192 192 192
192 192 192
192 192 192
192 192 192
192 192 192
192 192 192
192 192 192
192 192 192
192 192 192
192 192 192
192 192 192
192 192 192
192 192 192
192 192 192
192 192 192
128 128 128
192 192 192
192 192 192
128 128 128
192 192 192
192 192 192
192 192 192
192 192 192
192 192 192
192 192 192
192 192 192
192 192 192
192 192 192
192 192 192
192 192 192
192 192 192
192 192 192
192 192 192
192 192 192
192 192 192
192 192 192
192 192 192
192 192 192
192 192 192
192 192 192
192 192 192
192 192 192
192 192 192
192 192 192
192 192 192
192 192 192
128 128 128
128 128 128
192 192 192
192 192 192
192 192 192
192 192 192
192 192 192
192 192 192
192 192 192
192 192 192
128 128 128
192 192 192
192 192 192
192 192 192
192 192 192
192 192 192
192 192 192
192 192 192
192 192 192
192 192 192
128 128 128
192 192 192
192 192 192
128 128 128
192 192 192
192 192 192
192 192 192
192 192 192
192 192 192
128 128 128
128 128 128
192 192 192
192 192 192
128 128 128
128 128 128
128 128 128
128 128 128
128 128 128
128 128 128
0 0 0
0 0 0
0 0 0
0 0 0
0 0 0
0 0 0
0 0 0
0 0 0
0 0 0
0 0 0
0 0 0
0 0 0
0 0 0
0 0 0
0 0 0
0 0 0
0 0 0
0 0 0
0 0 0
0 0 0
0 0 0
0 0 0
0 0 0
0 0 0
0 0 0
0 0 0
0 0 0
0 0 0
0 0 0
0 0 0
0 0 0
0 0 0
0 0 0
0 0 0
0 0 0
0 0 0
0 0 0
0 0 0
0 0 0
64 64 64
64 64 64
64 64 64
64 64 64
64 64 64
64 64 64
64 64 64
64 64 64
128 128 128
128 128 128
128 128 128
128 128 128
128 128 128
128 128 128
64 64 64
64 64 64
128 128 128
64 64 64
128 128 128
64 64 64
64 64 64
64 64 64
128 128 128
128 128 128
64 64 64
64 64 64
64 64 64
64 64 64
64 64 64
64 64 64
64 64 64
64 64 64
64 64 64
64 64 64
128 128 128
128 128 128
128 128 128
128 128 128
128 128 128
128 128 128
128 128 128
128 128 128
128 128 128
128 128 128
128 128 128
128 128 128
128 128 128
128 128 128
128 128 128
128 128 128
128 128 128
128 128 128
128 128 128
128 128 128
128 128 128
128 128 128
192 192 192
192 192 192
192 192 192
192 192 192
192 192 192
192 192 192
192 192 192
192 192 192
192 192 192
192 192 192
192 192 192
192 192 192
192 192 192
192 192 192
192 192 192
192 192 192
192 192 192
192 192 192
192 192 192
128 128 128
192 192 192
192 192 192
192 192 192
192 192 192
192 192 192
192 192 192
192 192 192
192 192 192
192 192 192
192 192 192
192 192 192
192 192 192
192 192 192
192 192 192
192 192 192
192 192 192
192 192 192
192 192 192
192 192 192
192 192 192
192 192 192
192 192 192
192 192 192
192 192 192
192 192 192
192 192 192
192 192 192
128 128 128
128 128 128
192 192 192
192 192 192
192 192 192
192 192 192
192 192 192
192 192 192
192 192 192
128 128 128
192 192 192
192 192 192
192 192 192
192 192 192
192 192 192
192 192 192
192 192 192
192 192 192
192 192 192
192 192 192
192 192 192
192 192 192
128 128 128
192 192 192
192 192 192
192 192 192
192 192 192
192 192 192
128 128 128
128 128 128
192 192 192
192 192 192
128 128 128
128 128 128
128 128 128
128 128 128
128 128 128
128 128 128
0 0 0
0 0 0
0 0 0
0 0 0
0 0 0
0 0 0
0 0 0
0 0 0
0 0 0
0 0 0
0 0 0
0 0 0
0 0 0
0 0 0
0 0 0
0 0 0
0 0 0
0 0 0
0 0 0
0 0 0
0 0 0
0 0 0
0 0 0
0 0 0
0 0 0
0 0 0
0 0 0
0 0 0
0 0 0
0 0 0
0 0 0
0 0 0
0 0 0
0 0 0
0 0 0
0 0 0
0 0 0
0 0 0
0 0 0
0 0 0
64 64 64
64 64 64
64 64 64
64 64 64
64 64 64
64 64 64
64 64 64
64 64 64
64 64 64
128 128 128
128 128 128
128 128 128
128 128 128
128 128 128
128 128 128
128 128 128
128 128 128
128 128 128
128 128 128
64 64 64
64 64 64
128 128 128
128 128 128
128 128 128
128 128 128
64 64 64
64 64 64
64 64 64
64 64 64
64 64 64
64 64 64
64 64 64
64 64 64
128 128 128
128 128 128
128 128 128
128 128 128
128 128 128
128 128 128
128 128 128
128 128 128
128 128 128
128 128 128
128 128 128
128 128 128
128 128 128
128 128 128
128 128 128
128 128 128
128 128 128
128 128 128
128 128 128
128 128 128
128 128 128
128 128 128
128 128 128
192 192 192
192 192 192
192 192 192
192 192 192
192 192 192
192 192 192
192 192 192
192 192 192
192 192 192
192 192 192
192 192 192
192 192 192
192 192 192
192 192 192
192 192 192
128 128 128
192 192 192
192 192 192
128 128 128
192 192 192
192 192 192
192 192 192
192 192 192
192 192 192
192 192 192
192 192 192
192 192 192
192 192 192
192 192 192
192 192 192
192 192 192
192 192 192
192 192 192
192 192 192
192 192 192
192 192 192
192 192 192
192 192 192
192 192 192
192 192 192
192 192 192
192 192 192
192 192 192
192 192 192
192 192 192
192 192 192
128 128 128
128 128 128
192 192 192
192 192 192
192 192 192
192 192 192
192 192 192
192 192 192
192 192 192
192 192 192
128 128 128
192 192 192
192 192 192
192 192 192
192 192 192
192 192 192
192 192 192
192 192 192
192 192 192
192 192 192
192 192 192
192 192 192
192 192 192
192 192 192
192 192 192
192 192 192
192 192 192
192 192 192
128 128 128
128 128 128
192 192 192
192 192 192
128 128 128
128 128 128
128 128 128
128 128 128
128 128 128
128 128 128
0 0 0
0 0 0
0 0 0
0 0 0
0 0 0
0 0 0
0 0 0
0 0 0
0 0 0
0 0 0
0 0 0
0 0 0
0 0 0
0 0 0
0 0 0
0 0 0
64 64 64
64 64 64
0 0 0
0 0 0
0 0 0
0 0 0
0 0 0
0 0 0
0 0 0
0 0 0
0 0 0
0 0 0
0 0 0
0 0 0
0 0 0
0 0 0
0 0 0
0 0 0
0 0 0
0 0 0
0 0 0
0 0 0
0 0 0
0 0 0
0 0 0
64 64 64
64 64 64
64 64 64
64 64 64
64 64 64
64 64 64
64 64 64
128 128 128
128 128 128
128 128 128
128 128 128
128 128 128
128 128 128
128 128 128
128 128 128
128 128 128
128 128 128
128 128 128
128 128 128
128 128 128
128 128 128
128 128 128
128 128 128
128 128 128
128 128 128
128 128 128
128 128 128
64 64 64
64 64 64
64 64 64
64 64 64
64 64 64
128 128 128
128 128 128
128 128 128
128 128 128
128 128 128
128 128 128
128 128 128
128 128 128
128 128 128
128 128 128
128 128 128
128 128 128
128 128 128
128 128 128
128 128 128
128 128 128
128 128 128
128 128 128
128 128 128
128 128 128
128 128 128
128 128 128
128 128 128
192 192 192
192 192 192
192 192 192
192 192 192
192 192 192
192 192 192
192 192 192
192 192 192
192 192 192
192 192 192
192 192 192
192 192 192
192 192 192
192 192 192
192 192 192
192 192 192
128 128 128
192 192 192
192 192 192
128 128 128
192 192 192
192 192 192
192 192 192
192 192 192
192 192 192
192 192 192
192 192 192
192 192 192
192 192 192
192 192 192
192 192 192
192 192 192
192 192 192
192 192 192
192 192 192
192 192 192
192 192 192
192 192 192
192 192 192
192 192 192
192 192 192
192 192 192
192 192 192
192 192 192
192 192 192
192 192 192
192 192 192
128 128 128
128 128 128
192 192 192
192 192 192
192 192 192
192 192 192
192 192 192
192 192 192
192 192 192
128 128 128
192 192 192
192 192 192
192 192 192
192 192 192
192 192 192
192 192 192
192 192 192
192 192 192
192 192 192
192 192 192
192 192 192
192 192 192
192 192 192
192 192 192
192 192 192
192 192 192
192 192 192
128 128 128
128 128 128
192 192 192
192 192 192
128 128 128
128 128 128
128 128 128
128 128 128
128 128 128
128 128 128
0 0 0
0 0 0
0 0 0
0 0 0
0 0 0
0 0 0
0 0 0
0 0 0
0 0 0
0 0 0
0 0 0
0 0 0
0 0 0
0 0 0
0 0 0
0 0 0
0 0 0
0 0 0
0 0 0
0 0 0
0 0 0
0 0 0
0 0 0
0 0 0
0 0 0
0 0 0
0 0 0
0 0 0
0 0 0
0 0 0
0 0 0
0 0 0
0 0 0
0 0 0
0 0 0
0 0 0
0 0 0
0 0 0
0 0 0
0 0 0
0 0 0
0 0 0
64 64 64
64 64 64
64 64 64
64 64 64
64 64 64
128 128 128
128 128 128
128 128 128
128 128 128
128 128 128
128 128 128
128 128 128
128 128 128
128 128 128
128 128 128
128 128 128
128 128 128
128 128 128
128 128 128
128 128 128
128 128 128
128 128 128
128 128 128
128 128 128
128 128 128
128 128 128
128 128 128
64 64 64
64 64 64
64 64 64
64 64 64
128 128 128
128 128 128
128 128 128
128 128 128
128 128 128
128 128 128
128 128 128
128 128 128
128 128 128
128 128 128
128 128 128
128 128 128
128 128 128
128 128 128
128 128 128
128 128 128
128 128 128
128 128 128
128 128 128
128 128 128
128 128 128
128 128 128
128 128 128
192 192 192
192 192 192
192 192 192
192 192 192
192 192 192
192 192 192
192 192 192
192 192 192
192 192 192
192 192 192
192 192 192
192 192 192
192 192 192
192 192 192
192 192 192
192 192 192
128 128 128
192 192 192
192 192 192
128 128 128
192 192 192
192 192 192
192 192 192
192 192 192
192 192 192
192 192 192
192 192 192
192 192 192
192 192 192
192 192 192
192 192 192
192 192 192
192 192 192
192 192 192
192 192 192
192 192 192
192 192 192
192 192 192
192 192 192
192 192 192
192 192 192
192 192 192
192 192 192
192 192 192
192 192 192
192 192 192
192 192 192
128 128 128
128 128 128
192 192 192
192 192 192
192 192 192
192 192 192
192 192 192
192 192 192
192 192 192
192 192 192
128 128 128
192 192 192
192 192 192
192 192 192
192 192 192
192 192 192
192 192 192
192 192 192
192 192 192
192 192 192
192 192 192
192 192 192
192 192 192
192 192 192
192 192 192
192 192 192
192 192 192
128 128 128
128 128 128
192 192 192
192 192 192
128 128 128
128 128 128
128 128 128
128 128 128
128 128 128
128 128 128
0 0 0
0 0 0
0 0 0
0 0 0
0 0 0
0 0 0
0 0 0
0 0 0
0 0 0
0 0 0
0 0 0
0 0 0
0 0 0
0 0 0
0 0 0
0 0 0
0 0 0
0 0 0
0 0 0
64 64 64
0 0 0
0 0 0
0 0 0
0 0 0
0 0 0
0 0 0
0 0 0
0 0 0
0 0 0
0 0 0
0 0 0
0 0 0
0 0 0
0 0 0
0 0 0
0 0 0
0 0 0
0 0 0
0 0 0
0 0 0
0 0 0
0 0 0
0 0 0
64 64 64
64 64 64
64 64 64
64 64 64
128 128 128
128 128 128
128 128 128
64 64 64
64 64 64
64 64 64
128 128 128
128 128 128
128 128 128
128 128 128
128 128 128
128 128 128
128 128 128
128 128 128
128 128 128
128 128 128
128 128 128
128 128 128
128 128 128
64 64 64
64 64 64
64 64 64
64 64 64
64 64 64
64 64 64
64 64 64
64 64 64
64 64 64
64 64 64
128 128 128
128 128 128
128 128 128
128 128 128
128 128 128
128 128 128
128 128 128
128 128 128
128 128 128
128 128 128
128 128 128
128 128 128
128 128 128
128 128 128
128 128 128
128 128 128
128 128 128
128 128 128
128 128 128
128 128 128
128 128 128
192 192 192
192 192 192
192 192 192
192 192 192
192 192 192
192 192 192
192 192 192
192 192 192
192 192 192
192 192 192
192 192 192
192 192 192
192 192 192
192 192 192
192 192 192
192 192 192
128 128 128
192 192 192
192 192 192
192 192 192
192 192 192
192 192 192
192 192 192
192 192 192
192 192 192
192 192 192
192 192 192
192 192 192
192 192 192
192 192 192
192 192 192
192 192 192
192 192 192
192 192 192
192 192 192
192 192 192
192 192 192
192 192 192
192 192 192
192 192 192
192 192 192
192 192 192
192 192 192
192 192 192
192 192 192
192 192 192
192 192 192
128 128 128
128 128 128
192 192 192
192 192 192
192 192 192
192 192 192
192 192 192
192 192 192
192 192 192
128 128 128
192 192 192
192 192 192
192 192 192
192 192 192
192 192 192
192 192 192
192 192 192
192 192 192
192 192 192
192 192 192
128 128 128
192 192 192
192 192 192
192 192 192
192 192 192
192 192 192
128 128 128
128 128 128
192 192 192
192 192 192
128 128 128
128 128 128
128 128 128
128 128 128
128 128 128
128 128 128
0 0 0
0 0 0
0 0 0
0 0 0
0 0 0
0 0 0
0 0 0
0 0 0
0 0 0
0 0 0
0 0 0
0 0 0
0 0 0
0 0 0
0 0 0
0 0 0
0 0 0
0 0 0
0 0 0
0 0 0
0 0 0
0 0 0
0 0 0
0 0 0
0 0 0
0 0 0
0 0 0
0 0 0
0 0 0
0 0 0
0 0 0
0 0 0
0 0 0
0 0 0
0 0 0
0 0 0
0 0 0
0 0 0
0 0 0
0 0 0
0 0 0
0 0 0
0 0 0
0 0 0
64 64 64
64 64 64
64 64 64
64 64 64
64 64 64
64 64 64
128 128 128
192 192 192
256 256 256
256 256 256
256 256 256
192 192 192
128 128 128
128 128 128
128 128 128
128 128 128
128 128 128
128 128 128
64 64 64
128 128 128
128 128 128
128 128 128
128 128 128
128 128 128
192 192 192
192 192 192
192 192 192
192 192 192
192 192 192
192 192 192
128 128 128
128 128 128
64 64 64
64 64 64
128 128 128
128 128 128
128 128 128
128 128 128
128 128 128
128 128 128
128 128 128
128 128 128
128 128 128
64 64 64
128 128 128
128 128 128
128 128 128
64 64 64
128 128 128
128 128 128
128 128 128
128 128 128
128 128 128
192 192 192
256 256 256
256 256 256
256 256 256
256 256 256
256 256 256
256 256 256
256 256 256
256 256 256
256 256 256
256 256 256
256 256 256
192 192 192
256 256 256
256 256 256
256 256 256
256 256 256
192 192 192
192 192 192
128 128 128
192 192 192
192 192 192
192 192 192
192 192 192
192 192 192
192 192 192
192 192 192
192 192 192
192 192 192
192 192 192
192 192 192
192 192 192
192 192 192
192 192 192
192 192 192
192 192 192
192 192 192
192 192 192
192 192 192
192 192 192
192 192 192
192 192 192
192 192 192
192 192 192
192 192 192
192 192 192
192 192 192
128 128 128
128 128 128
192 192 192
192 192 192
192 192 192
192 192 192
192 192 192
192 192 192
192 192 192
192 192 192
128 128 128
192 192 192
192 192 192
192 192 192
192 192 192
192 192 192
192 192 192
192 192 192
192 192 192
192 192 192
192 192 192
192 192 192
192 192 192
192 192 192
192 192 192
192 192 192
128 128 128
128 128 128
192 192 192
192 192 192
128 128 128
128 128 128
128 128 128
128 128 128
128 128 128
128 128 128
0 0 0
0 0 0
0 0 0
0 0 0
0 0 0
0 0 0
0 0 0
0 0 0
0 0 0
0 0 0
0 0 0
0 0 0
0 0 0
0 0 0
0 0 0
0 0 0
0 0 0
0 0 0
0 0 0
64 64 64
64 64 64
0 0 0
0 0 0
0 0 0
0 0 0
0 0 0
0 0 0
0 0 0
0 0 0
0 0 0
0 0 0
0 0 0
0 0 0
0 0 0
0 0 0
0 0 0
0 0 0
0 0 0
0 0 0
0 0 0
0 0 0
0 0 0
0 0 0
0 0 0
64 64 64
64 64 64
64 64 64
64 64 64
128 128 128
128 128 128
256 256 256
256 256 256
192 192 192
128 128 128
64 64 64
128 128 128
256 256 256
192 192 192
192 192 192
128 128 128
192 192 192
256 256 256
256 256 256
256 256 256
256 256 256
256 256 256
256 256 256
256 256 256
256 256 256
256 256 256
256 256 256
256 256 256
256 256 256
256 256 256
256 256 256
256 256 256
256 256 256
192 192 192
192 192 192
128 128 128
128 128 128
128 128 128
128 128 128
128 128 128
128 128 128
192 192 192
192 192 192
256 256 256
256 256 256
256 256 256
256 256 256
192 192 192
128 128 128
128 128 128
192 192 192
256 256 256
256 256 256
256 256 256
256 256 256
256 256 256
256 256 256
256 256 256
256 256 256
256 256 256
256 256 256
256 256 256
256 256 256
256 256 256
256 256 256
256 256 256
256 256 256
256 256 256
256 256 256
256 256 256
256 256 256
256 256 256
192 192 192
192 192 192
192 192 192
192 192 192
192 192 192
192 192 192
192 192 192
192 192 192
192 192 192
192 192 192
192 192 192
192 192 192
192 192 192
192 192 192
192 192 192
192 192 192
192 192 192
192 192 192
192 192 192
192 192 192
192 192 192
192 192 192
192 192 192
192 192 192
192 192 192
192 192 192
192 192 192
192 192 192
192 192 192
128 128 128
192 192 192
192 192 192
192 192 192
192 192 192
192 192 192
192 192 192
192 192 192
192 192 192
128 128 128
192 192 192
192 192 192
192 192 192
192 192 192
192 192 192
192 192 192
192 192 192
192 192 192
192 192 192
192 192 192
192 192 192
192 192 192
192 192 192
192 192 192
192 192 192
128 128 128
128 128 128
192 192 192
192 192 192
128 128 128
128 128 128
128 128 128
128 128 128
128 128 128
128 128 128
0 0 0
0 0 0
0 0 0
0 0 0
0 0 0
0 0 0
0 0 0
0 0 0
0 0 0
0 0 0
0 0 0
0 0 0
0 0 0
0 0 0
0 0 0
0 0 0
0 0 0
0 0 0
0 0 0
0 0 0
0 0 0
64 64 64
0 0 0
0 0 0
0 0 0
0 0 0
0 0 0
0 0 0
0 0 0
0 0 0
0 0 0
0 0 0
0 0 0
0 0 0
0 0 0
0 0 0
0 0 0
0 0 0
0 0 0
0 0 0
0 0 0
0 0 0
0 0 0
0 0 0
0 0 0
64 64 64
128 128 128
128 128 128
128 128 128
256 256 256
256 256 256
192 192 192
64 64 64
64 64 64
64 64 64
64 64 64
64 64 64
192 192 192
256 256 256
256 256 256
256 256 256
256 256 256
256 256 256
256 256 256
256 256 256
256 256 256
256 256 256
256 256 256
256 256 256
256 256 256
256 256 256
256 256 256
256 256 256
256 256 256
256 256 256
256 256 256
256 256 256
256 256 256
256 256 256
256 256 256
256 256 256
256 256 256
256 256 256
256 256 256
256 256 256
256 256 256
256 256 256
256 256 256
256 256 256
256 256 256
256 256 256
256 256 256
256 256 256
256 256 256
256 256 256
256 256 256
256 256 256
256 256 256
256 256 256
256 256 256
256 256 256
256 256 256
256 256 256
256 256 256
256 256 256
256 256 256
256 256 256
256 256 256
256 256 256
256 256 256
256 256 256
256 256 256
256 256 256
256 256 256
256 256 256
256 256 256
256 256 256
256 256 256
256 256 256
192 192 192
192 192 192
192 192 192
192 192 192
192 192 192
192 192 192
192 192 192
192 192 192
192 192 192
192 192 192
192 192 192
192 192 192
192 192 192
192 192 192
192 192 192
192 192 192
192 192 192
192 192 192
192 192 192
192 192 192
192 192 192
192 192 192
192 192 192
192 192 192
192 192 192
192 192 192
128 128 128
128 128 128
192 192 192
192 192 192
192 192 192
192 192 192
192 192 192
192 192 192
192 192 192
192 192 192
128 128 128
192 192 192
192 192 192
192 192 192
192 192 192
192 192 192
192 192 192
192 192 192
192 192 192
192 192 192
192 192 192
192 192 192
192 192 192
192 192 192
192 192 192
128 128 128
128 128 128
192 192 192
192 192 192
128 128 128
128 128 128
128 128 128
128 128 128
128 128 128
128 128 128
0 0 0
0 0 0
0 0 0
0 0 0
0 0 0
0 0 0
0 0 0
0 0 0
0 0 0
0 0 0
0 0 0
0 0 0
0 0 0
0 0 0
0 0 0
0 0 0
0 0 0
0 0 0
0 0 0
0 0 0
0 0 0
64 64 64
64 64 64
0 0 0
0 0 0
0 0 0
0 0 0
0 0 0
0 0 0
0 0 0
0 0 0
0 0 0
0 0 0
0 0 0
0 0 0
0 0 0
0 0 0
0 0 0
0 0 0
64 64 64
64 64 64
128 128 128
192 192 192
192 192 192
128 128 128
64 64 64
128 128 128
128 128 128
192 192 192
256 256 256
192 192 192
128 128 128
64 64 64
64 64 64
64 64 64
64 64 64
192 192 192
256 256 256
256 256 256
256 256 256
256 256 256
256 256 256
192 192 192
256 256 256
256 256 256
256 256 256
256 256 256
256 256 256
256 256 256
256 256 256
256 256 256
256 256 256
192 192 192
192 192 192
192 192 192
192 192 192
192 192 192
192 192 192
192 192 192
256 256 256
256 256 256
256 256 256
256 256 256
256 256 256
256 256 256
256 256 256
256 256 256
256 256 256
256 256 256
256 256 256
256 256 256
256 256 256
256 256 256
256 256 256
256 256 256
256 256 256
256 256 256
256 256 256
256 256 256
256 256 256
256 256 256
256 256 256
256 256 256
256 256 256
256 256 256
256 256 256
256 256 256
256 256 256
256 256 256
256 256 256
256 256 256
256 256 256
256 256 256
256 256 256
256 256 256
256 256 256
192 192 192
192 192 192
192 192 192
192 192 192
256 256 256
192 192 192
192 192 192
192 192 192
192 192 192
192 192 192
192 192 192
192 192 192
192 192 192
192 192 192
192 192 192
192 192 192
192 192 192
192 192 192
192 192 192
192 192 192
192 192 192
192 192 192
192 192 192
192 192 192
192 192 192
192 192 192
192 192 192
192 192 192
192 192 192
192 192 192
128 128 128
192 192 192
192 192 192
192 192 192
192 192 192
192 192 192
192 192 192
192 192 192
192 192 192
128 128 128
192 192 192
192 192 192
192 192 192
192 192 192
192 192 192
192 192 192
192 192 192
192 192 192
192 192 192
192 192 192
192 192 192
192 192 192
192 192 192
192 192 192
128 128 128
128 128 128
192 192 192
192 192 192
128 128 128
128 128 128
128 128 128
128 128 128
128 128 128
128 128 128
0 0 0
0 0 0
0 0 0
0 0 0
0 0 0
0 0 0
0 0 0
0 0 0
0 0 0
0 0 0
0 0 0
0 0 0
0 0 0
0 0 0
0 0 0
0 0 0
0 0 0
0 0 0
0 0 0
0 0 0
0 0 0
0 0 0
0 0 0
64 64 64
0 0 0
0 0 0
0 0 0
0 0 0
0 0 0
0 0 0
0 0 0
0 0 0
0 0 0
0 0 0
0 0 0
0 0 0
0 0 0
64 64 64
192 192 192
256 256 256
256 256 256
192 192 192
256 256 256
256 256 256
256 256 256
192 192 192
192 192 192
192 192 192
192 192 192
192 192 192
64 64 64
64 64 64
64 64 64
64 64 64
64 64 64
256 256 256
256 256 256
256 256 256
256 256 256
192 192 192
128 128 128
192 192 192
256 256 256
256 256 256
256 256 256
192 192 192
256 256 256
256 256 256
256 256 256
192 192 192
256 256 256
192 192 192
192 192 192
256 256 256
256 256 256
192 192 192
192 192 192
192 192 192
192 192 192
192 192 192
192 192 192
192 192 192
256 256 256
256 256 256
256 256 256
192 192 192
192 192 192
192 192 192
192 192 192
256 256 256
256 256 256
256 256 256
256 256 256
256 256 256
256 256 256
256 256 256
256 256 256
256 256 256
256 256 256
256 256 256
256 256 256
256 256 256
256 256 256
256 256 256
256 256 256
256 256 256
256 256 256
256 256 256
256 256 256
256 256 256
256 256 256
256 256 256
256 256 256
192 192 192
192 192 192
192 192 192
128 128 128
128 128 128
128 128 128
128 128 128
128 128 128
192 192 192
256 256 256
256 256 256
192 192 192
192 192 192
192 192 192
192 192 192
192 192 192
192 192 192
192 192 192
192 192 192
192 192 192
192 192 192
192 192 192
192 192 192
192 192 192
192 192 192
192 192 192
192 192 192
192 192 192
192 192 192
192 192 192
192 192 192
192 192 192
192 192 192
128 128 128
128 128 128
192 192 192
192 192 192
192 192 192
192 192 192
192 192 192
192 192 192
192 192 192
192 192 192
192 192 192
192 192 192
192 192 192
192 192 192
192 192 192
192 192 192
192 192 192
192 192 192
192 192 192
192 192 192
192 192 192
192 192 192
192 192 192
192 192 192
128 128 128
128 128 128
192 192 192
192 192 192
128 128 128
128 128 128
128 128 128
128 128 128
128 128 128
128 128 128
0 0 0
0 0 0
0 0 0
0 0 0
0 0 0
0 0 0
0 0 0
0 0 0
0 0 0
0 0 0
0 0 0
0 0 0
0 0 0
0 0 0
0 0 0
0 0 0
0 0 0
0 0 0
0 0 0
0 0 0
0 0 0
0 0 0
0 0 0
0 0 0
0 0 0
0 0 0
0 0 0
0 0 0
0 0 0
0 0 0
0 0 0
0 0 0
0 0 0
0 0 0
0 0 0
0 0 0
128 128 128
256 256 256
256 256 256
192 192 192
192 192 192
128 128 128
192 192 192
128 128 128
128 128 128
128 128 128
192 192 192
256 256 256
256 256 256
192 192 192
128 128 128
64 64 64
64 64 64
128 128 128
256 256 256
256 256 256
192 192 192
128 128 128
64 64 64
64 64 64
192 192 192
256 256 256
192 192 192
192 192 192
256 256 256
256 256 256
192 192 192
192 192 192
192 192 192
256 256 256
256 256 256
256 256 256
256 256 256
256 256 256
192 192 192
192 192 192
192 192 192
192 192 192
192 192 192
192 192 192
192 192 192
192 192 192
192 192 192
192 192 192
192 192 192
192 192 192
192 192 192
128 128 128
128 128 128
256 256 256
256 256 256
256 256 256
256 256 256
256 256 256
256 256 256
256 256 256
256 256 256
256 256 256
256 256 256
256 256 256
192 192 192
256 256 256
256 256 256
256 256 256
256 256 256
192 192 192
192 192 192
192 192 192
192 192 192
128 128 128
128 128 128
128 128 128
128 128 128
128 128 128
192 192 192
192 192 192
192 192 192
128 128 128
64 64 64
64 64 64
64 64 64
128 128 128
64 64 64
128 128 128
192 192 192
192 192 192
192 192 192
192 192 192
192 192 192
192 192 192
192 192 192
192 192 192
192 192 192
192 192 192
192 192 192
192 192 192
192 192 192
192 192 192
192 192 192
192 192 192
192 192 192
192 192 192
192 192 192
192 192 192
192 192 192
192 192 192
128 128 128
128 128 128
192 192 192
192 192 192
192 192 192
192 192 192
192 192 192
192 192 192
192 192 192
192 192 192
192 192 192
192 192 192
192 192 192
192 192 192
192 192 192
192 192 192
192 192 192
192 192 192
192 192 192
192 192 192
192 192 192
192 192 192
192 192 192
192 192 192
128 128 128
128 128 128
192 192 192
192 192 192
128 128 128
128 128 128
128 128 128
128 128 128
128 128 128
128 128 128
0 0 0
0 0 0
0 0 0
0 0 0
0 0 0
0 0 0
0 0 0
0 0 0
0 0 0
0 0 0
0 0 0
0 0 0
0 0 0
0 0 0
0 0 0
0 0 0
0 0 0
0 0 0
0 0 0
0 0 0
0 0 0
0 0 0
0 0 0
0 0 0
0 0 0
64 64 64
0 0 0
0 0 0
0 0 0
0 0 0
0 0 0
0 0 0
0 0 0
0 0 0
0 0 0
128 128 128
256 256 256
192 192 192
192 192 192
128 128 128
64 64 64
64 64 64
64 64 64
64 64 64
64 64 64
64 64 64
64 64 64
64 64 64
192 192 192
192 192 192
256 256 256
256 256 256
256 256 256
256 256 256
256 256 256
192 192 192
64 64 64
64 64 64
128 128 128
256 256 256
256 256 256
192 192 192
192 192 192
256 256 256
256 256 256
192 192 192
128 128 128
192 192 192
256 256 256
256 256 256
256 256 256
256 256 256
256 256 256
256 256 256
192 192 192
128 128 128
128 128 128
192 192 192
192 192 192
128 128 128
128 128 128
128 128 128
128 128 128
128 128 128
128 128 128
128 128 128
192 192 192
256 256 256
256 256 256
256 256 256
256 256 256
256 256 256
256 256 256
256 256 256
256 256 256
192 192 192
128 128 128
128 128 128
192 192 192
192 192 192
192 192 192
256 256 256
128 128 128
128 128 128
128 128 128
128 128 128
128 128 128
128 128 128
128 128 128
128 128 128
128 128 128
128 128 128
128 128 128
128 128 128
128 128 128
128 128 128
128 128 128
192 192 192
64 64 64
64 64 64
64 64 64
64 64 64
64 64 64
64 64 64
64 64 64
64 64 64
64 64 64
128 128 128
192 192 192
192 192 192
192 192 192
192 192 192
192 192 192
192 192 192
192 192 192
192 192 192
192 192 192
192 192 192
192 192 192
192 192 192
192 192 192
192 192 192
192 192 192
192 192 192
192 192 192
192 192 192
192 192 192
128 128 128
192 192 192
192 192 192
192 192 192
192 192 192
192 192 192
192 192 192
192 192 192
192 192 192
192 192 192
192 192 192
192 192 192
192 192 192
192 192 192
192 192 192
192 192 192
192 192 192
192 192 192
192 192 192
192 192 192
192 192 192
192 192 192
192 192 192
128 128 128
128 128 128
192 192 192
192 192 192
128 128 128
128 128 128
128 128 128
128 128 128
128 128 128
128 128 128
0 0 0
0 0 0
0 0 0
0 0 0
0 0 0
0 0 0
0 0 0
0 0 0
0 0 0
0 0 0
0 0 0
0 0 0
0 0 0
0 0 0
0 0 0
0 0 0
0 0 0
0 0 0
0 0 0
0 0 0
0 0 0
0 0 0
0 0 0
0 0 0
64 64 64
0 0 0
0 0 0
0 0 0
0 0 0
64 64 64
0 0 0
0 0 0
0 0 0
0 0 0
128 128 128
256 256 256
192 192 192
192 192 192
128 128 128
64 64 64
0 0 0
64 64 64
64 64 64
64 64 64
64 64 64
0 0 0
64 64 64
64 64 64
64 64 64
128 128 128
192 192 192
256 256 256
256 256 256
256 256 256
192 192 192
128 128 128
64 64 64
64 64 64
256 256 256
256 256 256
256 256 256
256 256 256
256 256 256
192 192 192
192 192 192
128 128 128
192 192 192
256 256 256
256 256 256
256 256 256
256 256 256
192 192 192
192 192 192
192 192 192
128 128 128
64 64 64
64 64 64
128 128 128
128 128 128
128 128 128
128 128 128
128 128 128
128 128 128
128 128 128
192 192 192
128 128 128
128 128 128
128 128 128
192 192 192
256 256 256
256 256 256
256 256 256
192 192 192
192 192 192
192 192 192
128 128 128
128 128 128
128 128 128
64 64 64
128 128 128
128 128 128
256 256 256
128 128 128
0 0 0
0 0 0
0 0 0
64 64 64
64 64 64
128 128 128
128 128 128
128 128 128
128 128 128
128 128 128
128 128 128
128 128 128
128 128 128
192 192 192
256 256 256
128 128 128
64 64 64
64 64 64
64 64 64
64 64 64
64 64 64
64 64 64
64 64 64
64 64 64
64 64 64
64 64 64
64 64 64
128 128 128
192 192 192
192 192 192
192 192 192
192 192 192
192 192 192
192 192 192
192 192 192
192 192 192
192 192 192
192 192 192
192 192 192
192 192 192
192 192 192
192 192 192
192 192 192
192 192 192
128 128 128
128 128 128
192 192 192
192 192 192
192 192 192
192 192 192
192 192 192
192 192 192
192 192 192
192 192 192
192 192 192
192 192 192
192 192 192
192 192 192
192 192 192
192 192 192
192 192 192
192 192 192
192 192 192
192 192 192
192 192 192
192 192 192
192 192 192
128 128 128
128 128 128
192 192 192
192 192 192
128 128 128
128 128 128
128 128 128
128 128 128
128 128 128
128 128 128
0 0 0
0 0 0
0 0 0
0 0 0
0 0 0
0 0 0
0 0 0
0 0 0
0 0 0
0 0 0
0 0 0
0 0 0
0 0 0
0 0 0
0 0 0
0 0 0
0 0 0
0 0 0
0 0 0
0 0 0
0 0 0
0 0 0
0 0 0
0 0 0
0 0 0
0 0 0
64 64 64
0 0 0
0 0 0
0 0 0
0 0 0
0 0 0
0 0 0
64 64 64
256 256 256
192 192 192
128 128 128
64 64 64
64 64 64
64 64 64
64 64 64
64 64 64
64 64 64
0 0 0
64 64 64
0 0 0
0 0 0
0 0 0
64 64 64
64 64 64
128 128 128
192 192 192
256 256 256
256 256 256
128 128 128
128 128 128
192 192 192
256 256 256
256 256 256
256 256 256
256 256 256
256 256 256
192 192 192
128 128 128
192 192 192
192 192 192
192 192 192
256 256 256
256 256 256
256 256 256
192 192 192
192 192 192
192 192 192
192 192 192
128 128 128
128 128 128
128 128 128
64 64 64
64 64 64
128 128 128
128 128 128
128 128 128
128 128 128
128 128 128
128 128 128
192 192 192
192 192 192
192 192 192
256 256 256
256 256 256
256 256 256
256 256 256
192 192 192
128 128 128
64 64 64
64 64 64
64 64 64
128 128 128
128 128 128
128 128 128
128 128 128
192 192 192
256 256 256
256 256 256
128 128 128
64 64 64
128 128 128
192 192 192
128 128 128
64 64 64
64 64 64
64 64 64
64 64 64
64 64 64
64 64 64
128 128 128
128 128 128
128 128 128
128 128 128
128 128 128
128 128 128
192 192 192
192 192 192
128 128 128
128 128 128
64 64 64
64 64 64
64 64 64
64 64 64
128 128 128
128 128 128
192 192 192
192 192 192
192 192 192
192 192 192
192 192 192
192 192 192
192 192 192
192 192 192
192 192 192
192 192 192
192 192 192
192 192 192
192 192 192
192 192 192
192 192 192
192 192 192
192 192 192
128 128 128
192 192 192
192 192 192
192 192 192
192 192 192
192 192 192
192 192 192
192 192 192
192 192 192
192 192 192
192 192 192
192 192 192
192 192 192
192 192 192
192 192 192
128 128 128
192 192 192
192 192 192
192 192 192
192 192 192
192 192 192
192 192 192
128 128 128
128 128 128
192 192 192
192 192 192
128 128 128
128 128 128
128 128 128
128 128 128
128 128 128
128 128 128
0 0 0
0 0 0
0 0 0
0 0 0
0 0 0
0 0 0
0 0 0
0 0 0
0 0 0
0 0 0
0 0 0
0 0 0
0 0 0
0 0 0
0 0 0
0 0 0
0 0 0
0 0 0
0 0 0
0 0 0
0 0 0
0 0 0
0 0 0
0 0 0
0 0 0
0 0 0
0 0 0
0 0 0
64 64 64
0 0 0
64 64 64
0 0 0
128 128 128
256 256 256
192 192 192
128 128 128
128 128 128
64 64 64
64 64 64
64 64 64
64 64 64
64 64 64
64 64 64
64 64 64
64 64 64
0 0 0
0 0 0
0 0 0
0 0 0
128 128 128
128 128 128
128 128 128
256 256 256
256 256 256
192 192 192
192 192 192
256 256 256
256 256 256
256 256 256
256 256 256
256 256 256
192 192 192
128 128 128
192 192 192
192 192 192
256 256 256
192 192 192
256 256 256
192 192 192
192 192 192
192 192 192
192 192 192
192 192 192
192 192 192
192 192 192
128 128 128
64 64 64
64 64 64
64 64 64
64 64 64
64 64 64
128 128 128
128 128 128
64 64 64
128 128 128
128 128 128
192 192 192
192 192 192
192 192 192
192 192 192
192 192 192
256 256 256
256 256 256
256 256 256
128 128 128
64 64 64
64 64 64
64 64 64
128 128 128
128 128 128
128 128 128
128 128 128
192 192 192
256 256 256
256 256 256
256 256 256
256 256 256
256 256 256
256 256 256
256 256 256
256 256 256
256 256 256
192 192 192
128 128 128
64 64 64
64 64 64
64 64 64
192 192 192
256 256 256
256 256 256
256 256 256
256 256 256
256 256 256
256 256 256
256 256 256
256 256 256
192 192 192
64 64 64
64 64 64
64 64 64
64 64 64
128 128 128
192 192 192
192 192 192
192 192 192
192 192 192
192 192 192
192 192 192
192 192 192
192 192 192
192 192 192
192 192 192
192 192 192
192 192 192
192 192 192
192 192 192
192 192 192
192 192 192
128 128 128
128 128 128
192 192 192
192 192 192
192 192 192
192 192 192
192 192 192
192 192 192
192 192 192
192 192 192
192 192 192
192 192 192
192 192 192
192 192 192
192 192 192
128 128 128
192 192 192
192 192 192
192 192 192
192 192 192
192 192 192
192 192 192
128 128 128
128 128 128
192 192 192
192 192 192
128 128 128
128 128 128
128 128 128
128 128 128
128 128 128
128 128 128
0 0 0
0 0 0
0 0 0
0 0 0
0 0 0
0 0 0
0 0 0
0 0 0
0 0 0
0 0 0
0 0 0
0 0 0
0 0 0
0 0 0
0 0 0
0 0 0
0 0 0
0 0 0
0 0 0
0 0 0
0 0 0
0 0 0
0 0 0
0 0 0
0 0 0
0 0 0
0 0 0
64 64 64
64 64 64
64 64 64
0 0 0
64 64 64
192 192 192
256 256 256
128 128 128
64 64 64
64 64 64
64 64 64
64 64 64
64 64 64
64 64 64
64 64 64
64 64 64
0 0 0
0 0 0
0 0 0
0 0 0
0 0 0
0 0 0
0 0 0
128 128 128
256 256 256
256 256 256
256 256 256
256 256 256
256 256 256
256 256 256
256 256 256
256 256 256
256 256 256
192 192 192
128 128 128
128 128 128
256 256 256
256 256 256
256 256 256
192 192 192
256 256 256
192 192 192
192 192 192
192 192 192
192 192 192
192 192 192
192 192 192
192 192 192
192 192 192
128 128 128
64 64 64
128 128 128
64 64 64
64 64 64
64 64 64
64 64 64
64 64 64
64 64 64
128 128 128
64 64 64
128 128 128
192 192 192
192 192 192
192 192 192
256 256 256
256 256 256
192 192 192
192 192 192
128 128 128
0 0 0
64 64 64
64 64 64
64 64 64
128 128 128
192 192 192
128 128 128
192 192 192
256 256 256
256 256 256
256 256 256
256 256 256
256 256 256
256 256 256
256 256 256
256 256 256
256 256 256
256 256 256
256 256 256
192 192 192
192 192 192
256 256 256
256 256 256
256 256 256
256 256 256
256 256 256
256 256 256
256 256 256
256 256 256
256 256 256
256 256 256
256 256 256
128 128 128
64 64 64
64 64 64
192 192 192
192 192 192
192 192 192
192 192 192
192 192 192
192 192 192
192 192 192
192 192 192
192 192 192
192 192 192
192 192 192
192 192 192
192 192 192
192 192 192
192 192 192
192 192 192
192 192 192
192 192 192
128 128 128
192 192 192
192 192 192
192 192 192
192 192 192
192 192 192
192 192 192
192 192 192
192 192 192
192 192 192
192 192 192
192 192 192
192 192 192
192 192 192
128 128 128
192 192 192
192 192 192
192 192 192
192 192 192
192 192 192
192 192 192
128 128 128
128 128 128
192 192 192
192 192 192
128 128 128
128 128 128
128 128 128
128 128 128
128 128 128
128 128 128
0 0 0
0 0 0
0 0 0
0 0 0
0 0 0
0 0 0
0 0 0
0 0 0
0 0 0
0 0 0
0 0 0
0 0 0
0 0 0
0 0 0
0 0 0
0 0 0
0 0 0
0 0 0
0 0 0
0 0 0
0 0 0
0 0 0
0 0 0
0 0 0
0 0 0
0 0 0
0 0 0
64 64 64
64 64 64
64 64 64
0 0 0
128 128 128
256 256 256
192 192 192
64 64 64
64 64 64
64 64 64
64 64 64
64 64 64
64 64 64
64 64 64
64 64 64
64 64 64
0 0 0
0 0 0
128 128 128
192 192 192
192 192 192
64 64 64
0 0 0
192 192 192
256 256 256
256 256 256
256 256 256
256 256 256
256 256 256
256 256 256
256 256 256
256 256 256
256 256 256
128 128 128
128 128 128
256 256 256
256 256 256
256 256 256
256 256 256
256 256 256
192 192 192
192 192 192
128 128 128
192 192 192
128 128 128
128 128 128
192 192 192
192 192 192
192 192 192
192 192 192
192 192 192
128 128 128
128 128 128
64 64 64
64 64 64
64 64 64
64 64 64
64 64 64
128 128 128
128 128 128
64 64 64
128 128 128
192 192 192
192 192 192
192 192 192
128 128 128
128 128 128
192 192 192
192 192 192
64 64 64
64 64 64
128 128 128
128 128 128
128 128 128
192 192 192
192 192 192
256 256 256
256 256 256
256 256 256
256 256 256
256 256 256
256 256 256
256 256 256
256 256 256
256 256 256
256 256 256
256 256 256
256 256 256
256 256 256
256 256 256
256 256 256
192 192 192
192 192 192
192 192 192
256 256 256
192 192 192
192 192 192
192 192 192
192 192 192
192 192 192
192 192 192
128 128 128
64 64 64
64 64 64
192 192 192
192 192 192
192 192 192
192 192 192
192 192 192
192 192 192
192 192 192
192 192 192
192 192 192
192 192 192
192 192 192
192 192 192
192 192 192
192 192 192
192 192 192
192 192 192
192 192 192
192 192 192
128 128 128
128 128 128
192 192 192
192 192 192
192 192 192
192 192 192
192 192 192
192 192 192
192 192 192
192 192 192
192 192 192
192 192 192
192 192 192
192 192 192
192 192 192
192 192 192
192 192 192
192 192 192
192 192 192
192 192 192
192 192 192
128 128 128
128 128 128
192 192 192
192 192 192
128 128 128
128 128 128
128 128 128
128 128 128
128 128 128
128 128 128
0 0 0
0 0 0
0 0 0
0 0 0
0 0 0
0 0 0
0 0 0
0 0 0
0 0 0
0 0 0
0 0 0
0 0 0
0 0 0
0 0 0
0 0 0
0 0 0
0 0 0
0 0 0
0 0 0
0 0 0
0 0 0
0 0 0
0 0 0
0 0 0
0 0 0
0 0 0
0 0 0
64 64 64
64 64 64
64 64 64
0 0 0
192 192 192
128 128 128
64 64 64
64 64 64
64 64 64
64 64 64
64 64 64
64 64 64
0 0 0
0 0 0
64 64 64
0 0 0
0 0 0
256 256 256
256 256 256
256 256 256
256 256 256
256 256 256
192 192 192
256 256 256
256 256 256
256 256 256
256 256 256
256 256 256
192 192 192
256 256 256
256 256 256
256 256 256
192 192 192
192 192 192
256 256 256
256 256 256
256 256 256
256 256 256
256 256 256
256 256 256
192 192 192
128 128 128
128 128 128
64 64 64
64 64 64
128 128 128
128 128 128
128 128 128
128 128 128
192 192 192
192 192 192
192 192 192
128 128 128
0 0 0
0 0 0
64 64 64
64 64 64
64 64 64
64 64 64
128 128 128
128 128 128
128 128 128
64 64 64
64 64 64
128 128 128
128 128 128
192 192 192
256 256 256
256 256 256
256 256 256
256 256 256
256 256 256
256 256 256
256 256 256
256 256 256
256 256 256
256 256 256
256 256 256
256 256 256
256 256 256
256 256 256
256 256 256
192 192 192
192 192 192
192 192 192
256 256 256
256 256 256
256 256 256
256 256 256
192 192 192
192 192 192
192 192 192
192 192 192
192 192 192
128 128 128
64 64 64
64 64 64
64 64 64
64 64 64
64 64 64
64 64 64
128 128 128
192 192 192
128 128 128
256 256 256
192 192 192
192 192 192
192 192 192
192 192 192
192 192 192
192 192 192
192 192 192
192 192 192
192 192 192
192 192 192
192 192 192
192 192 192
192 192 192
192 192 192
192 192 192
192 192 192
192 192 192
128 128 128
128 128 128
192 192 192
192 192 192
192 192 192
192 192 192
192 192 192
192 192 192
192 192 192
192 192 192
192 192 192
192 192 192
192 192 192
192 192 192
128 128 128
192 192 192
192 192 192
192 192 192
192 192 192
192 192 192
192 192 192
128 128 128
128 128 128
192 192 192
192 192 192
128 128 128
128 128 128
128 128 128
128 128 128
128 128 128
128 128 128
0 0 0
0 0 0
0 0 0
0 0 0
0 0 0
0 0 0
0 0 0
0 0 0
0 0 0
0 0 0
0 0 0
0 0 0
0 0 0
0 0 0
0 0 0
0 0 0
0 0 0
0 0 0
0 0 0
0 0 0
0 0 0
0 0 0
0 0 0
0 0 0
0 0 0
0 0 0
0 0 0
64 64 64
64 64 64
64 64 64
64 64 64
192 192 192
0 0 0
64 64 64
64 64 64
64 64 64
64 64 64
64 64 64
64 64 64
64 64 64
0 0 0
0 0 0
64 64 64
256 256 256
256 256 256
256 256 256
256 256 256
256 256 256
256 256 256
256 256 256
256 256 256
256 256 256
256 256 256
256 256 256
192 192 192
192 192 192
256 256 256
256 256 256
192 192 192
192 192 192
256 256 256
256 256 256
256 256 256
192 192 192
192 192 192
192 192 192
192 192 192
192 192 192
64 64 64
64 64 64
64 64 64
64 64 64
64 64 64
128 128 128
128 128 128
64 64 64
64 64 64
128 128 128
128 128 128
256 256 256
128 128 128
0 0 0
0 0 0
0 0 0
64 64 64
64 64 64
64 64 64
128 128 128
128 128 128
192 192 192
192 192 192
192 192 192
192 192 192
256 256 256
256 256 256
192 192 192
256 256 256
192 192 192
192 192 192
128 128 128
128 128 128
192 192 192
192 192 192
192 192 192
192 192 192
192 192 192
192 192 192
192 192 192
192 192 192
128 128 128
192 192 192
256 256 256
256 256 256
256 256 256
192 192 192
192 192 192
256 256 256
192 192 192
192 192 192
192 192 192
128 128 128
64 64 64
64 64 64
64 64 64
64 64 64
64 64 64
64 64 64
64 64 64
64 64 64
64 64 64
128 128 128
256 256 256
256 256 256
256 256 256
256 256 256
192 192 192
192 192 192
192 192 192
192 192 192
192 192 192
192 192 192
192 192 192
192 192 192
192 192 192
192 192 192
192 192 192
192 192 192
192 192 192
192 192 192
192 192 192
128 128 128
192 192 192
192 192 192
192 192 192
192 192 192
192 192 192
192 192 192
192 192 192
192 192 192
192 192 192
192 192 192
192 192 192
192 192 192
128 128 128
192 192 192
192 192 192
192 192 192
192 192 192
192 192 192
192 192 192
128 128 128
128 128 128
192 192 192
192 192 192
128 128 128
128 128 128
128 128 128
128 128 128
128 128 128
128 128 128
0 0 0
0 0 0
0 0 0
0 0 0
0 0 0
0 0 0
0 0 0
0 0 0
0 0 0
0 0 0
0 0 0
0 0 0
0 0 0
0 0 0
0 0 0
0 0 0
0 0 0
0 0 0
0 0 0
0 0 0
0 0 0
0 0 0
0 0 0
0 0 0
0 0 0
0 0 0
0 0 0
0 0 0
64 64 64
0 0 0
128 128 128
128 128 128
64 64 64
64 64 64
64 64 64
64 64 64
64 64 64
64 64 64
64 64 64
64 64 64
0 0 0
0 0 0
192 192 192
256 256 256
256 256 256
192 192 192
256 256 256
256 256 256
256 256 256
256 256 256
256 256 256
256 256 256
192 192 192
256 256 256
192 192 192
192 192 192
256 256 256
192 192 192
192 192 192
192 192 192
256 256 256
192 192 192
192 192 192
128 128 128
128 128 128
128 128 128
128 128 128
128 128 128
64 64 64
0 0 0
0 0 0
64 64 64
64 64 64
64 64 64
64 64 64
64 64 64
64 64 64
64 64 64
64 64 64
64 64 64
192 192 192
192 192 192
64 64 64
0 0 0
0 0 0
64 64 64
64 64 64
64 64 64
128 128 128
192 192 192
192 192 192
192 192 192
192 192 192
192 192 192
256 256 256
256 256 256
256 256 256
192 192 192
192 192 192
192 192 192
192 192 192
128 128 128
128 128 128
128 128 128
128 128 128
128 128 128
128 128 128
64 64 64
64 64 64
192 192 192
256 256 256
256 256 256
256 256 256
192 192 192
192 192 192
128 128 128
128 128 128
192 192 192
192 192 192
256 256 256
192 192 192
64 64 64
64 64 64
64 64 64
64 64 64
64 64 64
64 64 64
64 64 64
64 64 64
64 64 64
64 64 64
64 64 64
192 192 192
256 256 256
256 256 256
256 256 256
256 256 256
256 256 256
256 256 256
256 256 256
256 256 256
256 256 256
256 256 256
192 192 192
192 192 192
192 192 192
192 192 192
192 192 192
192 192 192
192 192 192
128 128 128
128 128 128
192 192 192
192 192 192
192 192 192
192 192 192
192 192 192
192 192 192
192 192 192
192 192 192
192 192 192
192 192 192
192 192 192
128 128 128
192 192 192
192 192 192
192 192 192
192 192 192
192 192 192
192 192 192
128 128 128
128 128 128
192 192 192
192 192 192
128 128 128
128 128 128
128 128 128
128 128 128
128 128 128
128 128 128
64 64 64
0 0 0
0 0 0
0 0 0
0 0 0
0 0 0
0 0 0
0 0 0
0 0 0
0 0 0
0 0 0
0 0 0
0 0 0
0 0 0
0 0 0
0 0 0
0 0 0
0 0 0
0 0 0
0 0 0
0 0 0
0 0 0
0 0 0
0 0 0
0 0 0
0 0 0
0 0 0
0 0 0
0 0 0
0 0 0
64 64 64
128 128 128
64 64 64
0 0 0
64 64 64
64 64 64
64 64 64
64 64 64
64 64 64
64 64 64
64 64 64
0 0 0
192 192 192
256 256 256
192 192 192
192 192 192
256 256 256
192 192 192
256 256 256
256 256 256
192 192 192
192 192 192
192 192 192
192 192 192
128 128 128
192 192 192
192 192 192
192 192 192
192 192 192
192 192 192
192 192 192
192 192 192
128 128 128
128 128 128
64 64 64
128 128 128
192 192 192
128 128 128
128 128 128
0 0 0
0 0 0
0 0 0
0 0 0
64 64 64
64 64 64
64 64 64
64 64 64
64 64 64
64 64 64
64 64 64
64 64 64
128 128 128
128 128 128
0 0 0
64 64 64
64 64 64
128 128 128
128 128 128
192 192 192
192 192 192
192 192 192
192 192 192
192 192 192
192 192 192
192 192 192
128 128 128
192 192 192
192 192 192
192 192 192
128 128 128
128 128 128
128 128 128
128 128 128
192 192 192
128 128 128
64 64 64
128 128 128
192 192 192
256 256 256
256 256 256
256 256 256
192 192 192
192 192 192
128 128 128
128 128 128
64 64 64
64 64 64
128 128 128
128 128 128
192 192 192
192 192 192
128 128 128
64 64 64
64 64 64
64 64 64
64 64 64
64 64 64
64 64 64
64 64 64
64 64 64
64 64 64
64 64 64
64 64 64
128 128 128
256 256 256
256 256 256
256 256 256
256 256 256
256 256 256
256 256 256
256 256 256
256 256 256
256 256 256
256 256 256
256 256 256
256 256 256
192 192 192
192 192 192
192 192 192
192 192 192
192 192 192
128 128 128
192 192 192
192 192 192
192 192 192
192 192 192
192 192 192
192 192 192
192 192 192
192 192 192
192 192 192
192 192 192
192 192 192
192 192 192
192 192 192
192 192 192
192 192 192
192 192 192
192 192 192
192 192 192
128 128 128
128 128 128
192 192 192
192 192 192
128 128 128
128 128 128
128 128 128
128 128 128
128 128 128
128 128 128
64 64 64
64 64 64
0 0 0
0 0 0
0 0 0
0 0 0
0 0 0
0 0 0
0 0 0
0 0 0
0 0 0
0 0 0
0 0 0
0 0 0
0 0 0
0 0 0
0 0 0
0 0 0
0 0 0
0 0 0
0 0 0
0 0 0
0 0 0
0 0 0
0 0 0
0 0 0
0 0 0
0 0 0
64 64 64
0 0 0
128 128 128
64 64 64
64 64 64
64 64 64
0 0 0
64 64 64
64 64 64
64 64 64
64 64 64
64 64 64
64 64 64
0 0 0
192 192 192
256 256 256
192 192 192
192 192 192
192 192 192
128 128 128
256 256 256
192 192 192
192 192 192
192 192 192
192 192 192
128 128 128
192 192 192
192 192 192
192 192 192
192 192 192
192 192 192
192 192 192
128 128 128
128 128 128
128 128 128
128 128 128
64 64 64
64 64 64
64 64 64
128 128 128
64 64 64
0 0 0
0 0 0
0 0 0
0 0 0
0 0 0
0 0 0
0 0 0
0 0 0
0 0 0
0 0 0
64 64 64
64 64 64
64 64 64
64 64 64
64 64 64
64 64 64
64 64 64
128 128 128
128 128 128
128 128 128
128 128 128
128 128 128
128 128 128
128 128 128
128 128 128
192 192 192
128 128 128
64 64 64
64 64 64
128 128 128
192 192 192
192 192 192
128 128 128
128 128 128
128 128 128
192 192 192
192 192 192
256 256 256
192 192 192
192 192 192
128 128 128
128 128 128
128 128 128
64 64 64
64 64 64
64 64 64
64 64 64
64 64 64
64 64 64
128 128 128
64 64 64
192 192 192
128 128 128
64 64 64
64 64 64
64 64 64
64 64 64
64 64 64
64 64 64
64 64 64
64 64 64
64 64 64
64 64 64
64 64 64
64 64 64
64 64 64
256 256 256
256 256 256
256 256 256
256 256 256
256 256 256
256 256 256
256 256 256
256 256 256
256 256 256
256 256 256
256 256 256
192 192 192
192 192 192
192 192 192
192 192 192
192 192 192
128 128 128
128 128 128
192 192 192
192 192 192
192 192 192
192 192 192
192 192 192
192 192 192
192 192 192
192 192 192
192 192 192
192 192 192
128 128 128
192 192 192
192 192 192
192 192 192
192 192 192
192 192 192
192 192 192
128 128 128
192 192 192
192 192 192
192 192 192
128 128 128
128 128 128
128 128 128
128 128 128
128 128 128
128 128 128
128 128 128
64 64 64
64 64 64
0 0 0
0 0 0
0 0 0
0 0 0
0 0 0
0 0 0
0 0 0
0 0 0
0 0 0
0 0 0
0 0 0
0 0 0
0 0 0
0 0 0
0 0 0
0 0 0
0 0 0
0 0 0
0 0 0
0 0 0
0 0 0
0 0 0
0 0 0
0 0 0
0 0 0
0 0 0
0 0 0
64 64 64
64 64 64
64 64 64
64 64 64
0 0 0
0 0 0
0 0 0
64 64 64
64 64 64
64 64 64
64 64 64
0 0 0
192 192 192
192 192 192
192 192 192
192 192 192
128 128 128
256 256 256
192 192 192
128 128 128
192 192 192
192 192 192
128 128 128
128 128 128
128 128 128
128 128 128
192 192 192
192 192 192
128 128 128
128 128 128
128 128 128
128 128 128
128 128 128
64 64 64
64 64 64
64 64 64
128 128 128
64 64 64
64 64 64
0 0 0
0 0 0
0 0 0
0 0 0
0 0 0
0 0 0
0 0 0
0 0 0
64 64 64
64 64 64
64 64 64
64 64 64
64 64 64
0 0 0
64 64 64
64 64 64
64 64 64
64 64 64
64 64 64
64 64 64
128 128 128
192 192 192
256 256 256
256 256 256
256 256 256
192 192 192
64 64 64
64 64 64
64 64 64
64 64 64
64 64 64
128 128 128
192 192 192
192 192 192
64 64 64
64 64 64
64 64 64
64 64 64
128 128 128
64 64 64
64 64 64
64 64 64
64 64 64
64 64 64
64 64 64
64 64 64
64 64 64
64 64 64
64 64 64
64 64 64
64 64 64
128 128 128
64 64 64
64 64 64
64 64 64
64 64 64
64 64 64
64 64 64
64 64 64
64 64 64
64 64 64
64 64 64
64 64 64
64 64 64
64 64 64
64 64 64
256 256 256
256 256 256
256 256 256
256 256 256
256 256 256
256 256 256
256 256 256
256 256 256
256 256 256
256 256 256
256 256 256
256 256 256
192 192 192
192 192 192
192 192 192
192 192 192
128 128 128
128 128 128
192 192 192
192 192 192
192 192 192
192 192 192
192 192 192
192 192 192
192 192 192
192 192 192
192 192 192
192 192 192
192 192 192
192 192 192
192 192 192
192 192 192
192 192 192
192 192 192
192 192 192
128 128 128
192 192 192
192 192 192
192 192 192
128 128 128
128 128 128
128 128 128
128 128 128
128 128 128
128 128 128
128 128 128
128 128 128
64 64 64
64 64 64
0 0 0
0 0 0
0 0 0
0 0 0
0 0 0
0 0 0
0 0 0
0 0 0
0 0 0
0 0 0
0 0 0
0 0 0
0 0 0
0 0 0
0 0 0
0 0 0
0 0 0
0 0 0
0 0 0
0 0 0
0 0 0
0 0 0
0 0 0
0 0 0
0 0 0
0 0 0
64 64 64
64 64 64
64 64 64
64 64 64
0 0 0
0 0 0
0 0 0
0 0 0
0 0 0
0 0 0
0 0 0
0 0 0
256 256 256
192 192 192
128 128 128
128 128 128
256 256 256
192 192 192
128 128 128
192 192 192
128 128 128
128 128 128
64 64 64
128 128 128
128 128 128
128 128 128
128 128 128
128 128 128
128 128 128
128 128 128
64 64 64
64 64 64
64 64 64
64 64 64
64 64 64
64 64 64
128 128 128
64 64 64
64 64 64
0 0 0
0 0 0
0 0 0
0 0 0
64 64 64
64 64 64
64 64 64
64 64 64
64 64 64
64 64 64
0 0 0
0 0 0
0 0 0
64 64 64
64 64 64
0 0 0
0 0 0
0 0 0
0 0 0
192 192 192
256 256 256
192 192 192
128 128 128
128 128 128
128 128 128
128 128 128
128 128 128
64 64 64
64 64 64
64 64 64
64 64 64
64 64 64
64 64 64
128 128 128
128 128 128
64 64 64
64 64 64
64 64 64
64 64 64
64 64 64
64 64 64
64 64 64
64 64 64
64 64 64
64 64 64
64 64 64
64 64 64
64 64 64
64 64 64
64 64 64
64 64 64
64 64 64
128 128 128
64 64 64
64 64 64
64 64 64
64 64 64
64 64 64
64 64 64
64 64 64
64 64 64
64 64 64
64 64 64
64 64 64
64 64 64
64 64 64
192 192 192
256 256 256
256 256 256
256 256 256
256 256 256
256 256 256
192 192 192
192 192 192
192 192 192
192 192 192
192 192 192
256 256 256
256 256 256
192 192 192
192 192 192
192 192 192
192 192 192
128 128 128
192 192 192
192 192 192
192 192 192
192 192 192
192 192 192
192 192 192
192 192 192
192 192 192
192 192 192
192 192 192
128 128 128
192 192 192
192 192 192
192 192 192
192 192 192
192 192 192
192 192 192
128 128 128
192 192 192
192 192 192
192 192 192
128 128 128
128 128 128
128 128 128
128 128 128
128 128 128
128 128 128
128 128 128
128 128 128
128 128 128
64 64 64
0 0 0
0 0 0
64 64 64
64 64 64
0 0 0
0 0 0
0 0 0
0 0 0
0 0 0
0 0 0
0 0 0
0 0 0
0 0 0
0 0 0
0 0 0
0 0 0
0 0 0
0 0 0
0 0 0
0 0 0
0 0 0
0 0 0
0 0 0
0 0 0
0 0 0
64 64 64
64 64 64
64 64 64
128 128 128
64 64 64
0 0 0
0 0 0
0 0 0
0 0 0
0 0 0
0 0 0
0 0 0
0 0 0
256 256 256
128 128 128
64 64 64
64 64 64
192 192 192
192 192 192
128 128 128
128 128 128
64 64 64
64 64 64
64 64 64
64 64 64
128 128 128
128 128 128
128 128 128
64 64 64
64 64 64
64 64 64
64 64 64
64 64 64
64 64 64
64 64 64
64 64 64
128 128 128
64 64 64
64 64 64
0 0 0
0 0 0
0 0 0
0 0 0
0 0 0
0 0 0
0 0 0
64 64 64
64 64 64
64 64 64
0 0 0
0 0 0
0 0 0
0 0 0
64 64 64
0 0 0
0 0 0
0 0 0
0 0 0
128 128 128
256 256 256
128 128 128
64 64 64
0 0 0
0 0 0
0 0 0
0 0 0
192 192 192
128 128 128
64 64 64
0 0 0
64 64 64
64 64 64
64 64 64
64 64 64
64 64 64
64 64 64
64 64 64
64 64 64
64 64 64
64 64 64
64 64 64
64 64 64
64 64 64
64 64 64
64 64 64
64 64 64
64 64 64
64 64 64
64 64 64
64 64 64
64 64 64
64 64 64
128 128 128
128 128 128
64 64 64
64 64 64
64 64 64
64 64 64
64 64 64
64 64 64
64 64 64
64 64 64
64 64 64
64 64 64
64 64 64
64 64 64
128 128 128
192 192 192
256 256 256
256 256 256
256 256 256
256 256 256
256 256 256
192 192 192
192 192 192
192 192 192
128 128 128
128 128 128
192 192 192
256 256 256
192 192 192
192 192 192
192 192 192
128 128 128
128 128 128
192 192 192
192 192 192
192 192 192
192 192 192
192 192 192
192 192 192
192 192 192
192 192 192
192 192 192
128 128 128
192 192 192
192 192 192
192 192 192
192 192 192
192 192 192
192 192 192
128 128 128
192 192 192
192 192 192
192 192 192
128 128 128
128 128 128
128 128 128
128 128 128
128 128 128
128 128 128
128 128 128
128 128 128
128 128 128
128 128 128
64 64 64
0 0 0
0 0 0
64 64 64
64 64 64
0 0 0
0 0 0
0 0 0
0 0 0
0 0 0
0 0 0
0 0 0
0 0 0
0 0 0
0 0 0
0 0 0
0 0 0
0 0 0
0 0 0
0 0 0
0 0 0
0 0 0
0 0 0
0 0 0
0 0 0
64 64 64
64 64 64
128 128 128
256 256 256
64 64 64
0 0 0
64 64 64
64 64 64
64 64 64
0 0 0
0 0 0
0 0 0
64 64 64
256 256 256
64 64 64
64 64 64
128 128 128
256 256 256
192 192 192
128 128 128
64 64 64
64 64 64
64 64 64
64 64 64
64 64 64
64 64 64
64 64 64
64 64 64
64 64 64
64 64 64
64 64 64
64 64 64
64 64 64
64 64 64
64 64 64
64 64 64
64 64 64
64 64 64
0 0 0
0 0 0
64 64 64
64 64 64
128 128 128
64 64 64
64 64 64
64 64 64
0 0 0
0 0 0
0 0 0
0 0 0
0 0 0
0 0 0
64 64 64
0 0 0
0 0 0
0 0 0
0 0 0
0 0 0
192 192 192
128 128 128
64 64 64
0 0 0
0 0 0
0 0 0
0 0 0
0 0 0
128 128 128
128 128 128
128 128 128
64 64 64
64 64 64
64 64 64
64 64 64
64 64 64
64 64 64
64 64 64
64 64 64
0 0 0
0 0 0
0 0 0
64 64 64
64 64 64
64 64 64
64 64 64
64 64 64
64 64 64
64 64 64
64 64 64
64 64 64
64 64 64
64 64 64
64 64 64
64 64 64
64 64 64
64 64 64
0 0 0
64 64 64
64 64 64
64 64 64
0 0 0
64 64 64
0 0 0
0 0 0
0 0 0
0 0 0
0 0 0
128 128 128
192 192 192
192 192 192
256 256 256
256 256 256
256 256 256
256 256 256
256 256 256
192 192 192
192 192 192
128 128 128
128 128 128
128 128 128
128 128 128
192 192 192
192 192 192
192 192 192
128 128 128
128 128 128
192 192 192
192 192 192
192 192 192
192 192 192
192 192 192
192 192 192
192 192 192
192 192 192
192 192 192
128 128 128
192 192 192
192 192 192
192 192 192
192 192 192
192 192 192
192 192 192
128 128 128
192 192 192
192 192 192
192 192 192
128 128 128
128 128 128
128 128 128
128 128 128
128 128 128
128 128 128
128 128 128
128 128 128
128 128 128
128 128 128
128 128 128
64 64 64
0 0 0
0 0 0
64 64 64
64 64 64
0 0 0
0 0 0
0 0 0
0 0 0
0 0 0
0 0 0
0 0 0
0 0 0
0 0 0
0 0 0
0 0 0
0 0 0
0 0 0
0 0 0
0 0 0
0 0 0
0 0 0
0 0 0
0 0 0
64 64 64
64 64 64
256 256 256
192 192 192
128 128 128
64 64 64
64 64 64
64 64 64
64 64 64
0 0 0
0 0 0
0 0 0
128 128 128
256 256 256
64 64 64
64 64 64
128 128 128
192 192 192
128 128 128
64 64 64
64 64 64
64 64 64
64 64 64
64 64 64
64 64 64
64 64 64
64 64 64
64 64 64
64 64 64
64 64 64
64 64 64
64 64 64
64 64 64
64 64 64
64 64 64
64 64 64
64 64 64
64 64 64
0 0 0
64 64 64
128 128 128
128 128 128
128 128 128
128 128 128
128 128 128
64 64 64
64 64 64
64 64 64
64 64 64
64 64 64
0 0 0
64 64 64
64 64 64
0 0 0
0 0 0
0 0 0
0 0 0
128 128 128
128 128 128
64 64 64
0 0 0
0 0 0
64 64 64
64 64 64
64 64 64
128 128 128
128 128 128
192 192 192
192 192 192
256 256 256
192 192 192
64 64 64
64 64 64
64 64 64
64 64 64
64 64 64
64 64 64
192 192 192
64 64 64
0 0 0
0 0 0
64 64 64
64 64 64
64 64 64
0 0 0
64 64 64
64 64 64
64 64 64
64 64 64
64 64 64
64 64 64
64 64 64
64 64 64
64 64 64
64 64 64
64 64 64
0 0 0
0 0 0
0 0 0
0 0 0
64 64 64
0 0 0
0 0 0
0 0 0
0 0 0
0 0 0
128 128 128
192 192 192
192 192 192
192 192 192
256 256 256
256 256 256
256 256 256
256 256 256
256 256 256
192 192 192
128 128 128
128 128 128
64 64 64
64 64 64
64 64 64
192 192 192
256 256 256
192 192 192
128 128 128
128 128 128
192 192 192
192 192 192
192 192 192
192 192 192
192 192 192
192 192 192
192 192 192
192 192 192
128 128 128
192 192 192
192 192 192
192 192 192
192 192 192
192 192 192
192 192 192
128 128 128
192 192 192
192 192 192
192 192 192
128 128 128
128 128 128
128 128 128
128 128 128
128 128 128
128 128 128
128 128 128
128 128 128
128 128 128
128 128 128
128 128 128
128 128 128
64 64 64
0 0 0
64 64 64
64 64 64
64 64 64
0 0 0
0 0 0
0 0 0
0 0 0
0 0 0
0 0 0
0 0 0
0 0 0
0 0 0
0 0 0
0 0 0
0 0 0
0 0 0
0 0 0
0 0 0
0 0 0
0 0 0
64 64 64
64 64 64
64 64 64
256 256 256
192 192 192
128 128 128
0 0 0
0 0 0
0 0 0
64 64 64
0 0 0
0 0 0
0 0 0
256 256 256
192 192 192
64 64 64
64 64 64
192 192 192
192 192 192
64 64 64
64 64 64
64 64 64
64 64 64
64 64 64
64 64 64
64 64 64
64 64 64
64 64 64
64 64 64
64 64 64
64 64 64
64 64 64
64 64 64
64 64 64
64 64 64
64 64 64
64 64 64
64 64 64
64 64 64
64 64 64
64 64 64
64 64 64
128 128 128
128 128 128
128 128 128
64 64 64
64 64 64
64 64 64
64 64 64
64 64 64
64 64 64
64 64 64
64 64 64
64 64 64
0 0 0
0 0 0
0 0 0
0 0 0
64 64 64
64 64 64
64 64 64
0 0 0
0 0 0
64 64 64
64 64 64
64 64 64
0 0 0
64 64 64
256 256 256
256 256 256
192 192 192
192 192 192
128 128 128
64 64 64
0 0 0
0 0 0
64 64 64
0 0 0
192 192 192
256 256 256
128 128 128
0 0 0
0 0 0
0 0 0
0 0 0
64 64 64
128 128 128
64 64 64
64 64 64
64 64 64
64 64 64
64 64 64
64 64 64
64 64 64
64 64 64
64 64 64
128 128 128
128 128 128
64 64 64
0 0 0
0 0 0
0 0 0
0 0 0
0 0 0
0 0 0
0 0 0
64 64 64
192 192 192
192 192 192
192 192 192
256 256 256
256 256 256
256 256 256
256 256 256
256 256 256
256 256 256
256 256 256
128 128 128
64 64 64
64 64 64
64 64 64
64 64 64
64 64 64
128 128 128
192 192 192
192 192 192
192 192 192
192 192 192
192 192 192
192 192 192
192 192 192
192 192 192
192 192 192
192 192 192
192 192 192
128 128 128
192 192 192
192 192 192
192 192 192
192 192 192
192 192 192
192 192 192
128 128 128
192 192 192
192 192 192
128 128 128
128 128 128
128 128 128
128 128 128
128 128 128
128 128 128
128 128 128
128 128 128
128 128 128
128 128 128
128 128 128
128 128 128
128 128 128
128 128 128
64 64 64
0 0 0
0 0 0
0 0 0
0 0 0
0 0 0
0 0 0
0 0 0
0 0 0
0 0 0
0 0 0
0 0 0
0 0 0
0 0 0
0 0 0
0 0 0
0 0 0
0 0 0
0 0 0
0 0 0
0 0 0
0 0 0
0 0 0
192 192 192
192 192 192
192 192 192
192 192 192
192 192 192
64 64 64
64 64 64
128 128 128
0 0 0
64 64 64
192 192 192
256 256 256
128 128 128
64 64 64
64 64 64
128 128 128
64 64 64
64 64 64
64 64 64
64 64 64
64 64 64
64 64 64
64 64 64
64 64 64
64 64 64
64 64 64
64 64 64
64 64 64
64 64 64
64 64 64
64 64 64
64 64 64
64 64 64
64 64 64
64 64 64
64 64 64
128 128 128
64 64 64
64 64 64
128 128 128
128 128 128
64 64 64
64 64 64
64 64 64
64 64 64
64 64 64
64 64 64
64 64 64
64 64 64
64 64 64
64 64 64
64 64 64
0 0 0
0 0 0
0 0 0
0 0 0
64 64 64
64 64 64
64 64 64
64 64 64
64 64 64
0 0 0
128 128 128
192 192 192
128 128 128
192 192 192
256 256 256
128 128 128
192 192 192
192 192 192
128 128 128
128 128 128
64 64 64
0 0 0
0 0 0
0 0 0
256 256 256
192 192 192
192 192 192
64 64 64
0 0 0
0 0 0
0 0 0
64 64 64
128 128 128
128 128 128
64 64 64
64 64 64
64 64 64
64 64 64
0 0 0
64 64 64
64 64 64
64 64 64
64 64 64
128 128 128
128 128 128
128 128 128
128 128 128
64 64 64
64 64 64
0 0 0
0 0 0
64 64 64
192 192 192
256 256 256
256 256 256
256 256 256
256 256 256
256 256 256
256 256 256
192 192 192
192 192 192
192 192 192
192 192 192
192 192 192
0 0 0
64 64 64
64 64 64
64 64 64
64 64 64
256 256 256
256 256 256
256 256 256
256 256 256
256 256 256
192 192 192
192 192 192
192 192 192
192 192 192
192 192 192
192 192 192
192 192 192
192 192 192
192 192 192
192 192 192
192 192 192
192 192 192
192 192 192
192 192 192
128 128 128
192 192 192
192 192 192
192 192 192
128 128 128
128 128 128
128 128 128
128 128 128
128 128 128
128 128 128
128 128 128
128 128 128
128 128 128
128 128 128
128 128 128
128 128 128
128 128 128
128 128 128
64 64 64
0 0 0
64 64 64
0 0 0
0 0 0
64 64 64
64 64 64
0 0 0
64 64 64
0 0 0
0 0 0
0 0 0
0 0 0
0 0 0
0 0 0
0 0 0
0 0 0
0 0 0
0 0 0
0 0 0
64 64 64
192 192 192
256 256 256
256 256 256
256 256 256
256 256 256
256 256 256
128 128 128
192 192 192
256 256 256
256 256 256
256 256 256
192 192 192
128 128 128
64 64 64
64 64 64
64 64 64
128 128 128
64 64 64
64 64 64
64 64 64
64 64 64
64 64 64
64 64 64
64 64 64
64 64 64
64 64 64
64 64 64
64 64 64
64 64 64
64 64 64
64 64 64
64 64 64
64 64 64
64 64 64
64 64 64
64 64 64
64 64 64
64 64 64
64 64 64
64 64 64
64 64 64
64 64 64
64 64 64
64 64 64
64 64 64
64 64 64
64 64 64
64 64 64
64 64 64
64 64 64
64 64 64
64 64 64
64 64 64
64 64 64
0 0 0
0 0 0
64 64 64
64 64 64
64 64 64
64 64 64
64 64 64
0 0 0
64 64 64
256 256 256
192 192 192
192 192 192
256 256 256
192 192 192
192 192 192
192 192 192
128 128 128
128 128 128
128 128 128
128 128 128
64 64 64
64 64 64
64 64 64
256 256 256
192 192 192
128 128 128
64 64 64
0 0 0
0 0 0
0 0 0
128 128 128
128 128 128
128 128 128
64 64 64
64 64 64
64 64 64
64 64 64
0 0 0
0 0 0
64 64 64
64 64 64
64 64 64
64 64 64
64 64 64
64 64 64
64 64 64
64 64 64
64 64 64
128 128 128
256 256 256
256 256 256
256 256 256
192 192 192
256 256 256
192 192 192
128 128 128
192 192 192
128 128 128
64 64 64
128 128 128
192 192 192
192 192 192
192 192 192
128 128 128
0 0 0
0 0 0
64 64 64
64 64 64
192 192 192
256 256 256
256 256 256
256 256 256
256 256 256
256 256 256
192 192 192
192 192 192
192 192 192
192 192 192
192 192 192
192 192 192
128 128 128
192 192 192
192 192 192
192 192 192
192 192 192
192 192 192
192 192 192
128 128 128
192 192 192
192 192 192
192 192 192
128 128 128
128 128 128
128 128 128
128 128 128
128 128 128
128 128 128
128 128 128
128 128 128
128 128 128
128 128 128
128 128 128
128 128 128
128 128 128
128 128 128
64 64 64
64 64 64
0 0 0
64 64 64
64 64 64
64 64 64
64 64 64
64 64 64
64 64 64
0 0 0
64 64 64
0 0 0
0 0 0
0 0 0
0 0 0
0 0 0
0 0 0
0 0 0
0 0 0
64 64 64
256 256 256
256 256 256
256 256 256
256 256 256
256 256 256
256 256 256
192 192 192
256 256 256
192 192 192
128 128 128
192 192 192
128 128 128
64 64 64
128 128 128
64 64 64
64 64 64
64 64 64
64 64 64
64 64 64
64 64 64
64 64 64
64 64 64
64 64 64
64 64 64
64 64 64
64 64 64
64 64 64
64 64 64
64 64 64
64 64 64
64 64 64
64 64 64
64 64 64
64 64 64
64 64 64
64 64 64
64 64 64
128 128 128
64 64 64
64 64 64
64 64 64
64 64 64
64 64 64
64 64 64
64 64 64
64 64 64
64 64 64
64 64 64
64 64 64
64 64 64
64 64 64
64 64 64
64 64 64
64 64 64
64 64 64
0 0 0
0 0 0
64 64 64
0 0 0
64 64 64
64 64 64
0 0 0
0 0 0
192 192 192
256 256 256
192 192 192
192 192 192
192 192 192
192 192 192
192 192 192
192 192 192
128 128 128
128 128 128
128 128 128
128 128 128
128 128 128
128 128 128
192 192 192
256 256 256
128 128 128
64 64 64
64 64 64
64 64 64
0 0 0
0 0 0
128 128 128
128 128 128
64 64 64
64 64 64
128 128 128
64 64 64
0 0 0
0 0 0
0 0 0
0 0 0
64 64 64
64 64 64
64 64 64
64 64 64
64 64 64
64 64 64
128 128 128
256 256 256
256 256 256
192 192 192
128 128 128
128 128 128
128 128 128
128 128 128
64 64 64
128 128 128
64 64 64
64 64 64
64 64 64
64 64 64
128 128 128
128 128 128
128 128 128
128 128 128
0 0 0
64 64 64
128 128 128
128 128 128
64 64 64
64 64 64
128 128 128
192 192 192
192 192 192
256 256 256
256 256 256
192 192 192
192 192 192
192 192 192
192 192 192
192 192 192
128 128 128
192 192 192
192 192 192
192 192 192
192 192 192
192 192 192
192 192 192
128 128 128
192 192 192
192 192 192
192 192 192
128 128 128
128 128 128
128 128 128
128 128 128
128 128 128
128 128 128
128 128 128
128 128 128
128 128 128
128 128 128
128 128 128
128 128 128
128 128 128
128 128 128
128 128 128
64 64 64
64 64 64
64 64 64
64 64 64
64 64 64
64 64 64
64 64 64
64 64 64
64 64 64
64 64 64
0 0 0
0 0 0
64 64 64
0 0 0
0 0 0
0 0 0
0 0 0
64 64 64
256 256 256
256 256 256
256 256 256
192 192 192
192 192 192
192 192 192
192 192 192
192 192 192
192 192 192
192 192 192
64 64 64
64 64 64
64 64 64
64 64 64
64 64 64
64 64 64
64 64 64
64 64 64
64 64 64
64 64 64
64 64 64
64 64 64
64 64 64
64 64 64
64 64 64
64 64 64
64 64 64
64 64 64
64 64 64
64 64 64
64 64 64
64 64 64
64 64 64
64 64 64
64 64 64
0 0 0
64 64 64
64 64 64
64 64 64
64 64 64
64 64 64
64 64 64
64 64 64
0 0 0
64 64 64
64 64 64
64 64 64
64 64 64
64 64 64
64 64 64
64 64 64
64 64 64
64 64 64
64 64 64
64 64 64
0 0 0
0 0 0
64 64 64
0 0 0
0 0 0
64 64 64
64 64 64
0 0 0
64 64 64
256 256 256
192 192 192
192 192 192
192 192 192
192 192 192
128 128 128
128 128 128
192 192 192
192 192 192
192 192 192
192 192 192
192 192 192
192 192 192
256 256 256
256 256 256
192 192 192
64 64 64
64 64 64
64 64 64
0 0 0
0 0 0
64 64 64
192 192 192
128 128 128
64 64 64
64 64 64
128 128 128
0 0 0
0 0 0
0 0 0
0 0 0
0 0 0
64 64 64
64 64 64
64 64 64
64 64 64
64 64 64
64 64 64
192 192 192
128 128 128
64 64 64
64 64 64
64 64 64
64 64 64
0 0 0
0 0 0
64 64 64
64 64 64
64 64 64
64 64 64
64 64 64
64 64 64
64 64 64
64 64 64
64 64 64
64 64 64
64 64 64
192 192 192
64 64 64
64 64 64
64 64 64
64 64 64
64 64 64
64 64 64
128 128 128
192 192 192
192 192 192
192 192 192
192 192 192
192 192 192
192 192 192
192 192 192
128 128 128
192 192 192
192 192 192
192 192 192
192 192 192
192 192 192
192 192 192
128 128 128
192 192 192
192 192 192
128 128 128
128 128 128
128 128 128
128 128 128
128 128 128
128 128 128
128 128 128
128 128 128
128 128 128
128 128 128
128 128 128
128 128 128
128 128 128
128 128 128
128 128 128
128 128 128
128 128 128
64 64 64
0 0 0
64 64 64
64 64 64
64 64 64
64 64 64
64 64 64
64 64 64
64 64 64
64 64 64
64 64 64
64 64 64
0 0 0
0 0 0
0 0 0
0 0 0
256 256 256
256 256 256
192 192 192
192 192 192
128 128 128
128 128 128
64 64 64
128 128 128
128 128 128
128 128 128
64 64 64
64 64 64
0 0 0
0 0 0
0 0 0
64 64 64
64 64 64
64 64 64
64 64 64
64 64 64
64 64 64
64 64 64
64 64 64
64 64 64
64 64 64
64 64 64
0 0 0
0 0 0
64 64 64
64 64 64
64 64 64
64 64 64
64 64 64
0 0 0
0 0 0
0 0 0
64 64 64
64 64 64
64 64 64
64 64 64
64 64 64
64 64 64
64 64 64
0 0 0
64 64 64
64 64 64
64 64 64
64 64 64
64 64 64
64 64 64
64 64 64
64 64 64
64 64 64
64 64 64
64 64 64
64 64 64
64 64 64
0 0 0
0 0 0
0 0 0
0 0 0
0 0 0
64 64 64
64 64 64
64 64 64
192 192 192
128 128 128
128 128 128
128 128 128
192 192 192
192 192 192
128 128 128
128 128 128
192 192 192
192 192 192
256 256 256
256 256 256
192 192 192
192 192 192
192 192 192
64 64 64
64 64 64
64 64 64
64 64 64
0 0 0
0 0 0
128 128 128
128 128 128
64 64 64
64 64 64
64 64 64
64 64 64
0 0 0
64 64 64
0 0 0
0 0 0
0 0 0
0 0 0
64 64 64
64 64 64
64 64 64
64 64 64
64 64 64
64 64 64
64 64 64
0 0 0
0 0 0
0 0 0
0 0 0
0 0 0
0 0 0
0 0 0
0 0 0
0 0 0
64 64 64
64 64 64
128 128 128
128 128 128
64 64 64
64 64 64
64 64 64
128 128 128
64 64 64
0 0 0
0 0 0
0 0 0
64 64 64
64 64 64
64 64 64
64 64 64
64 64 64
128 128 128
192 192 192
192 192 192
192 192 192
192 192 192
192 192 192
192 192 192
192 192 192
192 192 192
192 192 192
192 192 192
192 192 192
192 192 192
128 128 128
192 192 192
192 192 192
128 128 128
128 128 128
128 128 128
128 128 128
128 128 128
128 128 128
128 128 128
128 128 128
128 128 128
128 128 128
128 128 128
128 128 128
128 128 128
128 128 128
128 128 128
128 128 128
128 128 128
128 128 128
64 64 64
64 64 64
64 64 64
64 64 64
64 64 64
64 64 64
64 64 64
64 64 64
0 0 0
64 64 64
0 0 0
0 0 0
64 64 64
0 0 0
192 192 192
256 256 256
128 128 128
64 64 64
64 64 64
64 64 64
64 64 64
64 64 64
64 64 64
64 64 64
64 64 64
64 64 64
64 64 64
64 64 64
0 0 0
64 64 64
64 64 64
64 64 64
64 64 64
64 64 64
64 64 64
64 64 64
64 64 64
64 64 64
64 64 64
64 64 64
64 64 64
64 64 64
64 64 64
64 64 64
64 64 64
64 64 64
0 0 0
0 0 0
0 0 0
0 0 0
0 0 0
64 64 64
64 64 64
64 64 64
64 64 64
64 64 64
64 64 64
0 0 0
0 0 0
64 64 64
64 64 64
64 64 64
64 64 64
64 64 64
64 64 64
64 64 64
64 64 64
64 64 64
64 64 64
64 64 64
64 64 64
64 64 64
0 0 0
0 0 0
0 0 0
0 0 0
0 0 0
0 0 0
0 0 0
64 64 64
128 128 128
128 128 128
128 128 128
64 64 64
128 128 128
128 128 128
128 128 128
128 128 128
128 128 128
128 128 128
128 128 128
64 64 64
64 64 64
128 128 128
64 64 64
64 64 64
64 64 64
64 64 64
64 64 64
0 0 0
64 64 64
192 192 192
128 128 128
64 64 64
64 64 64
64 64 64
64 64 64
64 64 64
64 64 64
64 64 64
64 64 64
0 0 0
0 0 0
0 0 0
64 64 64
64 64 64
64 64 64
64 64 64
0 0 0
0 0 0
64 64 64
192 192 192
256 256 256
256 256 256
256 256 256
256 256 256
192 192 192
128 128 128
192 192 192
192 192 192
192 192 192
192 192 192
128 128 128
64 64 64
64 64 64
0 0 0
64 64 64
64 64 64
128 128 128
192 192 192
192 192 192
128 128 128
128 128 128
64 64 64
64 64 64
64 64 64
64 64 64
128 128 128
192 192 192
192 192 192
192 192 192
192 192 192
192 192 192
192 192 192
192 192 192
192 192 192
192 192 192
192 192 192
192 192 192
128 128 128
192 192 192
192 192 192
128 128 128
128 128 128
128 128 128
128 128 128
128 128 128
128 128 128
128 128 128
128 128 128
128 128 128
128 128 128
128 128 128
128 128 128
128 128 128
128 128 128
128 128 128
128 128 128
128 128 128
128 128 128
128 128 128
64 64 64
64 64 64
64 64 64
64 64 64
64 64 64
64 64 64
64 64 64
0 0 0
64 64 64
64 64 64
0 0 0
0 0 0
64 64 64
192 192 192
64 64 64
64 64 64
64 64 64
64 64 64
64 64 64
64 64 64
64 64 64
64 64 64
64 64 64
64 64 64
64 64 64
64 64 64
64 64 64
64 64 64
0 0 0
0 0 0
64 64 64
64 64 64
64 64 64
64 64 64
64 64 64
64 64 64
64 64 64
64 64 64
64 64 64
64 64 64
0 0 0
0 0 0
0 0 0
0 0 0
64 64 64
0 0 0
0 0 0
0 0 0
0 0 0
0 0 0
64 64 64
64 64 64
64 64 64
64 64 64
64 64 64
0 0 0
0 0 0
64 64 64
64 64 64
64 64 64
64 64 64
64 64 64
64 64 64
64 64 64
64 64 64
64 64 64
64 64 64
64 64 64
64 64 64
64 64 64
64 64 64
0 0 0
0 0 0
0 0 0
0 0 0
0 0 0
0 0 0
0 0 0
64 64 64
128 128 128
64 64 64
64 64 64
64 64 64
64 64 64
64 64 64
64 64 64
64 64 64
64 64 64
64 64 64
64 64 64
64 64 64
64 64 64
64 64 64
64 64 64
64 64 64
64 64 64
64 64 64
0 0 0
0 0 0
128 128 128
128 128 128
64 64 64
64 64 64
128 128 128
0 0 0
0 0 0
64 64 64
64 64 64
64 64 64
64 64 64
0 0 0
0 0 0
0 0 0
0 0 0
0 0 0
0 0 0
0 0 0
0 0 0
192 192 192
256 256 256
192 192 192
192 192 192
192 192 192
192 192 192
192 192 192
256 256 256
256 256 256
192 192 192
64 64 64
64 64 64
64 64 64
64 64 64
192 192 192
128 128 128
0 0 0
64 64 64
128 128 128
192 192 192
192 192 192
192 192 192
192 192 192
192 192 192
128 128 128
128 128 128
64 64 64
64 64 64
128 128 128
128 128 128
256 256 256
192 192 192
192 192 192
192 192 192
192 192 192
192 192 192
192 192 192
192 192 192
192 192 192
192 192 192
128 128 128
192 192 192
192 192 192
128 128 128
128 128 128
128 128 128
128 128 128
128 128 128
128 128 128
128 128 128
128 128 128
128 128 128
128 128 128
128 128 128
128 128 128
128 128 128
128 128 128
128 128 128
128 128 128
128 128 128
128 128 128
128 128 128
128 128 128
64 64 64
64 64 64
64 64 64
64 64 64
64 64 64
64 64 64
0 0 0
64 64 64
64 64 64
64 64 64
0 0 0
128 128 128
128 128 128
64 64 64
64 64 64
64 64 64
64 64 64
0 0 0
0 0 0
0 0 0
64 64 64
64 64 64
64 64 64
128 128 128
64 64 64
64 64 64
64 64 64
0 0 0
0 0 0
0 0 0
0 0 0
0 0 0
0 0 0
0 0 0
64 64 64
64 64 64
64 64 64
64 64 64
64 64 64
0 0 0
0 0 0
0 0 0
0 0 0
0 0 0
64 64 64
64 64 64
64 64 64
64 64 64
0 0 0
0 0 0
64 64 64
64 64 64
64 64 64
64 64 64
64 64 64
0 0 0
64 64 64
64 64 64
64 64 64
64 64 64
64 64 64
64 64 64
64 64 64
64 64 64
64 64 64
64 64 64
64 64 64
64 64 64
64 64 64
0 0 0
0 0 0
0 0 0
0 0 0
0 0 0
0 0 0
0 0 0
0 0 0
0 0 0
128 128 128
64 64 64
64 64 64
64 64 64
64 64 64
64 64 64
64 64 64
64 64 64
64 64 64
64 64 64
64 64 64
64 64 64
64 64 64
64 64 64
64 64 64
64 64 64
64 64 64
64 64 64
0 0 0
64 64 64
64 64 64
128 128 128
64 64 64
64 64 64
64 64 64
0 0 0
64 64 64
64 64 64
64 64 64
64 64 64
64 64 64
64 64 64
0 0 0
0 0 0
0 0 0
0 0 0
0 0 0
64 64 64
256 256 256
192 192 192
64 64 64
128 128 128
128 128 128
128 128 128
128 128 128
128 128 128
128 128 128
128 128 128
192 192 192
128 128 128
64 64 64
64 64 64
64 64 64
64 64 64
192 192 192
128 128 128
64 64 64
128 128 128
192 192 192
192 192 192
192 192 192
128 128 128
64 64 64
64 64 64
64 64 64
64 64 64
64 64 64
128 128 128
128 128 128
192 192 192
192 192 192
192 192 192
128 128 128
192 192 192
192 192 192
192 192 192
192 192 192
192 192 192
192 192 192
128 128 128
192 192 192
192 192 192
128 128 128
128 128 128
128 128 128
128 128 128
128 128 128
128 128 128
128 128 128
128 128 128
128 128 128
128 128 128
128 128 128
128 128 128
128 128 128
128 128 128
128 128 128
128 128 128
128 128 128
128 128 128
128 128 128
128 128 128
64 64 64
64 64 64
64 64 64
64 64 64
64 64 64
64 64 64
64 64 64
64 64 64
64 64 64
64 64 64
0 0 0
128 128 128
128 128 128
64 64 64
64 64 64
64 64 64
64 64 64
0 0 0
0 0 0
0 0 0
0 0 0
0 0 0
0 0 0
0 0 0
64 64 64
64 64 64
64 64 64
64 64 64
0 0 0
0 0 0
0 0 0
0 0 0
0 0 0
0 0 0
0 0 0
64 64 64
64 64 64
64 64 64
64 64 64
64 64 64
64 64 64
64 64 64
0 0 0
0 0 0
0 0 0
64 64 64
64 64 64
64 64 64
64 64 64
0 0 0
64 64 64
64 64 64
64 64 64
64 64 64
64 64 64
64 64 64
64 64 64
64 64 64
64 64 64
64 64 64
64 64 64
64 64 64
64 64 64
64 64 64
64 64 64
64 64 64
64 64 64
64 64 64
0 0 0
0 0 0
0 0 0
0 0 0
64 64 64
64 64 64
64 64 64
64 64 64
0 0 0
0 0 0
64 64 64
64 64 64
64 64 64
64 64 64
64 64 64
64 64 64
64 64 64
64 64 64
64 64 64
64 64 64
64 64 64
64 64 64
64 64 64
64 64 64
64 64 64
128 128 128
128 128 128
0 0 0
0 0 0
64 64 64
128 128 128
64 64 64
64 64 64
64 64 64
64 64 64
0 0 0
0 0 0
64 64 64
64 64 64
128 128 128
128 128 128
64 64 64
64 64 64
0 0 0
0 0 0
0 0 0
0 0 0
192 192 192
128 128 128
64 64 64
128 128 128
128 128 128
64 64 64
64 64 64
64 64 64
64 64 64
64 64 64
64 64 64
64 64 64
128 128 128
128 128 128
64 64 64
64 64 64
64 64 64
64 64 64
128 128 128
128 128 128
128 128 128
192 192 192
128 128 128
64 64 64
64 64 64
64 64 64
64 64 64
64 64 64
128 128 128
64 64 64
64 64 64
64 64 64
192 192 192
192 192 192
192 192 192
192 192 192
192 192 192
192 192 192
192 192 192
192 192 192
192 192 192
192 192 192
128 128 128
192 192 192
192 192 192
192 192 192
128 128 128
128 128 128
128 128 128
128 128 128
128 128 128
128 128 128
128 128 128
128 128 128
128 128 128
128 128 128
128 128 128
128 128 128
128 128 128
128 128 128
128 128 128
128 128 128
128 128 128
128 128 128
128 128 128
128 128 128
64 64 64
64 64 64
64 64 64
64 64 64
64 64 64
64 64 64
64 64 64
64 64 64
64 64 64
0 0 0
128 128 128
128 128 128
64 64 64
64 64 64
64 64 64
64 64 64
0 0 0
0 0 0
0 0 0
0 0 0
0 0 0
0 0 0
0 0 0
0 0 0
0 0 0
64 64 64
64 64 64
0 0 0
64 64 64
64 64 64
0 0 0
0 0 0
64 64 64
64 64 64
64 64 64
64 64 64
64 64 64
64 64 64
64 64 64
64 64 64
64 64 64
64 64 64
64 64 64
64 64 64
0 0 0
0 0 0
64 64 64
64 64 64
64 64 64
64 64 64
128 128 128
64 64 64
64 64 64
0 0 0
64 64 64
64 64 64
64 64 64
64 64 64
64 64 64
64 64 64
64 64 64
64 64 64
64 64 64
64 64 64
0 0 0
0 0 0
0 0 0
0 0 0
0 0 0
0 0 0
64 64 64
64 64 64
64 64 64
64 64 64
64 64 64
0 0 0
0 0 0
0 0 0
64 64 64
64 64 64
64 64 64
64 64 64
64 64 64
64 64 64
64 64 64
64 64 64
64 64 64
64 64 64
64 64 64
64 64 64
64 64 64
64 64 64
128 128 128
64 64 64
0 0 0
64 64 64
64 64 64
128 128 128
64 64 64
64 64 64
64 64 64
0 0 0
0 0 0
64 64 64
64 64 64
64 64 64
64 64 64
128 128 128
64 64 64
64 64 64
0 0 0
0 0 0
0 0 0
128 128 128
128 128 128
64 64 64
64 64 64
128 128 128
64 64 64
64 64 64
64 64 64
64 64 64
64 64 64
64 64 64
64 64 64
64 64 64
64 64 64
128 128 128
64 64 64
64 64 64
64 64 64
64 64 64
64 64 64
128 128 128
128 128 128
192 192 192
128 128 128
64 64 64
64 64 64
64 64 64
64 64 64
64 64 64
64 64 64
64 64 64
64 64 64
64 64 64
128 128 128
192 192 192
192 192 192
192 192 192
192 192 192
192 192 192
192 192 192
192 192 192
192 192 192
192 192 192
128 128 128
192 192 192
192 192 192
192 192 192
128 128 128
128 128 128
128 128 128
128 128 128
128 128 128
128 128 128
128 128 128
128 128 128
128 128 128
128 128 128
128 128 128
128 128 128
128 128 128
128 128 128
128 128 128
128 128 128
128 128 128
128 128 128
128 128 128
128 128 128
128 128 128
64 64 64
64 64 64
64 64 64
64 64 64
64 64 64
64 64 64
64 64 64
64 64 64
0 0 0
64 64 64
128 128 128
64 64 64
64 64 64
64 64 64
64 64 64
64 64 64
64 64 64
64 64 64
64 64 64
64 64 64
64 64 64
64 64 64
64 64 64
64 64 64
0 0 0
64 64 64
64 64 64
128 128 128
128 128 128
64 64 64
64 64 64
64 64 64
64 64 64
64 64 64
64 64 64
64 64 64
64 64 64
64 64 64
64 64 64
64 64 64
64 64 64
64 64 64
64 64 64
64 64 64
0 0 0
64 64 64
64 64 64
64 64 64
0 0 0
64 64 64
128 128 128
128 128 128
64 64 64
0 0 0
64 64 64
64 64 64
64 64 64
64 64 64
64 64 64
64 64 64
64 64 64
64 64 64
0 0 0
0 0 0
0 0 0
0 0 0
0 0 0
0 0 0
64 64 64
64 64 64
64 64 64
64 64 64
64 64 64
64 64 64
0 0 0
0 0 0
0 0 0
64 64 64
64 64 64
64 64 64
64 64 64
64 64 64
64 64 64
64 64 64
64 64 64
64 64 64
64 64 64
64 64 64
64 64 64
64 64 64
128 128 128
64 64 64
64 64 64
64 64 64
64 64 64
64 64 64
64 64 64
64 64 64
64 64 64
0 0 0
0 0 0
64 64 64
64 64 64
64 64 64
64 64 64
64 64 64
64 64 64
64 64 64
64 64 64
64 64 64
0 0 0
0 0 0
192 192 192
64 64 64
64 64 64
0 0 0
0 0 0
0 0 0
64 64 64
128 128 128
128 128 128
64 64 64
64 64 64
64 64 64
64 64 64
64 64 64
64 64 64
128 128 128
64 64 64
64 64 64
64 64 64
64 64 64
64 64 64
128 128 128
128 128 128
128 128 128
64 64 64
64 64 64
64 64 64
64 64 64
64 64 64
64 64 64
64 64 64
64 64 64
64 64 64
64 64 64
128 128 128
192 192 192
192 192 192
192 192 192
192 192 192
192 192 192
192 192 192
192 192 192
192 192 192
128 128 128
192 192 192
192 192 192
128 128 128
128 128 128
128 128 128
128 128 128
128 128 128
128 128 128
128 128 128
128 128 128
128 128 128
128 128 128
128 128 128
128 128 128
128 128 128
128 128 128
128 128 128
128 128 128
128 128 128
128 128 128
128 128 128
128 128 128
128 128 128
128 128 128
128 128 128
64 64 64
64 64 64
64 64 64
64 64 64
64 64 64
64 64 64
64 64 64
64 64 64
64 64 64
64 64 64
64 64 64
64 64 64
64 64 64
64 64 64
64 64 64
64 64 64
64 64 64
64 64 64
64 64 64
64 64 64
0 0 0
0 0 0
64 64 64
64 64 64
64 64 64
64 64 64
64 64 64
64 64 64
0 0 0
64 64 64
64 64 64
64 64 64
64 64 64
64 64 64
64 64 64
64 64 64
64 64 64
64 64 64
64 64 64
64 64 64
64 64 64
64 64 64
64 64 64
64 64 64
0 0 0
0 0 0
0 0 0
0 0 0
0 0 0
64 64 64
128 128 128
128 128 128
64 64 64
64 64 64
64 64 64
64 64 64
64 64 64
64 64 64
64 64 64
0 0 0
0 0 0
64 64 64
64 64 64
0 0 0
64 64 64
64 64 64
64 64 64
64 64 64
64 64 64
64 64 64
64 64 64
64 64 64
64 64 64
64 64 64
64 64 64
0 0 0
0 0 0
64 64 64
64 64 64
64 64 64
64 64 64
64 64 64
64 64 64
64 64 64
64 64 64
64 64 64
64 64 64
128 128 128
128 128 128
128 128 128
64 64 64
64 64 64
64 64 64
64 64 64
64 64 64
64 64 64
64 64 64
0 0 0
0 0 0
64 64 64
0 0 0
64 64 64
64 64 64
64 64 64
64 64 64
64 64 64
128 128 128
128 128 128
64 64 64
0 0 0
64 64 64
128 128 128
0 0 0
0 0 0
0 0 0
64 64 64
128 128 128
128 128 128
128 128 128
128 128 128
128 128 128
128 128 128
128 128 128
128 128 128
64 64 64
64 64 64
64 64 64
64 64 64
64 64 64
64 64 64
64 64 64
64 64 64
128 128 128
128 128 128
128 128 128
64 64 64
64 64 64
64 64 64
64 64 64
64 64 64
64 64 64
64 64 64
64 64 64
128 128 128
64 64 64
128 128 128
128 128 128
192 192 192
192 192 192
192 192 192
192 192 192
192 192 192
192 192 192
192 192 192
128 128 128
192 192 192
192 192 192
128 128 128
128 128 128
128 128 128
128 128 128
128 128 128
128 128 128
128 128 128
128 128 128
128 128 128
128 128 128
128 128 128
128 128 128
128 128 128
128 128 128
128 128 128
128 128 128
128 128 128
128 128 128
128 128 128
128 128 128
128 128 128
128 128 128
128 128 128
128 128 128
64 64 64
64 64 64
64 64 64
64 64 64
64 64 64
64 64 64
64 64 64
64 64 64
64 64 64
64 64 64
64 64 64
64 64 64
64 64 64
64 64 64
64 64 64
64 64 64
64 64 64
64 64 64
0 0 0
0 0 0
0 0 0
0 0 0
0 0 0
64 64 64
64 64 64
0 0 0
64 64 64
0 0 0
64 64 64
64 64 64
64 64 64
64 64 64
64 64 64
64 64 64
64 64 64
64 64 64
64 64 64
64 64 64
64 64 64
128 128 128
64 64 64
64 64 64
64 64 64
64 64 64
64 64 64
0 0 0
64 64 64
0 0 0
0 0 0
64 64 64
64 64 64
128 128 128
64 64 64
0 0 0
64 64 64
64 64 64
0 0 0
64 64 64
64 64 64
64 64 64
64 64 64
64 64 64
64 64 64
128 128 128
64 64 64
128 128 128
64 64 64
128 128 128
64 64 64
64 64 64
64 64 64
64 64 64
64 64 64
64 64 64
0 0 0
0 0 0
0 0 0
64 64 64
64 64 64
64 64 64
64 64 64
64 64 64
64 64 64
64 64 64
64 64 64
64 64 64
64 64 64
64 64 64
64 64 64
128 128 128
128 128 128
64 64 64
64 64 64
64 64 64
64 64 64
64 64 64
0 0 0
0 0 0
64 64 64
0 0 0
64 64 64
64 64 64
64 64 64
64 64 64
64 64 64
64 64 64
128 128 128
128 128 128
64 64 64
128 128 128
64 64 64
0 0 0
0 0 0
64 64 64
128 128 128
64 64 64
64 64 64
64 64 64
64 64 64
128 128 128
128 128 128
128 128 128
128 128 128
128 128 128
128 128 128
64 64 64
64 64 64
64 64 64
64 64 64
64 64 64
64 64 64
64 64 64
128 128 128
128 128 128
192 192 192
128 128 128
64 64 64
64 64 64
64 64 64
64 64 64
64 64 64
64 64 64
64 64 64
128 128 128
64 64 64
128 128 128
192 192 192
192 192 192
192 192 192
192 192 192
192 192 192
192 192 192
192 192 192
128 128 128
192 192 192
192 192 192
128 128 128
128 128 128
128 128 128
128 128 128
128 128 128
128 128 128
128 128 128
128 128 128
128 128 128
128 128 128
192 192 192
128 128 128
128 128 128
128 128 128
128 128 128
128 128 128
128 128 128
128 128 128
128 128 128
128 128 128
128 128 128
128 128 128
128 128 128
128 128 128
64 64 64
64 64 64
64 64 64
64 64 64
64 64 64
64 64 64
64 64 64
64 64 64
0 0 0
64 64 64
64 64 64
64 64 64
64 64 64
64 64 64
64 64 64
64 64 64
64 64 64
64 64 64
0 0 0
0 0 0
0 0 0
0 0 0
0 0 0
64 64 64
64 64 64
0 0 0
0 0 0
0 0 0
0 0 0
0 0 0
64 64 64
64 64 64
64 64 64
64 64 64
64 64 64
64 64 64
64 64 64
64 64 64
64 64 64
64 64 64
64 64 64
64 64 64
64 64 64
64 64 64
64 64 64
64 64 64
0 0 0
0 0 0
64 64 64
64 64 64
64 64 64
64 64 64
64 64 64
64 64 64
64 64 64
64 64 64
64 64 64
64 64 64
64 64 64
64 64 64
64 64 64
64 64 64
64 64 64
64 64 64
64 64 64
64 64 64
64 64 64
64 64 64
64 64 64
64 64 64
64 64 64
64 64 64
64 64 64
64 64 64
0 0 0
64 64 64
64 64 64
0 0 0
64 64 64
128 128 128
64 64 64
64 64 64
64 64 64
64 64 64
64 64 64
64 64 64
64 64 64
64 64 64
64 64 64
128 128 128
128 128 128
64 64 64
64 64 64
64 64 64
64 64 64
64 64 64
64 64 64
0 0 0
64 64 64
64 64 64
64 64 64
64 64 64
64 64 64
128 128 128
64 64 64
64 64 64
128 128 128
192 192 192
192 192 192
128 128 128
64 64 64
0 0 0
0 0 0
64 64 64
0 0 0
0 0 0
64 64 64
64 64 64
64 64 64
64 64 64
128 128 128
128 128 128
128 128 128
128 128 128
128 128 128
64 64 64
64 64 64
64 64 64
64 64 64
64 64 64
64 64 64
64 64 64
128 128 128
128 128 128
192 192 192
192 192 192
128 128 128
64 64 64
64 64 64
64 64 64
64 64 64
64 64 64
64 64 64
128 128 128
128 128 128
64 64 64
128 128 128
192 192 192
192 192 192
192 192 192
192 192 192
192 192 192
192 192 192
128 128 128
192 192 192
192 192 192
128 128 128
128 128 128
128 128 128
128 128 128
128 128 128
128 128 128
128 128 128
192 192 192
192 192 192
192 192 192
192 192 192
192 192 192
192 192 192
192 192 192
192 192 192
128 128 128
128 128 128
128 128 128
128 128 128
128 128 128
128 128 128
128 128 128
128 128 128
128 128 128
128 128 128
64 64 64
64 64 64
64 64 64
64 64 64
64 64 64
64 64 64
64 64 64
64 64 64
64 64 64
64 64 64
64 64 64
64 64 64
64 64 64
64 64 64
64 64 64
64 64 64
64 64 64
0 0 0
0 0 0
0 0 0
0 0 0
0 0 0
64 64 64
64 64 64
64 64 64
0 0 0
0 0 0
0 0 0
0 0 0
0 0 0
0 0 0
64 64 64
64 64 64
64 64 64
0 0 0
64 64 64
64 64 64
0 0 0
64 64 64
0 0 0
0 0 0
64 64 64
64 64 64
64 64 64
64 64 64
64 64 64
64 64 64
64 64 64
64 64 64
64 64 64
64 64 64
64 64 64
64 64 64
64 64 64
64 64 64
64 64 64
64 64 64
64 64 64
64 64 64
64 64 64
64 64 64
64 64 64
64 64 64
64 64 64
64 64 64
64 64 64
64 64 64
64 64 64
64 64 64
64 64 64
64 64 64
64 64 64
64 64 64
64 64 64
64 64 64
64 64 64
64 64 64
64 64 64
64 64 64
64 64 64
64 64 64
64 64 64
64 64 64
64 64 64
64 64 64
64 64 64
64 64 64
64 64 64
64 64 64
64 64 64
64 64 64
0 0 0
0 0 0
64 64 64
64 64 64
64 64 64
64 64 64
0 0 0
64 64 64
64 64 64
64 64 64
64 64 64
64 64 64
128 128 128
64 64 64
64 64 64
128 128 128
128 128 128
192 192 192
192 192 192
128 128 128
128 128 128
64 64 64
0 0 0
0 0 0
0 0 0
0 0 0
64 64 64
64 64 64
64 64 64
128 128 128
64 64 64
64 64 64
64 64 64
64 64 64
64 64 64
64 64 64
64 64 64
64 64 64
64 64 64
64 64 64
64 64 64
128 128 128
128 128 128
128 128 128
128 128 128
64 64 64
64 64 64
64 64 64
64 64 64
64 64 64
64 64 64
128 128 128
192 192 192
192 192 192
64 64 64
128 128 128
192 192 192
192 192 192
192 192 192
192 192 192
192 192 192
128 128 128
192 192 192
192 192 192
128 128 128
128 128 128
128 128 128
128 128 128
128 128 128
128 128 128
128 128 128
192 192 192
192 192 192
192 192 192
192 192 192
192 192 192
192 192 192
192 192 192
192 192 192
192 192 192
192 192 192
128 128 128
128 128 128
128 128 128
128 128 128
128 128 128
128 128 128
128 128 128
128 128 128
128 128 128
64 64 64
0 0 0
0 0 0
64 64 64
64 64 64
64 64 64
64 64 64
64 64 64
0 0 0
64 64 64
64 64 64
64 64 64
64 64 64
64 64 64
64 64 64
64 64 64
64 64 64
64 64 64
64 64 64
0 0 0
0 0 0
64 64 64
64 64 64
64 64 64
64 64 64
0 0 0
0 0 0
0 0 0
0 0 0
0 0 0
64 64 64
64 64 64
64 64 64
0 0 0
0 0 0
0 0 0
0 0 0
0 0 0
0 0 0
64 64 64
64 64 64
64 64 64
64 64 64
64 64 64
64 64 64
64 64 64
64 64 64
64 64 64
64 64 64
64 64 64
64 64 64
64 64 64
64 64 64
64 64 64
64 64 64
64 64 64
64 64 64
64 64 64
64 64 64
64 64 64
64 64 64
64 64 64
64 64 64
64 64 64
64 64 64
64 64 64
64 64 64
128 128 128
64 64 64
64 64 64
64 64 64
64 64 64
64 64 64
64 64 64
64 64 64
64 64 64
64 64 64
64 64 64
64 64 64
64 64 64
64 64 64
64 64 64
64 64 64
64 64 64
64 64 64
64 64 64
64 64 64
64 64 64
64 64 64
64 64 64
64 64 64
0 0 0
64 64 64
64 64 64
64 64 64
64 64 64
0 0 0
64 64 64
64 64 64
64 64 64
64 64 64
64 64 64
64 64 64
128 128 128
64 64 64
64 64 64
128 128 128
128 128 128
128 128 128
128 128 128
192 192 192
192 192 192
128 128 128
64 64 64
64 64 64
64 64 64
64 64 64
64 64 64
64 64 64
64 64 64
64 64 64
64 64 64
64 64 64
64 64 64
64 64 64
64 64 64
64 64 64
64 64 64
64 64 64
64 64 64
64 64 64
128 128 128
128 128 128
128 128 128
128 128 128
64 64 64
64 64 64
64 64 64
64 64 64
64 64 64
64 64 64
128 128 128
128 128 128
192 192 192
128 128 128
64 64 64
128 128 128
128 128 128
192 192 192
192 192 192
192 192 192
128 128 128
192 192 192
192 192 192
128 128 128
128 128 128
128 128 128
128 128 128
128 128 128
128 128 128
128 128 128
192 192 192
192 192 192
192 192 192
192 192 192
192 192 192
192 192 192
192 192 192
192 192 192
192 192 192
192 192 192
192 192 192
128 128 128
128 128 128
128 128 128
128 128 128
128 128 128
128 128 128
128 128 128
128 128 128
128 128 128
64 64 64
64 64 64
64 64 64
64 64 64
64 64 64
64 64 64
0 0 0
64 64 64
128 128 128
64 64 64
64 64 64
64 64 64
64 64 64
64 64 64
64 64 64
64 64 64
64 64 64
64 64 64
64 64 64
64 64 64
64 64 64
64 64 64
64 64 64
64 64 64
0 0 0
0 0 0
0 0 0
64 64 64
64 64 64
64 64 64
0 0 0
0 0 0
0 0 0
0 0 0
0 0 0
64 64 64
64 64 64
64 64 64
64 64 64
64 64 64
64 64 64
64 64 64
64 64 64
64 64 64
64 64 64
64 64 64
64 64 64
64 64 64
64 64 64
64 64 64
64 64 64
64 64 64
64 64 64
64 64 64
64 64 64
64 64 64
64 64 64
64 64 64
64 64 64
64 64 64
64 64 64
64 64 64
64 64 64
64 64 64
64 64 64
128 128 128
128 128 128
64 64 64
64 64 64
64 64 64
64 64 64
64 64 64
64 64 64
64 64 64
64 64 64
64 64 64
128 128 128
128 128 128
64 64 64
64 64 64
64 64 64
64 64 64
64 64 64
64 64 64
64 64 64
64 64 64
64 64 64
64 64 64
64 64 64
64 64 64
0 0 0
64 64 64
128 128 128
64 64 64
64 64 64
0 0 0
0 0 0
64 64 64
64 64 64
64 64 64
64 64 64
64 64 64
64 64 64
128 128 128
128 128 128
128 128 128
128 128 128
128 128 128
192 192 192
192 192 192
192 192 192
192 192 192
128 128 128
64 64 64
64 64 64
0 0 0
64 64 64
64 64 64
64 64 64
64 64 64
64 64 64
64 64 64
64 64 64
64 64 64
64 64 64
64 64 64
64 64 64
64 64 64
64 64 64
64 64 64
64 64 64
128 128 128
128 128 128
64 64 64
64 64 64
64 64 64
64 64 64
64 64 64
64 64 64
64 64 64
64 64 64
128 128 128
192 192 192
192 192 192
192 192 192
64 64 64
128 128 128
192 192 192
192 192 192
192 192 192
128 128 128
192 192 192
192 192 192
128 128 128
128 128 128
128 128 128
128 128 128
128 128 128
128 128 128
128 128 128
192 192 192
192 192 192
192 192 192
192 192 192
192 192 192
192 192 192
192 192 192
192 192 192
192 192 192
192 192 192
192 192 192
192 192 192
192 192 192
128 128 128
128 128 128
128 128 128
128 128 128
128 128 128
128 128 128
192 192 192
256 256 256
256 256 256
256 256 256
128 128 128
64 64 64
64 64 64
128 128 128
256 256 256
256 256 256
256 256 256
128 128 128
64 64 64
64 64 64
64 64 64
0 0 0
64 64 64
64 64 64
64 64 64
64 64 64
64 64 64
64 64 64
64 64 64
64 64 64
64 64 64
64 64 64
64 64 64
64 64 64
64 64 64
64 64 64
64 64 64
0 0 0
0 0 0
64 64 64
64 64 64
64 64 64
64 64 64
64 64 64
64 64 64
64 64 64
64 64 64
64 64 64
64 64 64
64 64 64
64 64 64
64 64 64
64 64 64
64 64 64
64 64 64
64 64 64
64 64 64
64 64 64
64 64 64
64 64 64
64 64 64
64 64 64
64 64 64
64 64 64
64 64 64
64 64 64
64 64 64
64 64 64
64 64 64
64 64 64
64 64 64
64 64 64
128 128 128
128 128 128
128 128 128
64 64 64
64 64 64
64 64 64
64 64 64
64 64 64
64 64 64
64 64 64
64 64 64
128 128 128
128 128 128
64 64 64
64 64 64
64 64 64
64 64 64
0 0 0
64 64 64
64 64 64
64 64 64
64 64 64
64 64 64
64 64 64
64 64 64
0 0 0
0 0 0
64 64 64
64 64 64
64 64 64
64 64 64
0 0 0
64 64 64
64 64 64
64 64 64
64 64 64
64 64 64
64 64 64
64 64 64
64 64 64
128 128 128
128 128 128
128 128 128
128 128 128
128 128 128
128 128 128
128 128 128
128 128 128
128 128 128
64 64 64
64 64 64
0 0 0
64 64 64
64 64 64
64 64 64
64 64 64
64 64 64
64 64 64
64 64 64
64 64 64
64 64 64
64 64 64
64 64 64
64 64 64
0 0 0
0 0 0
64 64 64
64 64 64
64 64 64
64 64 64
64 64 64
64 64 64
64 64 64
0 0 0
128 128 128
192 192 192
192 192 192
192 192 192
192 192 192
192 192 192
192 192 192
128 128 128
128 128 128
128 128 128
192 192 192
192 192 192
192 192 192
192 192 192
128 128 128
128 128 128
128 128 128
128 128 128
128 128 128
128 128 128
128 128 128
192 192 192
192 192 192
192 192 192
192 192 192
192 192 192
192 192 192
192 192 192
192 192 192
192 192 192
192 192 192
192 192 192
192 192 192
192 192 192
192 192 192
128 128 128
128 128 128
128 128 128
128 128 128
192 192 192
256 256 256
256 256 256
192 192 192
256 256 256
256 256 256
256 256 256
256 256 256
192 192 192
128 128 128
192 192 192
192 192 192
256 256 256
64 64 64
0 0 0
64 64 64
64 64 64
64 64 64
64 64 64
64 64 64
64 64 64
64 64 64
64 64 64
64 64 64
64 64 64
64 64 64
64 64 64
64 64 64
64 64 64
64 64 64
64 64 64
0 0 0
0 0 0
0 0 0
64 64 64
64 64 64
64 64 64
64 64 64
64 64 64
64 64 64
64 64 64
64 64 64
64 64 64
64 64 64
64 64 64
64 64 64
64 64 64
64 64 64
64 64 64
64 64 64
64 64 64
64 64 64
64 64 64
64 64 64
64 64 64
64 64 64
64 64 64
64 64 64
64 64 64
64 64 64
64 64 64
128 128 128
64 64 64
64 64 64
64 64 64
128 128 128
64 64 64
128 128 128
128 128 128
128 128 128
64 64 64
64 64 64
64 64 64
64 64 64
64 64 64
64 64 64
64 64 64
64 64 64
64 64 64
64 64 64
64 64 64
64 64 64
64 64 64
0 0 0
0 0 0
64 64 64
64 64 64
64 64 64
64 64 64
64 64 64
64 64 64
128 128 128
0 0 0
0 0 0
64 64 64
64 64 64
64 64 64
64 64 64
64 64 64
64 64 64
64 64 64
64 64 64
64 64 64
64 64 64
64 64 64
64 64 64
64 64 64
64 64 64
64 64 64
128 128 128
64 64 64
64 64 64
64 64 64
128 128 128
128 128 128
128 128 128
128 128 128
64 64 64
64 64 64
64 64 64
64 64 64
64 64 64
64 64 64
64 64 64
64 64 64
64 64 64
64 64 64
64 64 64
64 64 64
64 64 64
64 64 64
0 0 0
0 0 0
64 64 64
64 64 64
64 64 64
64 64 64
64 64 64
64 64 64
0 0 0
64 64 64
128 128 128
128 128 128
128 128 128
192 192 192
192 192 192
192 192 192
192 192 192
192 192 192
128 128 128
128 128 128
128 128 128
192 192 192
192 192 192
192 192 192
128 128 128
128 128 128
128 128 128
128 128 128
128 128 128
128 128 128
128 128 128
192 192 192
192 192 192
192 192 192
192 192 192
192 192 192
192 192 192
192 192 192
192 192 192
192 192 192
192 192 192
192 192 192
192 192 192
192 192 192
192 192 192
192 192 192
128 128 128
192 192 192
128 128 128
256 256 256
192 192 192
192 192 192
192 192 192
192 192 192
192 192 192
192 192 192
192 192 192
128 128 128
128 128 128
64 64 64
128 128 128
128 128 128
128 128 128
64 64 64
64 64 64
64 64 64
64 64 64
64 64 64
64 64 64
128 128 128
64 64 64
64 64 64
64 64 64
64 64 64
0 0 0
0 0 0
0 0 0
0 0 0
64 64 64
64 64 64
0 0 0
0 0 0
64 64 64
64 64 64
64 64 64
64 64 64
64 64 64
64 64 64
64 64 64
64 64 64
64 64 64
64 64 64
64 64 64
64 64 64
64 64 64
64 64 64
64 64 64
64 64 64
64 64 64
64 64 64
64 64 64
64 64 64
64 64 64
64 64 64
64 64 64
64 64 64
64 64 64
64 64 64
64 64 64
64 64 64
128 128 128
128 128 128
64 64 64
128 128 128
128 128 128
128 128 128
128 128 128
128 128 128
128 128 128
128 128 128
128 128 128
64 64 64
64 64 64
64 64 64
64 64 64
64 64 64
64 64 64
64 64 64
64 64 64
64 64 64
64 64 64
64 64 64
64 64 64
0 0 0
64 64 64
128 128 128
128 128 128
64 64 64
64 64 64
64 64 64
64 64 64
0 0 0
64 64 64
64 64 64
64 64 64
64 64 64
64 64 64
64 64 64
64 64 64
64 64 64
64 64 64
64 64 64
64 64 64
64 64 64
64 64 64
64 64 64
64 64 64
64 64 64
64 64 64
64 64 64
64 64 64
64 64 64
128 128 128
128 128 128
64 64 64
64 64 64
64 64 64
64 64 64
64 64 64
64 64 64
64 64 64
64 64 64
64 64 64
64 64 64
64 64 64
64 64 64
64 64 64
64 64 64
64 64 64
64 64 64
0 0 0
0 0 0
0 0 0
64 64 64
64 64 64
64 64 64
64 64 64
0 0 0
64 64 64
128 128 128
128 128 128
128 128 128
128 128 128
128 128 128
192 192 192
192 192 192
192 192 192
128 128 128
128 128 128
64 64 64
128 128 128
128 128 128
128 128 128
192 192 192
192 192 192
128 128 128
128 128 128
128 128 128
128 128 128
128 128 128
128 128 128
192 192 192
192 192 192
192 192 192
192 192 192
192 192 192
192 192 192
192 192 192
192 192 192
192 192 192
192 192 192
192 192 192
192 192 192
192 192 192
192 192 192
192 192 192
128 128 128
128 128 128
128 128 128
256 256 256
256 256 256
192 192 192
192 192 192
192 192 192
192 192 192
192 192 192
192 192 192
192 192 192
192 192 192
128 128 128
64 64 64
64 64 64
64 64 64
64 64 64
64 64 64
64 64 64
64 64 64
64 64 64
64 64 64
128 128 128
64 64 64
64 64 64
64 64 64
64 64 64
0 0 0
0 0 0
0 0 0
0 0 0
0 0 0
0 0 0
0 0 0
64 64 64
64 64 64
64 64 64
64 64 64
64 64 64
64 64 64
64 64 64
64 64 64
64 64 64
64 64 64
64 64 64
64 64 64
64 64 64
64 64 64
64 64 64
64 64 64
64 64 64
64 64 64
64 64 64
64 64 64
64 64 64
64 64 64
64 64 64
64 64 64
64 64 64
64 64 64
64 64 64
64 64 64
64 64 64
64 64 64
128 128 128
128 128 128
128 128 128
128 128 128
128 128 128
128 128 128
128 128 128
128 128 128
128 128 128
128 128 128
64 64 64
64 64 64
64 64 64
64 64 64
64 64 64
64 64 64
64 64 64
64 64 64
64 64 64
64 64 64
64 64 64
64 64 64
0 0 0
64 64 64
128 128 128
64 64 64
128 128 128
128 128 128
64 64 64
64 64 64
0 0 0
64 64 64
64 64 64
64 64 64
64 64 64
64 64 64
64 64 64
64 64 64
64 64 64
64 64 64
64 64 64
64 64 64
64 64 64
64 64 64
64 64 64
64 64 64
64 64 64
128 128 128
128 128 128
128 128 128
128 128 128
128 128 128
128 128 128
64 64 64
64 64 64
64 64 64
64 64 64
64 64 64
64 64 64
64 64 64
64 64 64
64 64 64
64 64 64
64 64 64
64 64 64
64 64 64
64 64 64
64 64 64
64 64 64
0 0 0
0 0 0
64 64 64
64 64 64
64 64 64
64 64 64
64 64 64
64 64 64
64 64 64
128 128 128
128 128 128
128 128 128
128 128 128
192 192 192
128 128 128
128 128 128
128 128 128
128 128 128
128 128 128
64 64 64
128 128 128
128 128 128
128 128 128
128 128 128
192 192 192
128 128 128
128 128 128
128 128 128
128 128 128
128 128 128
128 128 128
192 192 192
192 192 192
192 192 192
192 192 192
192 192 192
192 192 192
192 192 192
192 192 192
192 192 192
192 192 192
192 192 192
192 192 192
192 192 192
192 192 192
192 192 192
128 128 128
192 192 192
128 128 128
128 128 128
192 192 192
192 192 192
192 192 192
128 128 128
128 128 128
128 128 128
128 128 128
192 192 192
256 256 256
192 192 192
64 64 64
64 64 64
64 64 64
64 64 64
64 64 64
64 64 64
64 64 64
64 64 64
64 64 64
64 64 64
64 64 64
64 64 64
64 64 64
64 64 64
0 0 0
0 0 0
0 0 0
0 0 0
0 0 0
0 0 0
64 64 64
64 64 64
64 64 64
64 64 64
64 64 64
64 64 64
64 64 64
64 64 64
64 64 64
64 64 64
64 64 64
64 64 64
64 64 64
64 64 64
64 64 64
64 64 64
64 64 64
64 64 64
64 64 64
64 64 64
64 64 64
64 64 64
64 64 64
64 64 64
64 64 64
64 64 64
64 64 64
64 64 64
64 64 64
64 64 64
64 64 64
128 128 128
128 128 128
128 128 128
128 128 128
128 128 128
128 128 128
128 128 128
128 128 128
128 128 128
128 128 128
128 128 128
64 64 64
64 64 64
64 64 64
64 64 64
64 64 64
64 64 64
64 64 64
64 64 64
64 64 64
64 64 64
0 0 0
0 0 0
64 64 64
64 64 64
128 128 128
128 128 128
128 128 128
64 64 64
0 0 0
0 0 0
64 64 64
64 64 64
64 64 64
64 64 64
64 64 64
64 64 64
64 64 64
64 64 64
64 64 64
64 64 64
64 64 64
128 128 128
64 64 64
64 64 64
64 64 64
128 128 128
128 128 128
128 128 128
128 128 128
128 128 128
128 128 128
128 128 128
64 64 64
64 64 64
64 64 64
64 64 64
64 64 64
64 64 64
64 64 64
64 64 64
64 64 64
64 64 64
64 64 64
64 64 64
64 64 64
64 64 64
64 64 64
0 0 0
0 0 0
64 64 64
64 64 64
64 64 64
64 64 64
64 64 64
64 64 64
64 64 64
64 64 64
64 64 64
128 128 128
128 128 128
128 128 128
128 128 128
128 128 128
128 128 128
128 128 128
128 128 128
128 128 128
64 64 64
64 64 64
64 64 64
128 128 128
128 128 128
128 128 128
128 128 128
128 128 128
128 128 128
128 128 128
128 128 128
128 128 128
192 192 192
192 192 192
192 192 192
192 192 192
192 192 192
192 192 192
192 192 192
192 192 192
192 192 192
192 192 192
192 192 192
192 192 192
192 192 192
192 192 192
192 192 192
192 192 192
192 192 192
192 192 192
128 128 128
192 192 192
192 192 192
192 192 192
128 128 128
128 128 128
128 128 128
128 128 128
128 128 128
256 256 256
192 192 192
64 64 64
64 64 64
64 64 64
64 64 64
128 128 128
128 128 128
64 64 64
64 64 64
64 64 64
64 64 64
64 64 64
64 64 64
64 64 64
64 64 64
0 0 0
0 0 0
64 64 64
64 64 64
0 0 0
64 64 64
64 64 64
64 64 64
64 64 64
64 64 64
64 64 64
64 64 64
64 64 64
64 64 64
64 64 64
64 64 64
64 64 64
64 64 64
64 64 64
64 64 64
64 64 64
64 64 64
64 64 64
64 64 64
64 64 64
64 64 64
64 64 64
64 64 64
64 64 64
64 64 64
64 64 64
64 64 64
64 64 64
64 64 64
64 64 64
64 64 64
64 64 64
128 128 128
128 128 128
128 128 128
128 128 128
128 128 128
128 128 128
128 128 128
128 128 128
128 128 128
128 128 128
128 128 128
128 128 128
64 64 64
64 64 64
64 64 64
64 64 64
64 64 64
64 64 64
64 64 64
64 64 64
64 64 64
0 0 0
64 64 64
64 64 64
128 128 128
128 128 128
128 128 128
64 64 64
0 0 0
0 0 0
64 64 64
128 128 128
64 64 64
64 64 64
64 64 64
64 64 64
64 64 64
64 64 64
64 64 64
64 64 64
64 64 64
64 64 64
128 128 128
64 64 64
128 128 128
128 128 128
128 128 128
128 128 128
128 128 128
128 128 128
128 128 128
64 64 64
64 64 64
64 64 64
64 64 64
64 64 64
64 64 64
64 64 64
64 64 64
64 64 64
64 64 64
64 64 64
64 64 64
64 64 64
64 64 64
64 64 64
64 64 64
64 64 64
0 0 0
64 64 64
64 64 64
64 64 64
64 64 64
64 64 64
0 0 0
64 64 64
64 64 64
128 128 128
64 64 64
64 64 64
128 128 128
128 128 128
128 128 128
128 128 128
128 128 128
64 64 64
64 64 64
128 128 128
128 128 128
64 64 64
64 64 64
64 64 64
64 64 64
64 64 64
128 128 128
128 128 128
128 128 128
128 128 128
128 128 128
128 128 128
192 192 192
192 192 192
192 192 192
192 192 192
192 192 192
192 192 192
192 192 192
192 192 192
192 192 192
192 192 192
192 192 192
192 192 192
192 192 192
192 192 192
192 192 192
192 192 192
192 192 192
192 192 192
128 128 128
128 128 128
192 192 192
128 128 128
64 64 64
128 128 128
128 128 128
128 128 128
128 128 128
128 128 128
192 192 192
64 64 64
64 64 64
64 64 64
0 0 0
128 128 128
128 128 128
64 64 64
64 64 64
64 64 64
64 64 64
64 64 64
64 64 64
64 64 64
64 64 64
0 0 0
64 64 64
64 64 64
0 0 0
64 64 64
64 64 64
64 64 64
64 64 64
64 64 64
64 64 64
64 64 64
64 64 64
64 64 64
64 64 64
64 64 64
64 64 64
64 64 64
64 64 64
64 64 64
64 64 64
64 64 64
64 64 64
64 64 64
64 64 64
64 64 64
64 64 64
64 64 64
64 64 64
64 64 64
64 64 64
64 64 64
64 64 64
128 128 128
64 64 64
128 128 128
128 128 128
128 128 128
128 128 128
128 128 128
128 128 128
128 128 128
128 128 128
128 128 128
128 128 128
128 128 128
128 128 128
128 128 128
128 128 128
128 128 128
128 128 128
64 64 64
64 64 64
128 128 128
128 128 128
128 128 128
64 64 64
64 64 64
64 64 64
128 128 128
128 128 128
128 128 128
128 128 128
128 128 128
64 64 64
0 0 0
0 0 0
0 0 0
64 64 64
64 64 64
64 64 64
64 64 64
64 64 64
64 64 64
64 64 64
64 64 64
64 64 64
0 0 0
64 64 64
128 128 128
64 64 64
64 64 64
128 128 128
128 128 128
128 128 128
128 128 128
128 128 128
128 128 128
128 128 128
128 128 128
64 64 64
128 128 128
128 128 128
128 128 128
64 64 64
64 64 64
64 64 64
64 64 64
64 64 64
64 64 64
64 64 64
64 64 64
64 64 64
64 64 64
64 64 64
0 0 0
0 0 0
64 64 64
64 64 64
64 64 64
64 64 64
0 0 0
0 0 0
0 0 0
64 64 64
64 64 64
64 64 64
64 64 64
64 64 64
64 64 64
64 64 64
128 128 128
64 64 64
64 64 64
64 64 64
64 64 64
128 128 128
192 192 192
192 192 192
128 128 128
64 64 64
64 64 64
128 128 128
192 192 192
128 128 128
128 128 128
128 128 128
128 128 128
192 192 192
192 192 192
192 192 192
192 192 192
192 192 192
192 192 192
192 192 192
192 192 192
192 192 192
192 192 192
192 192 192
192 192 192
192 192 192
192 192 192
192 192 192
192 192 192
192 192 192
192 192 192
192 192 192
128 128 128
128 128 128
128 128 128
64 64 64
64 64 64
64 64 64
64 64 64
64 64 64
64 64 64
192 192 192
64 64 64
64 64 64
64 64 64
0 0 0
64 64 64
0 0 0
64 64 64
64 64 64
64 64 64
64 64 64
64 64 64
64 64 64
64 64 64
64 64 64
64 64 64
64 64 64
64 64 64
64 64 64
64 64 64
64 64 64
64 64 64
64 64 64
64 64 64
64 64 64
64 64 64
64 64 64
64 64 64
64 64 64
64 64 64
64 64 64
64 64 64
64 64 64
64 64 64
64 64 64
64 64 64
64 64 64
64 64 64
64 64 64
64 64 64
64 64 64
64 64 64
64 64 64
64 64 64
128 128 128
128 128 128
128 128 128
128 128 128
128 128 128
128 128 128
128 128 128
128 128 128
128 128 128
64 64 64
64 64 64
64 64 64
64 64 64
128 128 128
128 128 128
128 128 128
128 128 128
128 128 128
128 128 128
128 128 128
128 128 128
128 128 128
128 128 128
128 128 128
64 64 64
64 64 64
64 64 64
64 64 64
64 64 64
64 64 64
64 64 64
64 64 64
64 64 64
64 64 64
0 0 0
0 0 0
0 0 0
64 64 64
128 128 128
64 64 64
64 64 64
64 64 64
64 64 64
64 64 64
64 64 64
64 64 64
0 0 0
0 0 0
64 64 64
64 64 64
64 64 64
128 128 128
128 128 128
128 128 128
64 64 64
128 128 128
128 128 128
128 128 128
128 128 128
128 128 128
128 128 128
128 128 128
128 128 128
64 64 64
64 64 64
64 64 64
64 64 64
64 64 64
64 64 64
64 64 64
64 64 64
64 64 64
64 64 64
64 64 64
64 64 64
0 0 0
64 64 64
64 64 64
64 64 64
64 64 64
0 0 0
0 0 0
0 0 0
0 0 0
64 64 64
64 64 64
64 64 64
64 64 64
64 64 64
64 64 64
64 64 64
64 64 64
64 64 64
64 64 64
64 64 64
64 64 64
64 64 64
192 192 192
192 192 192
256 256 256
192 192 192
192 192 192
128 128 128
128 128 128
128 128 128
128 128 128
128 128 128
128 128 128
192 192 192
192 192 192
192 192 192
192 192 192
192 192 192
192 192 192
192 192 192
192 192 192
192 192 192
192 192 192
192 192 192
192 192 192
192 192 192
192 192 192
192 192 192
192 192 192
192 192 192
192 192 192
192 192 192
192 192 192
64 64 64
128 128 128
64 64 64
64 64 64
64 64 64
64 64 64
64 64 64
64 64 64
128 128 128
64 64 64
64 64 64
64 64 64
64 64 64
64 64 64
0 0 0
0 0 0
0 0 0
64 64 64
64 64 64
64 64 64
128 128 128
128 128 128
64 64 64
0 0 0
0 0 0
64 64 64
64 64 64
64 64 64
64 64 64
64 64 64
64 64 64
64 64 64
64 64 64
64 64 64
64 64 64
64 64 64
64 64 64
64 64 64
64 64 64
64 64 64
64 64 64
64 64 64
64 64 64
64 64 64
64 64 64
64 64 64
64 64 64
64 64 64
64 64 64
64 64 64
128 128 128
128 128 128
128 128 128
128 128 128
128 128 128
128 128 128
128 128 128
128 128 128
128 128 128
128 128 128
64 64 64
128 128 128
64 64 64
128 128 128
128 128 128
128 128 128
128 128 128
128 128 128
128 128 128
128 128 128
128 128 128
128 128 128
128 128 128
128 128 128
64 64 64
128 128 128
64 64 64
64 64 64
64 64 64
64 64 64
64 64 64
64 64 64
64 64 64
64 64 64
64 64 64
64 64 64
64 64 64
64 64 64
128 128 128
64 64 64
64 64 64
64 64 64
64 64 64
64 64 64
64 64 64
128 128 128
64 64 64
64 64 64
0 0 0
0 0 0
0 0 0
64 64 64
64 64 64
64 64 64
128 128 128
128 128 128
128 128 128
128 128 128
128 128 128
128 128 128
64 64 64
128 128 128
128 128 128
128 128 128
64 64 64
64 64 64
64 64 64
64 64 64
64 64 64
64 64 64
64 64 64
64 64 64
64 64 64
64 64 64
64 64 64
64 64 64
0 0 0
0 0 0
64 64 64
64 64 64
64 64 64
0 0 0
0 0 0
0 0 0
0 0 0
64 64 64
64 64 64
64 64 64
64 64 64
64 64 64
64 64 64
64 64 64
64 64 64
64 64 64
64 64 64
64 64 64
64 64 64
64 64 64
128 128 128
192 192 192
192 192 192
192 192 192
256 256 256
256 256 256
192 192 192
128 128 128
128 128 128
128 128 128
128 128 128
128 128 128
192 192 192
192 192 192
192 192 192
192 192 192
192 192 192
192 192 192
192 192 192
192 192 192
192 192 192
192 192 192
192 192 192
192 192 192
192 192 192
192 192 192
192 192 192
192 192 192
192 192 192
128 128 128
256 256 256
192 192 192
64 64 64
64 64 64
64 64 64
64 64 64
64 64 64
64 64 64
64 64 64
0 0 0
64 64 64
64 64 64
64 64 64
64 64 64
64 64 64
64 64 64
64 64 64
0 0 0
0 0 0
0 0 0
0 0 0
64 64 64
64 64 64
0 0 0
0 0 0
0 0 0
64 64 64
64 64 64
64 64 64
64 64 64
64 64 64
64 64 64
64 64 64
64 64 64
64 64 64
64 64 64
64 64 64
64 64 64
64 64 64
64 64 64
64 64 64
64 64 64
64 64 64
64 64 64
64 64 64
64 64 64
64 64 64
64 64 64
64 64 64
64 64 64
64 64 64
64 64 64
128 128 128
128 128 128
128 128 128
128 128 128
128 128 128
128 128 128
128 128 128
128 128 128
64 64 64
64 64 64
128 128 128
128 128 128
128 128 128
192 192 192
192 192 192
192 192 192
192 192 192
192 192 192
192 192 192
192 192 192
192 192 192
128 128 128
128 128 128
128 128 128
128 128 128
128 128 128
128 128 128
64 64 64
64 64 64
64 64 64
64 64 64
64 64 64
64 64 64
64 64 64
64 64 64
64 64 64
64 64 64
64 64 64
64 64 64
64 64 64
64 64 64
64 64 64
64 64 64
128 128 128
64 64 64
64 64 64
0 0 0
64 64 64
0 0 0
0 0 0
64 64 64
64 64 64
64 64 64
64 64 64
64 64 64
64 64 64
128 128 128
128 128 128
128 128 128
128 128 128
128 128 128
128 128 128
128 128 128
64 64 64
64 64 64
64 64 64
0 0 0
64 64 64
64 64 64
64 64 64
64 64 64
64 64 64
64 64 64
64 64 64
64 64 64
64 64 64
0 0 0
64 64 64
64 64 64
64 64 64
64 64 64
0 0 0
0 0 0
0 0 0
0 0 0
64 64 64
64 64 64
64 64 64
64 64 64
64 64 64
64 64 64
64 64 64
64 64 64
64 64 64
64 64 64
64 64 64
0 0 0
64 64 64
128 128 128
192 192 192
192 192 192
192 192 192
192 192 192
192 192 192
256 256 256
192 192 192
128 128 128
128 128 128
128 128 128
128 128 128
192 192 192
192 192 192
192 192 192
192 192 192
192 192 192
192 192 192
192 192 192
192 192 192
192 192 192
192 192 192
192 192 192
192 192 192
192 192 192
192 192 192
192 192 192
192 192 192
192 192 192
192 192 192
256 256 256
192 192 192
64 64 64
64 64 64
64 64 64
64 64 64
64 64 64
64 64 64
64 64 64
64 64 64
64 64 64
64 64 64
64 64 64
64 64 64
64 64 64
64 64 64
64 64 64
64 64 64
0 0 0
0 0 0
0 0 0
0 0 0
0 0 0
0 0 0
0 0 0
64 64 64
64 64 64
64 64 64
64 64 64
64 64 64
64 64 64
64 64 64
64 64 64
64 64 64
64 64 64
64 64 64
64 64 64
64 64 64
64 64 64
64 64 64
64 64 64
64 64 64
64 64 64
64 64 64
128 128 128
128 128 128
64 64 64
64 64 64
64 64 64
64 64 64
64 64 64
128 128 128
128 128 128
128 128 128
128 128 128
128 128 128
128 128 128
128 128 128
128 128 128
64 64 64
64 64 64
128 128 128
192 192 192
192 192 192
192 192 192
192 192 192
192 192 192
192 192 192
192 192 192
128 128 128
128 128 128
128 128 128
128 128 128
128 128 128
128 128 128
128 128 128
128 128 128
128 128 128
128 128 128
128 128 128
128 128 128
64 64 64
64 64 64
64 64 64
64 64 64
64 64 64
64 64 64
64 64 64
64 64 64
64 64 64
64 64 64
64 64 64
64 64 64
64 64 64
64 64 64
64 64 64
64 64 64
64 64 64
64 64 64
64 64 64
0 0 0
0 0 0
64 64 64
64 64 64
64 64 64
64 64 64
64 64 64
64 64 64
64 64 64
64 64 64
64 64 64
64 64 64
64 64 64
64 64 64
64 64 64
64 64 64
64 64 64
128 128 128
64 64 64
64 64 64
64 64 64
0 0 0
64 64 64
64 64 64
64 64 64
64 64 64
64 64 64
0 0 0
0 0 0
64 64 64
64 64 64
64 64 64
0 0 0
0 0 0
0 0 0
0 0 0
64 64 64
64 64 64
64 64 64
64 64 64
64 64 64
64 64 64
64 64 64
64 64 64
64 64 64
64 64 64
0 0 0
0 0 0
0 0 0
64 64 64
128 128 128
192 192 192
192 192 192
128 128 128
128 128 128
128 128 128
192 192 192
192 192 192
192 192 192
128 128 128
128 128 128
128 128 128
192 192 192
192 192 192
192 192 192
192 192 192
192 192 192
192 192 192
192 192 192
192 192 192
192 192 192
192 192 192
192 192 192
192 192 192
192 192 192
192 192 192
192 192 192
192 192 192
128 128 128
192 192 192
192 192 192
192 192 192
128 128 128
0 0 0
0 0 0
64 64 64
64 64 64
64 64 64
64 64 64
64 64 64
64 64 64
64 64 64
64 64 64
64 64 64
64 64 64
64 64 64
64 64 64
64 64 64
0 0 0
0 0 0
0 0 0
0 0 0
0 0 0
0 0 0
64 64 64
64 64 64
64 64 64
64 64 64
64 64 64
64 64 64
64 64 64
64 64 64
64 64 64
64 64 64
64 64 64
64 64 64
64 64 64
64 64 64
128 128 128
64 64 64
64 64 64
64 64 64
64 64 64
128 128 128
128 128 128
128 128 128
64 64 64
64 64 64
64 64 64
64 64 64
128 128 128
128 128 128
128 128 128
128 128 128
128 128 128
128 128 128
128 128 128
128 128 128
128 128 128
128 128 128
192 192 192
192 192 192
192 192 192
192 192 192
192 192 192
192 192 192
192 192 192
192 192 192
192 192 192
128 128 128
128 128 128
128 128 128
128 128 128
128 128 128
128 128 128
64 64 64
128 128 128
128 128 128
128 128 128
128 128 128
128 128 128
128 128 128
128 128 128
64 64 64
64 64 64
64 64 64
64 64 64
64 64 64
64 64 64
64 64 64
64 64 64
64 64 64
64 64 64
64 64 64
64 64 64
64 64 64
64 64 64
64 64 64
64 64 64
0 0 0
0 0 0
64 64 64
64 64 64
0 0 0
64 64 64
64 64 64
64 64 64
64 64 64
64 64 64
64 64 64
64 64 64
64 64 64
64 64 64
64 64 64
0 0 0
64 64 64
64 64 64
128 128 128
64 64 64
0 0 0
0 0 0
64 64 64
0 0 0
64 64 64
64 64 64
64 64 64
0 0 0
0 0 0
64 64 64
64 64 64
64 64 64
64 64 64
0 0 0
0 0 0
64 64 64
0 0 0
64 64 64
64 64 64
64 64 64
64 64 64
64 64 64
64 64 64
64 64 64
64 64 64
64 64 64
64 64 64
0 0 0
64 64 64
64 64 64
64 64 64
128 128 128
128 128 128
64 64 64
64 64 64
64 64 64
128 128 128
128 128 128
128 128 128
192 192 192
192 192 192
128 128 128
128 128 128
192 192 192
192 192 192
192 192 192
192 192 192
192 192 192
192 192 192
192 192 192
192 192 192
192 192 192
192 192 192
192 192 192
192 192 192
192 192 192
192 192 192
192 192 192
192 192 192
192 192 192
256 256 256
192 192 192
192 192 192
128 128 128
128 128 128
64 64 64
64 64 64
64 64 64
64 64 64
64 64 64
64 64 64
64 64 64
64 64 64
64 64 64
64 64 64
64 64 64
64 64 64
64 64 64
64 64 64
0 0 0
64 64 64
64 64 64
0 0 0
0 0 0
0 0 0
64 64 64
64 64 64
64 64 64
64 64 64
64 64 64
64 64 64
64 64 64
64 64 64
64 64 64
64 64 64
64 64 64
64 64 64
64 64 64
64 64 64
128 128 128
128 128 128
128 128 128
128 128 128
128 128 128
128 128 128
128 128 128
128 128 128
128 128 128
64 64 64
128 128 128
128 128 128
128 128 128
128 128 128
128 128 128
128 128 128
128 128 128
128 128 128
192 192 192
192 192 192
192 192 192
192 192 192
192 192 192
192 192 192
192 192 192
192 192 192
192 192 192
192 192 192
128 128 128
128 128 128
128 128 128
128 128 128
128 128 128
128 128 128
128 128 128
128 128 128
128 128 128
128 128 128
128 128 128
128 128 128
128 128 128
128 128 128
128 128 128
128 128 128
128 128 128
128 128 128
128 128 128
64 64 64
64 64 64
64 64 64
64 64 64
64 64 64
64 64 64
64 64 64
64 64 64
64 64 64
64 64 64
64 64 64
64 64 64
0 0 0
0 0 0
0 0 0
0 0 0
0 0 0
0 0 0
0 0 0
64 64 64
64 64 64
64 64 64
64 64 64
64 64 64
128 128 128
64 64 64
64 64 64
64 64 64
64 64 64
64 64 64
64 64 64
64 64 64
128 128 128
0 0 0
0 0 0
0 0 0
64 64 64
64 64 64
64 64 64
64 64 64
0 0 0
0 0 0
0 0 0
64 64 64
64 64 64
64 64 64
64 64 64
0 0 0
0 0 0
0 0 0
0 0 0
64 64 64
64 64 64
64 64 64
64 64 64
64 64 64
64 64 64
64 64 64
64 64 64
64 64 64
0 0 0
0 0 0
64 64 64
64 64 64
64 64 64
64 64 64
64 64 64
64 64 64
64 64 64
64 64 64
64 64 64
128 128 128
192 192 192
64 64 64
128 128 128
128 128 128
128 128 128
192 192 192
192 192 192
192 192 192
192 192 192
192 192 192
192 192 192
192 192 192
192 192 192
192 192 192
192 192 192
192 192 192
192 192 192
192 192 192
192 192 192
192 192 192
192 192 192
192 192 192
256 256 256
192 192 192
192 192 192
128 128 128
128 128 128
64 64 64
64 64 64
64 64 64
64 64 64
64 64 64
64 64 64
64 64 64
64 64 64
64 64 64
64 64 64
64 64 64
64 64 64
64 64 64
64 64 64
64 64 64
0 0 0
64 64 64
64 64 64
64 64 64
64 64 64
64 64 64
64 64 64
64 64 64
64 64 64
64 64 64
64 64 64
64 64 64
64 64 64
64 64 64
64 64 64
64 64 64
64 64 64
128 128 128
128 128 128
128 128 128
128 128 128
128 128 128
128 128 128
128 128 128
128 128 128
128 128 128
128 128 128
128 128 128
128 128 128
128 128 128
128 128 128
128 128 128
192 192 192
128 128 128
128 128 128
128 128 128
192 192 192
192 192 192
192 192 192
192 192 192
192 192 192
192 192 192
192 192 192
128 128 128
128 128 128
128 128 128
128 128 128
128 128 128
128 128 128
128 128 128
128 128 128
128 128 128
128 128 128
128 128 128
128 128 128
128 128 128
128 128 128
128 128 128
128 128 128
128 128 128
128 128 128
128 128 128
128 128 128
128 128 128
128 128 128
128 128 128
128 128 128
64 64 64
64 64 64
64 64 64
64 64 64
64 64 64
64 64 64
64 64 64
64 64 64
64 64 64
64 64 64
64 64 64
0 0 0
0 0 0
0 0 0
0 0 0
64 64 64
0 0 0
64 64 64
64 64 64
128 128 128
128 128 128
128 128 128
128 128 128
64 64 64
64 64 64
64 64 64
64 64 64
0 0 0
64 64 64
128 128 128
128 128 128
128 128 128
0 0 0
0 0 0
64 64 64
64 64 64
64 64 64
0 0 0
0 0 0
0 0 0
0 0 0
0 0 0
64 64 64
64 64 64
64 64 64
64 64 64
0 0 0
0 0 0
0 0 0
0 0 0
64 64 64
64 64 64
64 64 64
64 64 64
64 64 64
64 64 64
64 64 64
64 64 64
64 64 64
0 0 0
64 64 64
64 64 64
64 64 64
64 64 64
64 64 64
64 64 64
64 64 64
64 64 64
64 64 64
64 64 64
128 128 128
128 128 128
64 64 64
128 128 128
192 192 192
128 128 128
192 192 192
192 192 192
192 192 192
192 192 192
192 192 192
192 192 192
192 192 192
192 192 192
192 192 192
192 192 192
192 192 192
192 192 192
192 192 192
192 192 192
192 192 192
192 192 192
192 192 192
192 192 192
192 192 192
128 128 128
192 192 192
192 192 192
128 128 128
64 64 64
64 64 64
64 64 64
64 64 64
64 64 64
64 64 64
64 64 64
64 64 64
64 64 64
64 64 64
64 64 64
64 64 64
64 64 64
64 64 64
0 0 0
64 64 64
64 64 64
64 64 64
64 64 64
64 64 64
64 64 64
64 64 64
64 64 64
64 64 64
64 64 64
64 64 64
64 64 64
64 64 64
64 64 64
64 64 64
64 64 64
128 128 128
128 128 128
128 128 128
128 128 128
128 128 128
128 128 128
128 128 128
128 128 128
128 128 128
128 128 128
128 128 128
128 128 128
128 128 128
128 128 128
128 128 128
192 192 192
192 192 192
192 192 192
192 192 192
192 192 192
192 192 192
192 192 192
192 192 192
128 128 128
128 128 128
128 128 128
128 128 128
128 128 128
128 128 128
128 128 128
128 128 128
128 128 128
128 128 128
128 128 128
128 128 128
128 128 128
128 128 128
128 128 128
128 128 128
128 128 128
128 128 128
128 128 128
128 128 128
128 128 128
128 128 128
128 128 128
128 128 128
128 128 128
128 128 128
128 128 128
64 64 64
64 64 64
64 64 64
64 64 64
64 64 64
64 64 64
64 64 64
64 64 64
64 64 64
64 64 64
64 64 64
64 64 64
64 64 64
0 0 0
64 64 64
64 64 64
64 64 64
64 64 64
64 64 64
128 128 128
128 128 128
128 128 128
64 64 64
64 64 64
64 64 64
64 64 64
64 64 64
64 64 64
64 64 64
128 128 128
128 128 128
128 128 128
64 64 64
0 0 0
0 0 0
64 64 64
64 64 64
64 64 64
64 64 64
64 64 64
0 0 0
0 0 0
0 0 0
64 64 64
64 64 64
64 64 64
64 64 64
0 0 0
0 0 0
0 0 0
64 64 64
64 64 64
64 64 64
64 64 64
64 64 64
64 64 64
64 64 64
64 64 64
64 64 64
64 64 64
64 64 64
64 64 64
64 64 64
0 0 0
0 0 0
64 64 64
128 128 128
128 128 128
64 64 64
64 64 64
128 128 128
128 128 128
64 64 64
64 64 64
128 128 128
128 128 128
192 192 192
192 192 192
192 192 192
192 192 192
192 192 192
192 192 192
192 192 192
192 192 192
192 192 192
192 192 192
192 192 192
192 192 192
192 192 192
192 192 192
192 192 192
192 192 192
192 192 192
192 192 192
128 128 128
128 128 128
256 256 256
192 192 192
128 128 128
64 64 64
64 64 64
0 0 0
0 0 0
64 64 64
64 64 64
64 64 64
64 64 64
64 64 64
64 64 64
64 64 64
64 64 64
64 64 64
64 64 64
64 64 64
0 0 0
64 64 64
64 64 64
64 64 64
64 64 64
64 64 64
128 128 128
64 64 64
64 64 64
64 64 64
64 64 64
64 64 64
128 128 128
128 128 128
128 128 128
128 128 128
128 128 128
128 128 128
128 128 128
128 128 128
128 128 128
128 128 128
128 128 128
128 128 128
128 128 128
128 128 128
128 128 128
128 128 128
128 128 128
192 192 192
128 128 128
192 192 192
128 128 128
192 192 192
192 192 192
128 128 128
128 128 128
128 128 128
128 128 128
128 128 128
128 128 128
128 128 128
128 128 128
128 128 128
128 128 128
128 128 128
128 128 128
128 128 128
128 128 128
128 128 128
128 128 128
128 128 128
128 128 128
128 128 128
128 128 128
128 128 128
128 128 128
128 128 128
128 128 128
128 128 128
128 128 128
128 128 128
128 128 128
128 128 128
128 128 128
128 128 128
128 128 128
128 128 128
64 64 64
64 64 64
64 64 64
64 64 64
64 64 64
128 128 128
64 64 64
64 64 64
128 128 128
64 64 64
128 128 128
128 128 128
128 128 128
64 64 64
64 64 64
128 128 128
64 64 64
128 128 128
128 128 128
128 128 128
64 64 64
64 64 64
64 64 64
64 64 64
64 64 64
64 64 64
128 128 128
128 128 128
128 128 128
64 64 64
64 64 64
64 64 64
64 64 64
64 64 64
64 64 64
64 64 64
64 64 64
0 0 0
64 64 64
0 0 0
0 0 0
64 64 64
64 64 64
64 64 64
0 0 0
0 0 0
0 0 0
0 0 0
64 64 64
64 64 64
64 64 64
64 64 64
64 64 64
64 64 64
0 0 0
64 64 64
0 0 0
64 64 64
64 64 64
0 0 0
0 0 0
64 64 64
64 64 64
64 64 64
64 64 64
64 64 64
64 64 64
64 64 64
64 64 64
128 128 128
128 128 128
64 64 64
128 128 128
128 128 128
192 192 192
192 192 192
192 192 192
192 192 192
192 192 192
192 192 192
192 192 192
192 192 192
192 192 192
192 192 192
192 192 192
192 192 192
192 192 192
192 192 192
192 192 192
192 192 192
192 192 192
192 192 192
128 128 128
192 192 192
192 192 192
192 192 192
128 128 128
64 64 64
64 64 64
64 64 64
0 0 0
0 0 0
64 64 64
64 64 64
64 64 64
64 64 64
64 64 64
64 64 64
64 64 64
64 64 64
64 64 64
64 64 64
0 0 0
0 0 0
0 0 0
64 64 64
64 64 64
128 128 128
128 128 128
64 64 64
128 128 128
128 128 128
64 64 64
128 128 128
128 128 128
128 128 128
128 128 128
128 128 128
128 128 128
128 128 128
128 128 128
128 128 128
128 128 128
128 128 128
128 128 128
128 128 128
128 128 128
128 128 128
128 128 128
128 128 128
128 128 128
128 128 128
128 128 128
128 128 128
128 128 128
128 128 128
128 128 128
128 128 128
128 128 128
128 128 128
128 128 128
128 128 128
128 128 128
128 128 128
128 128 128
128 128 128
128 128 128
128 128 128
128 128 128
128 128 128
128 128 128
128 128 128
128 128 128
128 128 128
128 128 128
128 128 128
128 128 128
128 128 128
128 128 128
128 128 128
128 128 128
128 128 128
128 128 128
128 128 128
128 128 128
128 128 128
128 128 128
128 128 128
128 128 128
128 128 128
128 128 128
64 64 64
64 64 64
64 64 64
64 64 64
128 128 128
128 128 128
128 128 128
128 128 128
128 128 128
64 64 64
128 128 128
128 128 128
64 64 64
64 64 64
64 64 64
128 128 128
128 128 128
64 64 64
64 64 64
64 64 64
64 64 64
64 64 64
64 64 64
64 64 64
64 64 64
64 64 64
128 128 128
128 128 128
64 64 64
128 128 128
64 64 64
64 64 64
64 64 64
64 64 64
0 0 0
64 64 64
0 0 0
64 64 64
64 64 64
0 0 0
0 0 0
64 64 64
64 64 64
64 64 64
64 64 64
0 0 0
0 0 0
64 64 64
64 64 64
64 64 64
64 64 64
64 64 64
64 64 64
0 0 0
64 64 64
64 64 64
64 64 64
0 0 0
0 0 0
64 64 64
64 64 64
64 64 64
64 64 64
64 64 64
64 64 64
64 64 64
64 64 64
64 64 64
64 64 64
128 128 128
64 64 64
128 128 128
192 192 192
192 192 192
192 192 192
192 192 192
192 192 192
192 192 192
192 192 192
192 192 192
192 192 192
192 192 192
192 192 192
192 192 192
192 192 192
192 192 192
192 192 192
192 192 192
192 192 192
192 192 192
192 192 192
128 128 128
192 192 192
192 192 192
192 192 192
128 128 128
64 64 64
128 128 128
64 64 64
64 64 64
0 0 0
0 0 0
64 64 64
64 64 64
64 64 64
64 64 64
64 64 64
64 64 64
64 64 64
64 64 64
0 0 0
0 0 0
0 0 0
0 0 0
64 64 64
128 128 128
128 128 128
128 128 128
128 128 128
128 128 128
128 128 128
128 128 128
192 192 192
192 192 192
192 192 192
128 128 128
128 128 128
128 128 128
128 128 128
128 128 128
128 128 128
128 128 128
128 128 128
128 128 128
128 128 128
128 128 128
128 128 128
128 128 128
128 128 128
128 128 128
128 128 128
128 128 128
128 128 128
128 128 128
128 128 128
128 128 128
128 128 128
128 128 128
128 128 128
128 128 128
128 128 128
128 128 128
128 128 128
128 128 128
128 128 128
128 128 128
128 128 128
64 64 64
64 64 64
64 64 64
128 128 128
128 128 128
128 128 128
128 128 128
128 128 128
128 128 128
128 128 128
128 128 128
128 128 128
128 128 128
128 128 128
128 128 128
128 128 128
128 128 128
128 128 128
128 128 128
128 128 128
128 128 128
128 128 128
128 128 128
128 128 128
64 64 64
64 64 64
128 128 128
64 64 64
128 128 128
128 128 128
128 128 128
128 128 128
64 64 64
64 64 64
64 64 64
128 128 128
128 128 128
128 128 128
128 128 128
64 64 64
64 64 64
64 64 64
64 64 64
64 64 64
64 64 64
64 64 64
0 0 0
64 64 64
64 64 64
128 128 128
64 64 64
64 64 64
128 128 128
128 128 128
64 64 64
64 64 64
64 64 64
0 0 0
0 0 0
0 0 0
0 0 0
0 0 0
64 64 64
0 0 0
0 0 0
0 0 0
0 0 0
64 64 64
64 64 64
0 0 0
64 64 64
64 64 64
64 64 64
64 64 64
64 64 64
64 64 64
64 64 64
64 64 64
64 64 64
0 0 0
0 0 0
0 0 0
64 64 64
64 64 64
64 64 64
64 64 64
64 64 64
64 64 64
64 64 64
64 64 64
64 64 64
64 64 64
64 64 64
64 64 64
192 192 192
128 128 128
192 192 192
192 192 192
192 192 192
192 192 192
192 192 192
192 192 192
192 192 192
192 192 192
192 192 192
192 192 192
192 192 192
192 192 192
192 192 192
192 192 192
192 192 192
192 192 192
192 192 192
192 192 192
128 128 128
192 192 192
192 192 192
192 192 192
64 64 64
128 128 128
128 128 128
64 64 64
64 64 64
64 64 64
64 64 64
0 0 0
64 64 64
64 64 64
64 64 64
64 64 64
64 64 64
64 64 64
64 64 64
0 0 0
0 0 0
0 0 0
64 64 64
64 64 64
128 128 128
128 128 128
128 128 128
128 128 128
128 128 128
128 128 128
192 192 192
192 192 192
192 192 192
192 192 192
192 192 192
128 128 128
128 128 128
128 128 128
128 128 128
128 128 128
128 128 128
128 128 128
128 128 128
128 128 128
128 128 128
128 128 128
128 128 128
128 128 128
128 128 128
128 128 128
128 128 128
128 128 128
128 128 128
128 128 128
128 128 128
128 128 128
128 128 128
128 128 128
128 128 128
128 128 128
128 128 128
128 128 128
128 128 128
128 128 128
128 128 128
64 64 64
64 64 64
64 64 64
128 128 128
128 128 128
128 128 128
128 128 128
128 128 128
128 128 128
128 128 128
128 128 128
128 128 128
128 128 128
128 128 128
128 128 128
128 128 128
128 128 128
128 128 128
128 128 128
128 128 128
128 128 128
128 128 128
128 128 128
128 128 128
128 128 128
128 128 128
64 64 64
128 128 128
64 64 64
64 64 64
64 64 64
128 128 128
128 128 128
128 128 128
128 128 128
128 128 128
128 128 128
128 128 128
128 128 128
64 64 64
64 64 64
64 64 64
64 64 64
64 64 64
64 64 64
64 64 64
64 64 64
0 0 0
64 64 64
64 64 64
64 64 64
64 64 64
64 64 64
64 64 64
128 128 128
64 64 64
64 64 64
64 64 64
0 0 0
64 64 64
64 64 64
64 64 64
0 0 0
0 0 0
64 64 64
0 0 0
0 0 0
0 0 0
64 64 64
64 64 64
0 0 0
64 64 64
64 64 64
64 64 64
64 64 64
64 64 64
64 64 64
64 64 64
0 0 0
0 0 0
0 0 0
0 0 0
64 64 64
64 64 64
64 64 64
64 64 64
64 64 64
64 64 64
64 64 64
64 64 64
64 64 64
64 64 64
64 64 64
64 64 64
64 64 64
128 128 128
192 192 192
192 192 192
192 192 192
192 192 192
192 192 192
192 192 192
192 192 192
192 192 192
192 192 192
192 192 192
192 192 192
192 192 192
192 192 192
192 192 192
192 192 192
192 192 192
192 192 192
192 192 192
128 128 128
128 128 128
192 192 192
192 192 192
192 192 192
128 128 128
128 128 128
128 128 128
64 64 64
64 64 64
64 64 64
64 64 64
0 0 0
64 64 64
64 64 64
64 64 64
64 64 64
64 64 64
64 64 64
64 64 64
64 64 64
0 0 0
0 0 0
64 64 64
64 64 64
128 128 128
192 192 192
128 128 128
128 128 128
128 128 128
192 192 192
192 192 192
192 192 192
192 192 192
192 192 192
192 192 192
128 128 128
128 128 128
128 128 128
128 128 128
128 128 128
128 128 128
128 128 128
128 128 128
128 128 128
128 128 128
128 128 128
128 128 128
128 128 128
128 128 128
128 128 128
128 128 128
128 128 128
128 128 128
128 128 128
128 128 128
128 128 128
128 128 128
128 128 128
128 128 128
128 128 128
128 128 128
128 128 128
128 128 128
128 128 128
64 64 64
128 128 128
128 128 128
64 64 64
128 128 128
128 128 128
128 128 128
128 128 128
128 128 128
128 128 128
128 128 128
128 128 128
128 128 128
128 128 128
128 128 128
128 128 128
128 128 128
128 128 128
128 128 128
128 128 128
128 128 128
128 128 128
128 128 128
64 64 64
128 128 128
128 128 128
128 128 128
128 128 128
128 128 128
64 64 64
64 64 64
64 64 64
64 64 64
64 64 64
128 128 128
128 128 128
128 128 128
128 128 128
128 128 128
64 64 64
64 64 64
64 64 64
64 64 64
64 64 64
64 64 64
64 64 64
64 64 64
64 64 64
64 64 64
64 64 64
64 64 64
64 64 64
128 128 128
128 128 128
128 128 128
128 128 128
128 128 128
64 64 64
64 64 64
64 64 64
64 64 64
64 64 64
64 64 64
0 0 0
0 0 0
64 64 64
64 64 64
0 0 0
0 0 0
64 64 64
64 64 64
64 64 64
0 0 0
64 64 64
64 64 64
64 64 64
64 64 64
64 64 64
64 64 64
0 0 0
0 0 0
0 0 0
64 64 64
64 64 64
64 64 64
64 64 64
64 64 64
64 64 64
64 64 64
64 64 64
64 64 64
64 64 64
64 64 64
64 64 64
64 64 64
64 64 64
128 128 128
192 192 192
192 192 192
192 192 192
192 192 192
192 192 192
192 192 192
192 192 192
192 192 192
192 192 192
192 192 192
192 192 192
192 192 192
192 192 192
192 192 192
192 192 192
192 192 192
192 192 192
192 192 192
128 128 128
64 64 64
192 192 192
192 192 192
192 192 192
192 192 192
192 192 192
256 256 256
128 128 128
64 64 64
64 64 64
64 64 64
64 64 64
64 64 64
64 64 64
64 64 64
64 64 64
0 0 0
0 0 0
0 0 0
0 0 0
0 0 0
0 0 0
0 0 0
64 64 64
192 192 192
192 192 192
128 128 128
128 128 128
192 192 192
128 128 128
192 192 192
192 192 192
192 192 192
128 128 128
128 128 128
128 128 128
128 128 128
128 128 128
128 128 128
128 128 128
128 128 128
128 128 128
192 192 192
128 128 128
128 128 128
128 128 128
128 128 128
128 128 128
128 128 128
128 128 128
128 128 128
128 128 128
128 128 128
128 128 128
128 128 128
128 128 128
128 128 128
128 128 128
128 128 128
128 128 128
128 128 128
128 128 128
128 128 128
128 128 128
128 128 128
128 128 128
128 128 128
128 128 128
128 128 128
128 128 128
128 128 128
128 128 128
128 128 128
128 128 128
128 128 128
128 128 128
128 128 128
128 128 128
128 128 128
128 128 128
128 128 128
128 128 128
128 128 128
128 128 128
128 128 128
128 128 128
128 128 128
64 64 64
128 128 128
128 128 128
128 128 128
128 128 128
128 128 128
128 128 128
128 128 128
64 64 64
64 64 64
64 64 64
64 64 64
64 64 64
64 64 64
64 64 64
64 64 64
64 64 64
64 64 64
64 64 64
64 64 64
64 64 64
64 64 64
64 64 64
64 64 64
64 64 64
128 128 128
64 64 64
64 64 64
64 64 64
128 128 128
128 128 128
128 128 128
64 64 64
64 64 64
64 64 64
64 64 64
128 128 128
64 64 64
64 64 64
64 64 64
64 64 64
0 0 0
64 64 64
64 64 64
0 0 0
0 0 0
0 0 0
0 0 0
64 64 64
64 64 64
0 0 0
64 64 64
64 64 64
64 64 64
64 64 64
64 64 64
64 64 64
0 0 0
0 0 0
64 64 64
64 64 64
64 64 64
64 64 64
64 64 64
64 64 64
64 64 64
64 64 64
64 64 64
64 64 64
64 64 64
64 64 64
64 64 64
64 64 64
128 128 128
192 192 192
192 192 192
192 192 192
192 192 192
192 192 192
192 192 192
192 192 192
192 192 192
192 192 192
192 192 192
192 192 192
192 192 192
192 192 192
192 192 192
192 192 192
192 192 192
192 192 192
192 192 192
128 128 128
64 64 64
192 192 192
192 192 192
256 256 256
192 192 192
256 256 256
256 256 256
128 128 128
64 64 64
64 64 64
64 64 64
64 64 64
64 64 64
64 64 64
0 0 0
64 64 64
64 64 64
64 64 64
64 64 64
64 64 64
64 64 64
64 64 64
64 64 64
128 128 128
192 192 192
192 192 192
192 192 192
192 192 192
192 192 192
192 192 192
128 128 128
192 192 192
192 192 192
128 128 128
128 128 128
128 128 128
128 128 128
128 128 128
128 128 128
128 128 128
128 128 128
128 128 128
128 128 128
128 128 128
128 128 128
128 128 128
128 128 128
128 128 128
128 128 128
128 128 128
128 128 128
128 128 128
128 128 128
128 128 128
128 128 128
128 128 128
128 128 128
128 128 128
128 128 128
128 128 128
128 128 128
128 128 128
128 128 128
128 128 128
128 128 128
128 128 128
128 128 128
128 128 128
128 128 128
128 128 128
128 128 128
128 128 128
128 128 128
128 128 128
128 128 128
128 128 128
128 128 128
128 128 128
128 128 128
128 128 128
128 128 128
128 128 128
128 128 128
128 128 128
128 128 128
128 128 128
128 128 128
128 128 128
128 128 128
128 128 128
128 128 128
128 128 128
128 128 128
128 128 128
128 128 128
128 128 128
64 64 64
64 64 64
64 64 64
64 64 64
64 64 64
64 64 64
64 64 64
64 64 64
64 64 64
64 64 64
64 64 64
64 64 64
64 64 64
64 64 64
64 64 64
64 64 64
64 64 64
128 128 128
128 128 128
64 64 64
64 64 64
64 64 64
64 64 64
64 64 64
64 64 64
64 64 64
128 128 128
64 64 64
64 64 64
64 64 64
64 64 64
0 0 0
0 0 0
64 64 64
64 64 64
0 0 0
0 0 0
0 0 0
0 0 0
0 0 0
64 64 64
64 64 64
0 0 0
0 0 0
0 0 0
64 64 64
64 64 64
0 0 0
0 0 0
64 64 64
64 64 64
64 64 64
64 64 64
64 64 64
64 64 64
64 64 64
64 64 64
64 64 64
64 64 64
64 64 64
64 64 64
64 64 64
64 64 64
64 64 64
128 128 128
192 192 192
192 192 192
192 192 192
192 192 192
192 192 192
192 192 192
192 192 192
192 192 192
192 192 192
192 192 192
192 192 192
192 192 192
192 192 192
192 192 192
192 192 192
192 192 192
192 192 192
192 192 192
192 192 192
64 64 64
128 128 128
256 256 256
256 256 256
256 256 256
256 256 256
192 192 192
64 64 64
64 64 64
64 64 64
64 64 64
64 64 64
0 0 0
0 0 0
0 0 0
64 64 64
64 64 64
64 64 64
64 64 64
64 64 64
64 64 64
64 64 64
64 64 64
192 192 192
192 192 192
192 192 192
192 192 192
192 192 192
192 192 192
192 192 192
192 192 192
128 128 128
128 128 128
128 128 128
128 128 128
128 128 128
128 128 128
128 128 128
128 128 128
128 128 128
192 192 192
128 128 128
128 128 128
128 128 128
128 128 128
128 128 128
128 128 128
128 128 128
128 128 128
128 128 128
128 128 128
128 128 128
128 128 128
128 128 128
128 128 128
128 128 128
128 128 128
128 128 128
128 128 128
128 128 128
128 128 128
128 128 128
128 128 128
128 128 128
128 128 128
128 128 128
128 128 128
128 128 128
128 128 128
128 128 128
128 128 128
128 128 128
128 128 128
64 64 64
64 64 64
64 64 64
64 64 64
64 64 64
128 128 128
128 128 128
128 128 128
128 128 128
128 128 128
128 128 128
128 128 128
128 128 128
128 128 128
128 128 128
128 128 128
128 128 128
128 128 128
128 128 128
128 128 128
128 128 128
128 128 128
128 128 128
128 128 128
64 64 64
128 128 128
128 128 128
64 64 64
64 64 64
64 64 64
64 64 64
64 64 64
64 64 64
64 64 64
64 64 64
64 64 64
64 64 64
64 64 64
64 64 64
64 64 64
64 64 64
128 128 128
128 128 128
64 64 64
64 64 64
64 64 64
64 64 64
64 64 64
64 64 64
128 128 128
64 64 64
64 64 64
64 64 64
0 0 0
0 0 0
0 0 0
64 64 64
0 0 0
0 0 0
0 0 0
0 0 0
0 0 0
0 0 0
0 0 0
0 0 0
0 0 0
64 64 64
0 0 0
0 0 0
64 64 64
0 0 0
0 0 0
64 64 64
64 64 64
64 64 64
64 64 64
64 64 64
64 64 64
64 64 64
64 64 64
64 64 64
0 0 0
64 64 64
64 64 64
64 64 64
64 64 64
64 64 64
128 128 128
192 192 192
192 192 192
192 192 192
192 192 192
192 192 192
192 192 192
192 192 192
192 192 192
192 192 192
192 192 192
192 192 192
192 192 192
192 192 192
192 192 192
192 192 192
192 192 192
192 192 192
192 192 192
192 192 192
128 128 128
64 64 64
192 192 192
256 256 256
256 256 256
192 192 192
64 64 64
0 0 0
64 64 64
64 64 64
64 64 64
64 64 64
0 0 0
0 0 0
0 0 0
0 0 0
0 0 0
64 64 64
64 64 64
64 64 64
0 0 0
64 64 64
128 128 128
192 192 192
256 256 256
192 192 192
192 192 192
192 192 192
128 128 128
128 128 128
128 128 128
128 128 128
128 128 128
128 128 128
128 128 128
128 128 128
128 128 128
128 128 128
128 128 128
64 64 64
192 192 192
128 128 128
128 128 128
128 128 128
128 128 128
128 128 128
128 128 128
128 128 128
128 128 128
128 128 128
128 128 128
128 128 128
128 128 128
128 128 128
128 128 128
128 128 128
128 128 128
128 128 128
128 128 128
128 128 128
128 128 128
128 128 128
128 128 128
128 128 128
128 128 128
128 128 128
64 64 64
64 64 64
0 0 0
0 0 0
0 0 0
0 0 0
0 0 0
64 64 64
64 64 64
64 64 64
64 64 64
64 64 64
0 0 0
64 64 64
64 64 64
128 128 128
128 128 128
128 128 128
128 128 128
128 128 128
128 128 128
128 128 128
128 128 128
128 128 128
128 128 128
128 128 128
128 128 128
128 128 128
128 128 128
128 128 128
128 128 128
64 64 64
64 64 64
64 64 64
64 64 64
64 64 64
64 64 64
64 64 64
64 64 64
64 64 64
64 64 64
64 64 64
64 64 64
64 64 64
64 64 64
64 64 64
64 64 64
64 64 64
128 128 128
128 128 128
64 64 64
64 64 64
128 128 128
128 128 128
64 64 64
64 64 64
128 128 128
64 64 64
0 0 0
0 0 0
0 0 0
0 0 0
0 0 0
0 0 0
0 0 0
0 0 0
0 0 0
64 64 64
64 64 64
64 64 64
64 64 64
64 64 64
0 0 0
0 0 0
0 0 0
64 64 64
64 64 64
64 64 64
0 0 0
64 64 64
64 64 64
64 64 64
64 64 64
64 64 64
0 0 0
64 64 64
64 64 64
64 64 64
64 64 64
64 64 64
64 64 64
64 64 64
64 64 64
64 64 64
64 64 64
192 192 192
192 192 192
192 192 192
192 192 192
192 192 192
192 192 192
192 192 192
192 192 192
192 192 192
192 192 192
192 192 192
192 192 192
192 192 192
192 192 192
192 192 192
192 192 192
192 192 192
192 192 192
192 192 192
192 192 192
64 64 64
128 128 128
192 192 192
192 192 192
64 64 64
64 64 64
64 64 64
64 64 64
64 64 64
64 64 64
64 64 64
64 64 64
0 0 0
64 64 64
0 0 0
0 0 0
0 0 0
0 0 0
0 0 0
0 0 0
64 64 64
192 192 192
192 192 192
192 192 192
128 128 128
128 128 128
128 128 128
128 128 128
128 128 128
128 128 128
128 128 128
128 128 128
128 128 128
128 128 128
128 128 128
128 128 128
128 128 128
128 128 128
64 64 64
128 128 128
128 128 128
128 128 128
128 128 128
128 128 128
128 128 128
128 128 128
128 128 128
128 128 128
128 128 128
128 128 128
128 128 128
128 128 128
128 128 128
128 128 128
128 128 128
128 128 128
128 128 128
128 128 128
128 128 128
128 128 128
128 128 128
64 64 64
64 64 64
64 64 64
64 64 64
0 0 0
0 0 0
0 0 0
64 64 64
64 64 64
64 64 64
128 128 128
128 128 128
128 128 128
128 128 128
128 128 128
128 128 128
128 128 128
64 64 64
64 64 64
0 0 0
64 64 64
64 64 64
64 64 64
128 128 128
128 128 128
128 128 128
128 128 128
128 128 128
128 128 128
128 128 128
128 128 128
128 128 128
128 128 128
128 128 128
128 128 128
128 128 128
64 64 64
64 64 64
64 64 64
64 64 64
64 64 64
64 64 64
64 64 64
64 64 64
64 64 64
64 64 64
64 64 64
64 64 64
64 64 64
64 64 64
128 128 128
64 64 64
128 128 128
128 128 128
64 64 64
128 128 128
128 128 128
64 64 64
64 64 64
64 64 64
64 64 64
64 64 64
0 0 0
0 0 0
0 0 0
0 0 0
0 0 0
0 0 0
64 64 64
64 64 64
64 64 64
64 64 64
64 64 64
64 64 64
64 64 64
64 64 64
64 64 64
64 64 64
0 0 0
0 0 0
0 0 0
64 64 64
0 0 0
64 64 64
64 64 64
64 64 64
64 64 64
64 64 64
0 0 0
64 64 64
64 64 64
64 64 64
64 64 64
64 64 64
64 64 64
64 64 64
64 64 64
64 64 64
64 64 64
128 128 128
192 192 192
192 192 192
192 192 192
192 192 192
192 192 192
192 192 192
192 192 192
192 192 192
192 192 192
192 192 192
192 192 192
192 192 192
192 192 192
192 192 192
192 192 192
192 192 192
192 192 192
192 192 192
192 192 192
192 192 192
64 64 64
64 64 64
64 64 64
64 64 64
64 64 64
64 64 64
64 64 64
64 64 64
64 64 64
0 0 0
64 64 64
64 64 64
64 64 64
64 64 64
0 0 0
0 0 0
0 0 0
0 0 0
64 64 64
128 128 128
192 192 192
128 128 128
128 128 128
128 128 128
128 128 128
128 128 128
64 64 64
128 128 128
128 128 128
128 128 128
128 128 128
128 128 128
128 128 128
128 128 128
128 128 128
128 128 128
128 128 128
64 64 64
128 128 128
128 128 128
128 128 128
128 128 128
128 128 128
128 128 128
128 128 128
128 128 128
128 128 128
128 128 128
128 128 128
128 128 128
128 128 128
128 128 128
128 128 128
128 128 128
128 128 128
128 128 128
128 128 128
128 128 128
128 128 128
128 128 128
64 64 64
64 64 64
64 64 64
0 0 0
0 0 0
64 64 64
64 64 64
128 128 128
128 128 128
128 128 128
128 128 128
64 64 64
64 64 64
64 64 64
64 64 64
64 64 64
128 128 128
128 128 128
128 128 128
64 64 64
64 64 64
0 0 0
64 64 64
128 128 128
128 128 128
128 128 128
128 128 128
128 128 128
128 128 128
128 128 128
128 128 128
128 128 128
128 128 128
128 128 128
128 128 128
64 64 64
64 64 64
64 64 64
64 64 64
64 64 64
64 64 64
64 64 64
64 64 64
64 64 64
64 64 64
64 64 64
64 64 64
64 64 64
64 64 64
64 64 64
64 64 64
64 64 64
64 64 64
128 128 128
128 128 128
128 128 128
128 128 128
64 64 64
64 64 64
128 128 128
64 64 64
0 0 0
0 0 0
0 0 0
0 0 0
0 0 0
64 64 64
64 64 64
64 64 64
64 64 64
64 64 64
128 128 128
64 64 64
64 64 64
64 64 64
128 128 128
128 128 128
64 64 64
64 64 64
0 0 0
0 0 0
64 64 64
0 0 0
64 64 64
64 64 64
64 64 64
64 64 64
0 0 0
64 64 64
64 64 64
64 64 64
64 64 64
64 64 64
64 64 64
64 64 64
64 64 64
64 64 64
64 64 64
128 128 128
192 192 192
192 192 192
192 192 192
192 192 192
192 192 192
192 192 192
192 192 192
192 192 192
192 192 192
192 192 192
192 192 192
192 192 192
192 192 192
192 192 192
192 192 192
192 192 192
192 192 192
192 192 192
192 192 192
192 192 192
192 192 192
192 192 192
64 64 64
64 64 64
64 64 64
64 64 64
64 64 64
64 64 64
0 0 0
0 0 0
0 0 0
64 64 64
64 64 64
64 64 64
64 64 64
64 64 64
0 0 0
0 0 0
0 0 0
128 128 128
128 128 128
128 128 128
128 128 128
128 128 128
64 64 64
64 64 64
64 64 64
128 128 128
64 64 64
128 128 128
128 128 128
128 128 128
128 128 128
128 128 128
128 128 128
128 128 128
128 128 128
128 128 128
128 128 128
128 128 128
128 128 128
128 128 128
128 128 128
128 128 128
128 128 128
128 128 128
128 128 128
128 128 128
128 128 128
128 128 128
128 128 128
128 128 128
128 128 128
128 128 128
128 128 128
128 128 128
128 128 128
128 128 128
128 128 128
128 128 128
128 128 128
64 64 64
64 64 64
64 64 64
0 0 0
64 64 64
128 128 128
128 128 128
64 64 64
64 64 64
64 64 64
64 64 64
64 64 64
64 64 64
64 64 64
64 64 64
64 64 64
64 64 64
64 64 64
64 64 64
128 128 128
128 128 128
64 64 64
0 0 0
64 64 64
128 128 128
128 128 128
128 128 128
128 128 128
128 128 128
128 128 128
128 128 128
128 128 128
128 128 128
64 64 64
64 64 64
64 64 64
64 64 64
64 64 64
64 64 64
64 64 64
64 64 64
64 64 64
64 64 64
64 64 64
64 64 64
64 64 64
64 64 64
64 64 64
64 64 64
64 64 64
64 64 64
64 64 64
64 64 64
64 64 64
64 64 64
128 128 128
128 128 128
64 64 64
64 64 64
64 64 64
64 64 64
0 0 0
0 0 0
0 0 0
0 0 0
64 64 64
64 64 64
64 64 64
64 64 64
128 128 128
64 64 64
64 64 64
64 64 64
64 64 64
64 64 64
64 64 64
64 64 64
128 128 128
128 128 128
64 64 64
64 64 64
0 0 0
0 0 0
64 64 64
64 64 64
64 64 64
64 64 64
0 0 0
64 64 64
64 64 64
64 64 64
64 64 64
64 64 64
64 64 64
64 64 64
64 64 64
64 64 64
128 128 128
128 128 128
192 192 192
192 192 192
192 192 192
192 192 192
192 192 192
192 192 192
192 192 192
192 192 192
192 192 192
192 192 192
192 192 192
192 192 192
192 192 192
192 192 192
192 192 192
192 192 192
192 192 192
192 192 192
192 192 192
192 192 192
192 192 192
192 192 192
192 192 192
64 64 64
64 64 64
0 0 0
0 0 0
0 0 0
0 0 0
0 0 0
64 64 64
64 64 64
64 64 64
64 64 64
64 64 64
64 64 64
64 64 64
64 64 64
64 64 64
128 128 128
128 128 128
128 128 128
64 64 64
128 128 128
128 128 128
64 64 64
64 64 64
64 64 64
64 64 64
128 128 128
128 128 128
128 128 128
64 64 64
64 64 64
64 64 64
64 64 64
64 64 64
128 128 128
64 64 64
128 128 128
128 128 128
192 192 192
192 192 192
192 192 192
192 192 192
192 192 192
128 128 128
128 128 128
128 128 128
128 128 128
128 128 128
128 128 128
128 128 128
128 128 128
128 128 128
128 128 128
128 128 128
128 128 128
128 128 128
128 128 128
128 128 128
64 64 64
64 64 64
0 0 0
0 0 0
64 64 64
64 64 64
64 64 64
64 64 64
64 64 64
64 64 64
64 64 64
64 64 64
64 64 64
64 64 64
64 64 64
64 64 64
128 128 128
128 128 128
64 64 64
64 64 64
128 128 128
128 128 128
64 64 64
0 0 0
64 64 64
64 64 64
128 128 128
128 128 128
128 128 128
64 64 64
128 128 128
128 128 128
128 128 128
128 128 128
64 64 64
64 64 64
64 64 64
64 64 64
64 64 64
128 128 128
64 64 64
64 64 64
64 64 64
64 64 64
64 64 64
64 64 64
64 64 64
64 64 64
64 64 64
64 64 64
64 64 64
64 64 64
64 64 64
64 64 64
64 64 64
128 128 128
64 64 64
64 64 64
128 128 128
64 64 64
64 64 64
64 64 64
0 0 0
64 64 64
64 64 64
64 64 64
64 64 64
64 64 64
64 64 64
64 64 64
64 64 64
64 64 64
64 64 64
64 64 64
64 64 64
64 64 64
64 64 64
0 0 0
64 64 64
128 128 128
64 64 64
64 64 64
64 64 64
64 64 64
64 64 64
64 64 64
64 64 64
0 0 0
64 64 64
64 64 64
64 64 64
64 64 64
64 64 64
64 64 64
64 64 64
64 64 64
64 64 64
64 64 64
128 128 128
192 192 192
192 192 192
192 192 192
192 192 192
192 192 192
192 192 192
192 192 192
192 192 192
192 192 192
192 192 192
192 192 192
192 192 192
192 192 192
192 192 192
192 192 192
192 192 192
192 192 192
192 192 192
192 192 192
192 192 192
192 192 192
192 192 192
192 192 192
192 192 192
128 128 128
64 64 64
64 64 64
64 64 64
64 64 64
64 64 64
64 64 64
64 64 64
64 64 64
64 64 64
64 64 64
64 64 64
64 64 64
64 64 64
128 128 128
128 128 128
128 128 128
128 128 128
64 64 64
64 64 64
64 64 64
64 64 64
64 64 64
64 64 64
128 128 128
128 128 128
128 128 128
128 128 128
64 64 64
64 64 64
64 64 64
128 128 128
128 128 128
64 64 64
64 64 64
64 64 64
128 128 128
192 192 192
192 192 192
192 192 192
192 192 192
192 192 192
128 128 128
128 128 128
128 128 128
128 128 128
128 128 128
128 128 128
128 128 128
128 128 128
128 128 128
128 128 128
128 128 128
128 128 128
128 128 128
128 128 128
128 128 128
64 64 64
64 64 64
0 0 0
64 64 64
64 64 64
64 64 64
64 64 64
64 64 64
64 64 64
64 64 64
64 64 64
64 64 64
0 0 0
64 64 64
64 64 64
0 0 0
64 64 64
128 128 128
64 64 64
64 64 64
64 64 64
64 64 64
128 128 128
128 128 128
64 64 64
64 64 64
64 64 64
128 128 128
128 128 128
128 128 128
128 128 128
128 128 128
128 128 128
64 64 64
64 64 64
64 64 64
64 64 64
64 64 64
64 64 64
64 64 64
64 64 64
64 64 64
64 64 64
64 64 64
64 64 64
64 64 64
64 64 64
64 64 64
64 64 64
64 64 64
64 64 64
64 64 64
64 64 64
64 64 64
64 64 64
64 64 64
64 64 64
64 64 64
128 128 128
64 64 64
64 64 64
64 64 64
64 64 64
64 64 64
64 64 64
64 64 64
64 64 64
64 64 64
64 64 64
64 64 64
64 64 64
64 64 64
64 64 64
64 64 64
64 64 64
64 64 64
64 64 64
64 64 64
0 0 0
64 64 64
128 128 128
64 64 64
64 64 64
64 64 64
64 64 64
64 64 64
64 64 64
64 64 64
64 64 64
64 64 64
64 64 64
64 64 64
64 64 64
64 64 64
64 64 64
128 128 128
64 64 64
64 64 64
128 128 128
192 192 192
192 192 192
192 192 192
192 192 192
192 192 192
192 192 192
192 192 192
192 192 192
192 192 192
192 192 192
192 192 192
192 192 192
192 192 192
192 192 192
192 192 192
192 192 192
192 192 192
192 192 192
192 192 192
192 192 192
192 192 192
192 192 192
192 192 192
192 192 192
192 192 192
64 64 64
64 64 64
64 64 64
64 64 64
64 64 64
64 64 64
64 64 64
64 64 64
64 64 64
64 64 64
64 64 64
64 64 64
64 64 64
128 128 128
128 128 128
128 128 128
128 128 128
128 128 128
64 64 64
128 128 128
64 64 64
64 64 64
64 64 64
128 128 128
128 128 128
128 128 128
128 128 128
128 128 128
128 128 128
128 128 128
128 128 128
128 128 128
64 64 64
128 128 128
64 64 64
128 128 128
192 192 192
192 192 192
192 192 192
192 192 192
192 192 192
128 128 128
128 128 128
128 128 128
128 128 128
128 128 128
128 128 128
128 128 128
128 128 128
128 128 128
128 128 128
128 128 128
128 128 128
128 128 128
128 128 128
128 128 128
64 64 64
64 64 64
64 64 64
64 64 64
64 64 64
0 0 0
64 64 64
64 64 64
128 128 128
64 64 64
128 128 128
64 64 64
0 0 0
0 0 0
0 0 0
0 0 0
0 0 0
128 128 128
64 64 64
64 64 64
128 128 128
64 64 64
64 64 64
128 128 128
128 128 128
64 64 64
64 64 64
64 64 64
128 128 128
128 128 128
128 128 128
128 128 128
128 128 128
128 128 128
128 128 128
128 128 128
128 128 128
64 64 64
64 64 64
128 128 128
128 128 128
64 64 64
64 64 64
64 64 64
64 64 64
64 64 64
64 64 64
64 64 64
64 64 64
64 64 64
64 64 64
64 64 64
64 64 64
64 64 64
64 64 64
64 64 64
64 64 64
64 64 64
128 128 128
64 64 64
64 64 64
64 64 64
64 64 64
64 64 64
64 64 64
64 64 64
64 64 64
128 128 128
64 64 64
64 64 64
64 64 64
64 64 64
64 64 64
64 64 64
64 64 64
64 64 64
64 64 64
64 64 64
0 0 0
64 64 64
128 128 128
64 64 64
64 64 64
64 64 64
64 64 64
64 64 64
64 64 64
64 64 64
64 64 64
64 64 64
64 64 64
64 64 64
64 64 64
64 64 64
128 128 128
128 128 128
64 64 64
128 128 128
192 192 192
128 128 128
192 192 192
192 192 192
192 192 192
192 192 192
192 192 192
192 192 192
192 192 192
192 192 192
192 192 192
192 192 192
192 192 192
192 192 192
192 192 192
192 192 192
192 192 192
192 192 192
192 192 192
192 192 192
192 192 192
192 192 192
192 192 192
192 192 192
192 192 192
128 128 128
64 64 64
64 64 64
64 64 64
64 64 64
64 64 64
0 0 0
0 0 0
64 64 64
64 64 64
64 64 64
128 128 128
64 64 64
64 64 64
128 128 128
64 64 64
128 128 128
128 128 128
128 128 128
128 128 128
128 128 128
128 128 128
128 128 128
128 128 128
128 128 128
128 128 128
128 128 128
128 128 128
128 128 128
128 128 128
128 128 128
128 128 128
128 128 128
128 128 128
64 64 64
64 64 64
64 64 64
192 192 192
192 192 192
192 192 192
192 192 192
192 192 192
128 128 128
128 128 128
128 128 128
128 128 128
128 128 128
128 128 128
128 128 128
128 128 128
128 128 128
128 128 128
128 128 128
128 128 128
128 128 128
128 128 128
64 64 64
64 64 64
64 64 64
64 64 64
64 64 64
0 0 0
64 64 64
128 128 128
128 128 128
128 128 128
128 128 128
128 128 128
128 128 128
0 0 0
0 0 0
64 64 64
0 0 0
64 64 64
128 128 128
128 128 128
64 64 64
128 128 128
64 64 64
0 0 0
64 64 64
64 64 64
128 128 128
128 128 128
128 128 128
128 128 128
128 128 128
128 128 128
128 128 128
128 128 128
128 128 128
128 128 128
128 128 128
128 128 128
64 64 64
128 128 128
128 128 128
128 128 128
128 128 128
64 64 64
64 64 64
128 128 128
64 64 64
64 64 64
64 64 64
64 64 64
64 64 64
64 64 64
64 64 64
64 64 64
128 128 128
128 128 128
64 64 64
64 64 64
64 64 64
128 128 128
64 64 64
64 64 64
64 64 64
64 64 64
64 64 64
64 64 64
64 64 64
128 128 128
64 64 64
64 64 64
64 64 64
64 64 64
64 64 64
64 64 64
64 64 64
64 64 64
64 64 64
64 64 64
64 64 64
64 64 64
64 64 64
64 64 64
128 128 128
64 64 64
64 64 64
64 64 64
64 64 64
64 64 64
64 64 64
64 64 64
64 64 64
64 64 64
64 64 64
64 64 64
128 128 128
128 128 128
128 128 128
64 64 64
128 128 128
192 192 192
128 128 128
192 192 192
192 192 192
192 192 192
192 192 192
192 192 192
192 192 192
192 192 192
192 192 192
192 192 192
192 192 192
192 192 192
192 192 192
192 192 192
192 192 192
192 192 192
192 192 192
192 192 192
192 192 192
192 192 192
192 192 192
192 192 192
192 192 192
192 192 192
128 128 128
64 64 64
64 64 64
64 64 64
64 64 64
64 64 64
64 64 64
0 0 0
0 0 0
64 64 64
64 64 64
64 64 64
64 64 64
64 64 64
128 128 128
64 64 64
128 128 128
128 128 128
128 128 128
128 128 128
192 192 192
128 128 128
128 128 128
64 64 64
128 128 128
128 128 128
128 128 128
128 128 128
128 128 128
64 64 64
128 128 128
128 128 128
64 64 64
64 64 64
64 64 64
64 64 64
64 64 64
192 192 192
192 192 192
192 192 192
192 192 192
192 192 192
128 128 128
128 128 128
128 128 128
128 128 128
128 128 128
128 128 128
128 128 128
128 128 128
128 128 128
128 128 128
64 64 64
128 128 128
128 128 128
64 64 64
64 64 64
64 64 64
64 64 64
64 64 64
0 0 0
0 0 0
64 64 64
128 128 128
128 128 128
128 128 128
128 128 128
128 128 128
128 128 128
128 128 128
64 64 64
64 64 64
128 128 128
128 128 128
128 128 128
64 64 64
128 128 128
128 128 128
64 64 64
64 64 64
64 64 64
64 64 64
64 64 64
64 64 64
128 128 128
128 128 128
128 128 128
128 128 128
128 128 128
128 128 128
128 128 128
128 128 128
128 128 128
128 128 128
128 128 128
128 128 128
128 128 128
128 128 128
128 128 128
128 128 128
128 128 128
64 64 64
128 128 128
64 64 64
64 64 64
64 64 64
64 64 64
64 64 64
64 64 64
128 128 128
128 128 128
64 64 64
64 64 64
64 64 64
64 64 64
64 64 64
64 64 64
64 64 64
64 64 64
64 64 64
64 64 64
64 64 64
64 64 64
128 128 128
64 64 64
64 64 64
64 64 64
64 64 64
64 64 64
64 64 64
64 64 64
64 64 64
64 64 64
64 64 64
64 64 64
64 64 64
64 64 64
64 64 64
128 128 128
64 64 64
64 64 64
0 0 0
64 64 64
64 64 64
64 64 64
64 64 64
64 64 64
64 64 64
64 64 64
64 64 64
64 64 64
64 64 64
64 64 64
128 128 128
192 192 192
192 192 192
128 128 128
192 192 192
192 192 192
192 192 192
192 192 192
192 192 192
192 192 192
192 192 192
192 192 192
192 192 192
192 192 192
192 192 192
192 192 192
192 192 192
192 192 192
192 192 192
192 192 192
192 192 192
192 192 192
192 192 192
192 192 192
192 192 192
192 192 192
192 192 192
192 192 192
64 64 64
64 64 64
64 64 64
64 64 64
64 64 64
64 64 64
64 64 64
0 0 0
0 0 0
64 64 64
64 64 64
64 64 64
64 64 64
64 64 64
64 64 64
128 128 128
128 128 128
64 64 64
128 128 128
192 192 192
128 128 128
64 64 64
128 128 128
128 128 128
128 128 128
128 128 128
128 128 128
128 128 128
64 64 64
64 64 64
0 0 0
0 0 0
0 0 0
64 64 64
64 64 64
64 64 64
192 192 192
192 192 192
192 192 192
192 192 192
192 192 192
128 128 128
128 128 128
128 128 128
128 128 128
128 128 128
64 64 64
128 128 128
128 128 128
128 128 128
64 64 64
64 64 64
64 64 64
64 64 64
64 64 64
64 64 64
64 64 64
64 64 64
0 0 0
0 0 0
0 0 0
64 64 64
64 64 64
128 128 128
128 128 128
128 128 128
128 128 128
128 128 128
128 128 128
128 128 128
128 128 128
128 128 128
128 128 128
128 128 128
64 64 64
64 64 64
64 64 64
64 64 64
128 128 128
128 128 128
128 128 128
128 128 128
128 128 128
128 128 128
128 128 128
128 128 128
128 128 128
128 128 128
128 128 128
128 128 128
128 128 128
128 128 128
128 128 128
128 128 128
128 128 128
128 128 128
128 128 128
128 128 128
128 128 128
64 64 64
128 128 128
128 128 128
128 128 128
64 64 64
64 64 64
64 64 64
64 64 64
64 64 64
128 128 128
128 128 128
64 64 64
64 64 64
64 64 64
64 64 64
64 64 64
128 128 128
64 64 64
64 64 64
64 64 64
64 64 64
64 64 64
128 128 128
128 128 128
64 64 64
64 64 64
64 64 64
64 64 64
64 64 64
64 64 64
64 64 64
64 64 64
64 64 64
64 64 64
64 64 64
64 64 64
64 64 64
64 64 64
128 128 128
64 64 64
64 64 64
64 64 64
64 64 64
64 64 64
64 64 64
64 64 64
64 64 64
64 64 64
64 64 64
0 0 0
0 0 0
0 0 0
0 0 0
64 64 64
192 192 192
192 192 192
128 128 128
192 192 192
192 192 192
192 192 192
192 192 192
192 192 192
192 192 192
192 192 192
192 192 192
192 192 192
192 192 192
192 192 192
192 192 192
192 192 192
192 192 192
192 192 192
192 192 192
192 192 192
192 192 192
192 192 192
192 192 192
192 192 192
192 192 192
192 192 192
192 192 192
128 128 128
64 64 64
64 64 64
64 64 64
0 0 0
0 0 0
0 0 0
0 0 0
0 0 0
0 0 0
0 0 0
64 64 64
64 64 64
64 64 64
64 64 64
64 64 64
128 128 128
128 128 128
192 192 192
128 128 128
64 64 64
64 64 64
128 128 128
128 128 128
128 128 128
128 128 128
64 64 64
64 64 64
0 0 0
0 0 0
0 0 0
0 0 0
0 0 0
0 0 0
0 0 0
64 64 64
256 256 256
256 256 256
256 256 256
192 192 192
192 192 192
192 192 192
128 128 128
128 128 128
128 128 128
128 128 128
64 64 64
64 64 64
128 128 128
128 128 128
128 128 128
64 64 64
64 64 64
64 64 64
64 64 64
64 64 64
64 64 64
64 64 64
0 0 0
0 0 0
0 0 0
64 64 64
64 64 64
128 128 128
128 128 128
128 128 128
64 64 64
64 64 64
64 64 64
64 64 64
64 64 64
64 64 64
128 128 128
128 128 128
128 128 128
128 128 128
128 128 128
128 128 128
128 128 128
128 128 128
128 128 128
128 128 128
128 128 128
128 128 128
128 128 128
128 128 128
128 128 128
128 128 128
128 128 128
128 128 128
128 128 128
128 128 128
128 128 128
128 128 128
128 128 128
128 128 128
128 128 128
128 128 128
128 128 128
128 128 128
128 128 128
128 128 128
128 128 128
64 64 64
128 128 128
64 64 64
64 64 64
64 64 64
128 128 128
64 64 64
64 64 64
64 64 64
64 64 64
64 64 64
64 64 64
64 64 64
128 128 128
64 64 64
64 64 64
64 64 64
64 64 64
128 128 128
128 128 128
64 64 64
64 64 64
64 64 64
64 64 64
64 64 64
64 64 64
64 64 64
64 64 64
64 64 64
64 64 64
64 64 64
64 64 64
64 64 64
64 64 64
64 64 64
64 64 64
64 64 64
64 64 64
64 64 64
64 64 64
64 64 64
64 64 64
0 0 0
0 0 0
0 0 0
0 0 0
0 0 0
0 0 0
0 0 0
0 0 0
128 128 128
192 192 192
128 128 128
192 192 192
192 192 192
192 192 192
192 192 192
192 192 192
192 192 192
192 192 192
192 192 192
192 192 192
192 192 192
192 192 192
192 192 192
192 192 192
192 192 192
192 192 192
192 192 192
192 192 192
192 192 192
192 192 192
192 192 192
192 192 192
192 192 192
192 192 192
192 192 192
192 192 192
64 64 64
64 64 64
64 64 64
0 0 0
64 64 64
64 64 64
64 64 64
0 0 0
0 0 0
0 0 0
0 0 0
0 0 0
0 0 0
0 0 0
0 0 0
128 128 128
192 192 192
192 192 192
128 128 128
64 64 64
64 64 64
128 128 128
128 128 128
64 64 64
0 0 0
0 0 0
0 0 0
0 0 0
0 0 0
0 0 0
0 0 0
0 0 0
0 0 0
0 0 0
128 128 128
256 256 256
256 256 256
256 256 256
256 256 256
192 192 192
192 192 192
128 128 128
128 128 128
128 128 128
128 128 128
128 128 128
64 64 64
128 128 128
128 128 128
128 128 128
64 64 64
64 64 64
64 64 64
64 64 64
64 64 64
64 64 64
0 0 0
0 0 0
0 0 0
0 0 0
64 64 64
64 64 64
64 64 64
64 64 64
64 64 64
64 64 64
64 64 64
64 64 64
128 128 128
128 128 128
128 128 128
128 128 128
128 128 128
128 128 128
128 128 128
128 128 128
128 128 128
128 128 128
128 128 128
128 128 128
128 128 128
128 128 128
128 128 128
128 128 128
128 128 128
128 128 128
128 128 128
128 128 128
128 128 128
128 128 128
128 128 128
128 128 128
128 128 128
128 128 128
128 128 128
128 128 128
128 128 128
128 128 128
128 128 128
128 128 128
128 128 128
128 128 128
64 64 64
128 128 128
128 128 128
64 64 64
128 128 128
128 128 128
64 64 64
64 64 64
64 64 64
64 64 64
128 128 128
64 64 64
64 64 64
64 64 64
128 128 128
64 64 64
64 64 64
64 64 64
128 128 128
128 128 128
64 64 64
0 0 0
0 0 0
64 64 64
0 0 0
64 64 64
64 64 64
64 64 64
64 64 64
64 64 64
64 64 64
64 64 64
64 64 64
64 64 64
64 64 64
128 128 128
64 64 64
64 64 64
64 64 64
64 64 64
0 0 0
0 0 0
0 0 0
0 0 0
64 64 64
64 64 64
64 64 64
64 64 64
64 64 64
0 0 0
64 64 64
128 128 128
192 192 192
192 192 192
192 192 192
192 192 192
192 192 192
192 192 192
192 192 192
192 192 192
192 192 192
192 192 192
192 192 192
192 192 192
192 192 192
192 192 192
192 192 192
192 192 192
192 192 192
192 192 192
192 192 192
192 192 192
192 192 192
192 192 192
192 192 192
192 192 192
192 192 192
192 192 192
64 64 64
64 64 64
64 64 64
128 128 128
128 128 128
64 64 64
64 64 64
64 64 64
0 0 0
0 0 0
0 0 0
0 0 0
0 0 0
0 0 0
0 0 0
128 128 128
192 192 192
128 128 128
128 128 128
64 64 64
64 64 64
128 128 128
64 64 64
0 0 0
64 64 64
64 64 64
64 64 64
64 64 64
64 64 64
64 64 64
64 64 64
0 0 0
0 0 0
0 0 0
128 128 128
256 256 256
256 256 256
256 256 256
256 256 256
192 192 192
192 192 192
128 128 128
128 128 128
128 128 128
128 128 128
128 128 128
128 128 128
128 128 128
64 64 64
128 128 128
64 64 64
64 64 64
64 64 64
128 128 128
128 128 128
64 64 64
64 64 64
64 64 64
64 64 64
64 64 64
64 64 64
64 64 64
64 64 64
64 64 64
128 128 128
128 128 128
128 128 128
128 128 128
128 128 128
128 128 128
128 128 128
128 128 128
128 128 128
128 128 128
128 128 128
128 128 128
128 128 128
128 128 128
192 192 192
192 192 192
192 192 192
192 192 192
192 192 192
192 192 192
128 128 128
128 128 128
128 128 128
128 128 128
128 128 128
128 128 128
128 128 128
128 128 128
128 128 128
128 128 128
128 128 128
128 128 128
128 128 128
128 128 128
128 128 128
128 128 128
128 128 128
128 128 128
128 128 128
64 64 64
128 128 128
128 128 128
128 128 128
128 128 128
64 64 64
128 128 128
128 128 128
128 128 128
128 128 128
64 64 64
64 64 64
64 64 64
128 128 128
128 128 128
64 64 64
64 64 64
64 64 64
128 128 128
64 64 64
64 64 64
64 64 64
64 64 64
64 64 64
64 64 64
64 64 64
64 64 64
64 64 64
64 64 64
64 64 64
64 64 64
64 64 64
64 64 64
64 64 64
128 128 128
128 128 128
64 64 64
64 64 64
0 0 0
0 0 0
0 0 0
64 64 64
64 64 64
64 64 64
64 64 64
64 64 64
64 64 64
64 64 64
64 64 64
64 64 64
128 128 128
192 192 192
192 192 192
192 192 192
192 192 192
192 192 192
192 192 192
192 192 192
192 192 192
192 192 192
192 192 192
192 192 192
192 192 192
192 192 192
192 192 192
192 192 192
192 192 192
192 192 192
192 192 192
192 192 192
192 192 192
192 192 192
192 192 192
192 192 192
192 192 192
192 192 192
192 192 192
64 64 64
64 64 64
192 192 192
128 128 128
64 64 64
64 64 64
0 0 0
0 0 0
0 0 0
0 0 0
0 0 0
0 0 0
0 0 0
0 0 0
0 0 0
64 64 64
192 192 192
128 128 128
128 128 128
128 128 128
128 128 128
64 64 64
0 0 0
64 64 64
128 128 128
64 64 64
64 64 64
64 64 64
64 64 64
64 64 64
64 64 64
64 64 64
64 64 64
0 0 0
256 256 256
256 256 256
256 256 256
256 256 256
256 256 256
192 192 192
192 192 192
128 128 128
128 128 128
128 128 128
128 128 128
128 128 128
128 128 128
128 128 128
128 128 128
128 128 128
128 128 128
128 128 128
64 64 64
128 128 128
128 128 128
128 128 128
64 64 64
64 64 64
64 64 64
64 64 64
64 64 64
128 128 128
128 128 128
128 128 128
128 128 128
128 128 128
128 128 128
128 128 128
128 128 128
128 128 128
128 128 128
128 128 128
128 128 128
128 128 128
128 128 128
128 128 128
128 128 128
128 128 128
192 192 192
192 192 192
192 192 192
192 192 192
192 192 192
192 192 192
192 192 192
192 192 192
128 128 128
128 128 128
128 128 128
128 128 128
128 128 128
128 128 128
128 128 128
128 128 128
128 128 128
128 128 128
128 128 128
128 128 128
128 128 128
128 128 128
128 128 128
128 128 128
128 128 128
128 128 128
128 128 128
128 128 128
128 128 128
128 128 128
128 128 128
128 128 128
128 128 128
128 128 128
128 128 128
64 64 64
64 64 64
64 64 64
128 128 128
128 128 128
64 64 64
64 64 64
64 64 64
128 128 128
128 128 128
0 0 0
0 0 0
0 0 0
64 64 64
64 64 64
128 128 128
128 128 128
64 64 64
64 64 64
128 128 128
128 128 128
64 64 64
64 64 64
64 64 64
128 128 128
128 128 128
128 128 128
0 0 0
0 0 0
0 0 0
0 0 0
64 64 64
64 64 64
64 64 64
64 64 64
64 64 64
64 64 64
64 64 64
64 64 64
64 64 64
64 64 64
128 128 128
192 192 192
192 192 192
192 192 192
192 192 192
192 192 192
192 192 192
192 192 192
192 192 192
192 192 192
192 192 192
192 192 192
192 192 192
192 192 192
192 192 192
192 192 192
192 192 192
192 192 192
192 192 192
192 192 192
192 192 192
192 192 192
192 192 192
192 192 192
192 192 192
192 192 192
64 64 64
128 128 128
128 128 128
64 64 64
64 64 64
64 64 64
0 0 0
64 64 64
128 128 128
128 128 128
64 64 64
64 64 64
0 0 0
0 0 0
0 0 0
64 64 64
128 128 128
128 128 128
64 64 64
128 128 128
64 64 64
64 64 64
128 128 128
128 128 128
128 128 128
64 64 64
64 64 64
64 64 64
0 0 0
0 0 0
0 0 0
64 64 64
64 64 64
64 64 64
256 256 256
256 256 256
256 256 256
256 256 256
192 192 192
192 192 192
192 192 192
128 128 128
128 128 128
128 128 128
128 128 128
128 128 128
128 128 128
128 128 128
128 128 128
128 128 128
128 128 128
128 128 128
64 64 64
64 64 64
64 64 64
64 64 64
64 64 64
64 64 64
64 64 64
64 64 64
64 64 64
128 128 128
128 128 128
128 128 128
128 128 128
128 128 128
128 128 128
128 128 128
128 128 128
128 128 128
128 128 128
128 128 128
128 128 128
128 128 128
128 128 128
128 128 128
128 128 128
128 128 128
192 192 192
192 192 192
192 192 192
192 192 192
192 192 192
192 192 192
192 192 192
192 192 192
128 128 128
128 128 128
128 128 128
128 128 128
128 128 128
128 128 128
128 128 128
128 128 128
128 128 128
128 128 128
128 128 128
128 128 128
128 128 128
128 128 128
128 128 128
128 128 128
128 128 128
128 128 128
128 128 128
128 128 128
128 128 128
128 128 128
128 128 128
128 128 128
128 128 128
128 128 128
128 128 128
64 64 64
128 128 128
64 64 64
64 64 64
128 128 128
64 64 64
128 128 128
64 64 64
64 64 64
128 128 128
0 0 0
0 0 0
0 0 0
0 0 0
0 0 0
64 64 64
64 64 64
64 64 64
128 128 128
64 64 64
128 128 128
64 64 64
64 64 64
64 64 64
128 128 128
128 128 128
128 128 128
64 64 64
0 0 0
0 0 0
64 64 64
64 64 64
64 64 64
64 64 64
64 64 64
64 64 64
64 64 64
64 64 64
64 64 64
64 64 64
64 64 64
128 128 128
192 192 192
192 192 192
192 192 192
192 192 192
192 192 192
192 192 192
192 192 192
192 192 192
192 192 192
192 192 192
192 192 192
192 192 192
192 192 192
192 192 192
192 192 192
192 192 192
192 192 192
192 192 192
192 192 192
192 192 192
192 192 192
192 192 192
192 192 192
192 192 192
192 192 192
128 128 128
128 128 128
64 64 64
128 128 128
64 64 64
64 64 64
0 0 0
128 128 128
128 128 128
64 64 64
64 64 64
64 64 64
64 64 64
64 64 64
0 0 0
0 0 0
128 128 128
128 128 128
128 128 128
64 64 64
64 64 64
128 128 128
128 128 128
128 128 128
64 64 64
64 64 64
64 64 64
64 64 64
64 64 64
64 64 64
64 64 64
0 0 0
0 0 0
64 64 64
256 256 256
256 256 256
256 256 256
256 256 256
192 192 192
192 192 192
192 192 192
128 128 128
128 128 128
128 128 128
128 128 128
128 128 128
128 128 128
128 128 128
128 128 128
128 128 128
128 128 128
128 128 128
128 128 128
64 64 64
64 64 64
64 64 64
64 64 64
64 64 64
64 64 64
64 64 64
64 64 64
64 64 64
64 64 64
128 128 128
128 128 128
128 128 128
128 128 128
128 128 128
128 128 128
128 128 128
128 128 128
128 128 128
128 128 128
128 128 128
128 128 128
192 192 192
192 192 192
192 192 192
192 192 192
192 192 192
192 192 192
192 192 192
192 192 192
192 192 192
192 192 192
192 192 192
128 128 128
128 128 128
128 128 128
128 128 128
128 128 128
128 128 128
128 128 128
128 128 128
128 128 128
128 128 128
128 128 128
128 128 128
128 128 128
128 128 128
128 128 128
128 128 128
128 128 128
128 128 128
128 128 128
128 128 128
128 128 128
128 128 128
128 128 128
128 128 128
64 64 64
128 128 128
128 128 128
128 128 128
128 128 128
64 64 64
128 128 128
128 128 128
64 64 64
64 64 64
128 128 128
64 64 64
64 64 64
64 64 64
0 0 0
0 0 0
64 64 64
64 64 64
64 64 64
64 64 64
64 64 64
64 64 64
64 64 64
128 128 128
128 128 128
64 64 64
64 64 64
64 64 64
128 128 128
128 128 128
64 64 64
0 0 0
64 64 64
64 64 64
64 64 64
64 64 64
64 64 64
64 64 64
64 64 64
128 128 128
64 64 64
64 64 64
64 64 64
64 64 64
128 128 128
192 192 192
192 192 192
192 192 192
192 192 192
192 192 192
192 192 192
192 192 192
192 192 192
192 192 192
192 192 192
192 192 192
192 192 192
192 192 192
192 192 192
192 192 192
192 192 192
192 192 192
192 192 192
192 192 192
192 192 192
192 192 192
192 192 192
192 192 192
192 192 192
192 192 192
192 192 192
128 128 128
64 64 64
128 128 128
64 64 64
64 64 64
64 64 64
128 128 128
128 128 128
128 128 128
64 64 64
64 64 64
64 64 64
64 64 64
64 64 64
64 64 64
64 64 64
128 128 128
128 128 128
64 64 64
64 64 64
128 128 128
128 128 128
64 64 64
64 64 64
64 64 64
64 64 64
64 64 64
64 64 64
64 64 64
64 64 64
64 64 64
64 64 64
128 128 128
256 256 256
256 256 256
256 256 256
256 256 256
192 192 192
192 192 192
192 192 192
128 128 128
128 128 128
128 128 128
128 128 128
128 128 128
128 128 128
128 128 128
128 128 128
128 128 128
128 128 128
128 128 128
128 128 128
128 128 128
64 64 64
64 64 64
64 64 64
64 64 64
128 128 128
128 128 128
128 128 128
64 64 64
64 64 64
64 64 64
64 64 64
128 128 128
128 128 128
128 128 128
128 128 128
128 128 128
128 128 128
192 192 192
192 192 192
192 192 192
192 192 192
192 192 192
192 192 192
192 192 192
192 192 192
192 192 192
192 192 192
192 192 192
192 192 192
192 192 192
192 192 192
192 192 192
128 128 128
128 128 128
128 128 128
128 128 128
128 128 128
128 128 128
128 128 128
128 128 128
128 128 128
128 128 128
128 128 128
128 128 128
128 128 128
128 128 128
128 128 128
128 128 128
128 128 128
128 128 128
128 128 128
128 128 128
128 128 128
128 128 128
128 128 128
128 128 128
128 128 128
128 128 128
128 128 128
128 128 128
128 128 128
128 128 128
128 128 128
128 128 128
64 64 64
64 64 64
64 64 64
64 64 64
64 64 64
64 64 64
0 0 0
64 64 64
64 64 64
0 0 0
0 0 0
0 0 0
0 0 0
64 64 64
64 64 64
64 64 64
128 128 128
128 128 128
64 64 64
64 64 64
128 128 128
128 128 128
64 64 64
64 64 64
64 64 64
64 64 64
64 64 64
64 64 64
64 64 64
64 64 64
128 128 128
128 128 128
64 64 64
64 64 64
64 64 64
64 64 64
64 64 64
192 192 192
192 192 192
192 192 192
192 192 192
192 192 192
192 192 192
192 192 192
192 192 192
192 192 192
192 192 192
192 192 192
192 192 192
192 192 192
192 192 192
192 192 192
192 192 192
192 192 192
192 192 192
192 192 192
192 192 192
192 192 192
192 192 192
192 192 192
192 192 192
192 192 192
192 192 192
128 128 128
64 64 64
64 64 64
64 64 64
64 64 64
192 192 192
128 128 128
128 128 128
128 128 128
64 64 64
64 64 64
64 64 64
64 64 64
64 64 64
64 64 64
64 64 64
64 64 64
128 128 128
64 64 64
128 128 128
128 128 128
64 64 64
64 64 64
128 128 128
64 64 64
0 0 0
0 0 0
0 0 0
0 0 0
64 64 64
64 64 64
64 64 64
192 192 192
256 256 256
256 256 256
256 256 256
256 256 256
192 192 192
192 192 192
128 128 128
128 128 128
128 128 128
128 128 128
128 128 128
128 128 128
128 128 128
128 128 128
128 128 128
128 128 128
128 128 128
128 128 128
128 128 128
128 128 128
64 64 64
64 64 64
64 64 64
64 64 64
128 128 128
128 128 128
128 128 128
128 128 128
128 128 128
128 128 128
128 128 128
192 192 192
192 192 192
192 192 192
192 192 192
192 192 192
192 192 192
192 192 192
192 192 192
192 192 192
192 192 192
192 192 192
192 192 192
192 192 192
192 192 192
192 192 192
192 192 192
192 192 192
192 192 192
192 192 192
192 192 192
192 192 192
128 128 128
128 128 128
128 128 128
128 128 128
128 128 128
128 128 128
128 128 128
128 128 128
128 128 128
128 128 128
128 128 128
128 128 128
128 128 128
128 128 128
128 128 128
128 128 128
128 128 128
128 128 128
128 128 128
128 128 128
128 128 128
128 128 128
128 128 128
128 128 128
128 128 128
128 128 128
128 128 128
128 128 128
128 128 128
128 128 128
128 128 128
128 128 128
64 64 64
64 64 64
64 64 64
64 64 64
64 64 64
64 64 64
0 0 0
64 64 64
0 0 0
64 64 64
0 0 0
0 0 0
0 0 0
0 0 0
0 0 0
64 64 64
64 64 64
128 128 128
64 64 64
64 64 64
128 128 128
128 128 128
128 128 128
64 64 64
64 64 64
64 64 64
64 64 64
64 64 64
64 64 64
64 64 64
128 128 128
128 128 128
64 64 64
128 128 128
64 64 64
64 64 64
128 128 128
192 192 192
192 192 192
192 192 192
192 192 192
192 192 192
192 192 192
192 192 192
192 192 192
192 192 192
192 192 192
192 192 192
192 192 192
192 192 192
192 192 192
192 192 192
192 192 192
192 192 192
192 192 192
192 192 192
192 192 192
192 192 192
192 192 192
192 192 192
192 192 192
192 192 192
192 192 192
128 128 128
64 64 64
64 64 64
64 64 64
64 64 64
192 192 192
64 64 64
64 64 64
64 64 64
64 64 64
64 64 64
64 64 64
64 64 64
64 64 64
64 64 64
64 64 64
64 64 64
128 128 128
64 64 64
128 128 128
64 64 64
64 64 64
128 128 128
128 128 128
64 64 64
0 0 0
0 0 0
0 0 0
0 0 0
64 64 64
64 64 64
64 64 64
192 192 192
256 256 256
256 256 256
256 256 256
256 256 256
192 192 192
192 192 192
128 128 128
128 128 128
128 128 128
128 128 128
128 128 128
128 128 128
128 128 128
128 128 128
192 192 192
192 192 192
128 128 128
128 128 128
128 128 128
128 128 128
128 128 128
128 128 128
64 64 64
64 64 64
64 64 64
128 128 128
128 128 128
128 128 128
128 128 128
128 128 128
192 192 192
192 192 192
192 192 192
192 192 192
192 192 192
192 192 192
192 192 192
192 192 192
192 192 192
192 192 192
192 192 192
192 192 192
192 192 192
192 192 192
192 192 192
192 192 192
192 192 192
192 192 192
192 192 192
192 192 192
192 192 192
192 192 192
192 192 192
192 192 192
128 128 128
128 128 128
128 128 128
128 128 128
128 128 128
128 128 128
128 128 128
128 128 128
128 128 128
128 128 128
128 128 128
128 128 128
128 128 128
128 128 128
128 128 128
128 128 128
128 128 128
128 128 128
128 128 128
128 128 128
128 128 128
128 128 128
128 128 128
128 128 128
128 128 128
128 128 128
128 128 128
128 128 128
128 128 128
128 128 128
64 64 64
64 64 64
64 64 64
64 64 64
64 64 64
64 64 64
0 0 0
64 64 64
64 64 64
64 64 64
0 0 0
0 0 0
0 0 0
0 0 0
0 0 0
0 0 0
64 64 64
128 128 128
64 64 64
64 64 64
64 64 64
128 128 128
128 128 128
64 64 64
64 64 64
64 64 64
64 64 64
64 64 64
64 64 64
64 64 64
128 128 128
128 128 128
128 128 128
64 64 64
64 64 64
64 64 64
128 128 128
192 192 192
192 192 192
192 192 192
192 192 192
192 192 192
192 192 192
192 192 192
192 192 192
192 192 192
192 192 192
192 192 192
192 192 192
192 192 192
192 192 192
192 192 192
192 192 192
192 192 192
192 192 192
192 192 192
192 192 192
192 192 192
192 192 192
192 192 192
192 192 192
192 192 192
192 192 192
128 128 128
64 64 64
64 64 64
64 64 64
64 64 64
128 128 128
64 64 64
64 64 64
64 64 64
128 128 128
128 128 128
128 128 128
64 64 64
64 64 64
64 64 64
64 64 64
64 64 64
64 64 64
128 128 128
128 128 128
64 64 64
64 64 64
128 128 128
128 128 128
128 128 128
64 64 64
64 64 64
64 64 64
64 64 64
64 64 64
64 64 64
0 0 0
192 192 192
256 256 256
256 256 256
256 256 256
256 256 256
192 192 192
128 128 128
128 128 128
128 128 128
128 128 128
128 128 128
128 128 128
128 128 128
192 192 192
192 192 192
192 192 192
192 192 192
192 192 192
192 192 192
192 192 192
192 192 192
128 128 128
128 128 128
128 128 128
128 128 128
64 64 64
64 64 64
128 128 128
128 128 128
128 128 128
192 192 192
192 192 192
192 192 192
192 192 192
192 192 192
192 192 192
192 192 192
192 192 192
192 192 192
192 192 192
192 192 192
192 192 192
192 192 192
192 192 192
192 192 192
192 192 192
192 192 192
192 192 192
192 192 192
192 192 192
192 192 192
192 192 192
192 192 192
192 192 192
192 192 192
128 128 128
128 128 128
128 128 128
128 128 128
128 128 128
128 128 128
128 128 128
128 128 128
128 128 128
128 128 128
128 128 128
128 128 128
128 128 128
128 128 128
128 128 128
128 128 128
128 128 128
128 128 128
128 128 128
128 128 128
128 128 128
128 128 128
128 128 128
128 128 128
128 128 128
128 128 128
128 128 128
128 128 128
128 128 128
128 128 128
128 128 128
128 128 128
128 128 128
64 64 64
64 64 64
64 64 64
0 0 0
0 0 0
64 64 64
64 64 64
0 0 0
0 0 0
0 0 0
0 0 0
0 0 0
0 0 0
64 64 64
128 128 128
128 128 128
64 64 64
64 64 64
128 128 128
128 128 128
64 64 64
64 64 64
64 64 64
128 128 128
128 128 128
64 64 64
64 64 64
128 128 128
128 128 128
128 128 128
64 64 64
64 64 64
64 64 64
192 192 192
192 192 192
192 192 192
192 192 192
192 192 192
192 192 192
192 192 192
192 192 192
192 192 192
192 192 192
192 192 192
192 192 192
192 192 192
192 192 192
192 192 192
192 192 192
192 192 192
192 192 192
192 192 192
192 192 192
192 192 192
192 192 192
192 192 192
192 192 192
192 192 192
192 192 192
192 192 192
128 128 128
64 64 64
64 64 64
64 64 64
64 64 64
64 64 64
64 64 64
64 64 64
64 64 64
64 64 64
64 64 64
128 128 128
128 128 128
64 64 64
64 64 64
64 64 64
64 64 64
64 64 64
128 128 128
128 128 128
64 64 64
128 128 128
192 192 192
128 128 128
128 128 128
128 128 128
128 128 128
128 128 128
128 128 128
64 64 64
64 64 64
64 64 64
192 192 192
256 256 256
256 256 256
256 256 256
192 192 192
192 192 192
128 128 128
128 128 128
128 128 128
128 128 128
128 128 128
128 128 128
192 192 192
192 192 192
192 192 192
192 192 192
192 192 192
192 192 192
192 192 192
192 192 192
192 192 192
192 192 192
192 192 192
192 192 192
192 192 192
128 128 128
128 128 128
128 128 128
128 128 128
128 128 128
192 192 192
192 192 192
192 192 192
192 192 192
192 192 192
192 192 192
192 192 192
192 192 192
192 192 192
192 192 192
192 192 192
192 192 192
192 192 192
192 192 192
192 192 192
192 192 192
192 192 192
192 192 192
192 192 192
192 192 192
128 128 128
192 192 192
192 192 192
192 192 192
192 192 192
128 128 128
128 128 128
128 128 128
128 128 128
128 128 128
128 128 128
128 128 128
128 128 128
128 128 128
128 128 128
128 128 128
128 128 128
128 128 128
128 128 128
128 128 128
128 128 128
128 128 128
128 128 128
128 128 128
128 128 128
128 128 128
128 128 128
128 128 128
128 128 128
128 128 128
128 128 128
64 64 64
128 128 128
128 128 128
128 128 128
128 128 128
128 128 128
128 128 128
64 64 64
64 64 64
64 64 64
64 64 64
0 0 0
64 64 64
0 0 0
0 0 0
0 0 0
0 0 0
0 0 0
0 0 0
64 64 64
64 64 64
128 128 128
128 128 128
64 64 64
64 64 64
128 128 128
128 128 128
64 64 64
64 64 64
128 128 128
64 64 64
128 128 128
64 64 64
64 64 64
128 128 128
128 128 128
128 128 128
64 64 64
64 64 64
128 128 128
192 192 192
192 192 192
192 192 192
192 192 192
192 192 192
192 192 192
192 192 192
192 192 192
192 192 192
192 192 192
192 192 192
192 192 192
192 192 192
192 192 192
192 192 192
192 192 192
192 192 192
192 192 192
192 192 192
192 192 192
192 192 192
192 192 192
192 192 192
192 192 192
192 192 192
192 192 192
192 192 192
128 128 128
64 64 64
64 64 64
64 64 64
64 64 64
64 64 64
64 64 64
64 64 64
64 64 64
64 64 64
128 128 128
64 64 64
64 64 64
64 64 64
128 128 128
128 128 128
64 64 64
64 64 64
128 128 128
128 128 128
64 64 64
128 128 128
192 192 192
128 128 128
128 128 128
128 128 128
64 64 64
64 64 64
64 64 64
128 128 128
128 128 128
64 64 64
192 192 192
256 256 256
256 256 256
256 256 256
192 192 192
192 192 192
128 128 128
128 128 128
128 128 128
128 128 128
192 192 192
192 192 192
192 192 192
192 192 192
192 192 192
192 192 192
192 192 192
192 192 192
192 192 192
192 192 192
192 192 192
192 192 192
192 192 192
192 192 192
192 192 192
192 192 192
192 192 192
192 192 192
192 192 192
192 192 192
192 192 192
192 192 192
192 192 192
192 192 192
192 192 192
192 192 192
192 192 192
192 192 192
192 192 192
192 192 192
192 192 192
192 192 192
192 192 192
192 192 192
192 192 192
192 192 192
192 192 192
192 192 192
192 192 192
192 192 192
192 192 192
192 192 192
192 192 192
192 192 192
128 128 128
128 128 128
128 128 128
128 128 128
128 128 128
128 128 128
128 128 128
128 128 128
128 128 128
128 128 128
128 128 128
128 128 128
128 128 128
128 128 128
128 128 128
128 128 128
128 128 128
128 128 128
128 128 128
128 128 128
128 128 128
128 128 128
128 128 128
128 128 128
128 128 128
128 128 128
128 128 128
128 128 128
64 64 64
128 128 128
128 128 128
64 64 64
128 128 128
128 128 128
0 0 0
64 64 64
64 64 64
0 0 0
0 0 0
0 0 0
0 0 0
0 0 0
0 0 0
0 0 0
0 0 0
0 0 0
64 64 64
64 64 64
128 128 128
128 128 128
64 64 64
64 64 64
128 128 128
64 64 64
64 64 64
64 64 64
64 64 64
128 128 128
128 128 128
64 64 64
64 64 64
128 128 128
128 128 128
128 128 128
64 64 64
192 192 192
192 192 192
192 192 192
192 192 192
192 192 192
192 192 192
192 192 192
192 192 192
192 192 192
192 192 192
192 192 192
192 192 192
192 192 192
192 192 192
192 192 192
192 192 192
192 192 192
192 192 192
192 192 192
192 192 192
192 192 192
192 192 192
192 192 192
192 192 192
192 192 192
192 192 192
192 192 192
192 192 192
192 192 192
192 192 192
64 64 64
64 64 64
64 64 64
64 64 64
64 64 64
64 64 64
64 64 64
64 64 64
128 128 128
128 128 128
64 64 64
64 64 64
64 64 64
64 64 64
64 64 64
64 64 64
64 64 64
128 128 128
128 128 128
64 64 64
128 128 128
192 192 192
192 192 192
128 128 128
128 128 128
64 64 64
64 64 64
128 128 128
128 128 128
128 128 128
64 64 64
192 192 192
256 256 256
256 256 256
256 256 256
192 192 192
192 192 192
192 192 192
192 192 192
192 192 192
192 192 192
192 192 192
192 192 192
192 192 192
192 192 192
192 192 192
192 192 192
192 192 192
192 192 192
192 192 192
192 192 192
192 192 192
192 192 192
192 192 192
192 192 192
192 192 192
192 192 192
192 192 192
192 192 192
192 192 192
192 192 192
192 192 192
192 192 192
192 192 192
192 192 192
192 192 192
192 192 192
192 192 192
192 192 192
192 192 192
192 192 192
192 192 192
192 192 192
192 192 192
192 192 192
192 192 192
192 192 192
192 192 192
192 192 192
192 192 192
192 192 192
192 192 192
192 192 192
192 192 192
192 192 192
128 128 128
128 128 128
128 128 128
128 128 128
128 128 128
128 128 128
128 128 128
128 128 128
128 128 128
128 128 128
128 128 128
128 128 128
128 128 128
128 128 128
128 128 128
128 128 128
128 128 128
128 128 128
128 128 128
128 128 128
128 128 128
128 128 128
128 128 128
128 128 128
128 128 128
128 128 128
128 128 128
128 128 128
128 128 128
128 128 128
128 128 128
64 64 64
128 128 128
128 128 128
0 0 0
64 64 64
64 64 64
0 0 0
0 0 0
0 0 0
0 0 0
0 0 0
0 0 0
0 0 0
0 0 0
0 0 0
64 64 64
128 128 128
128 128 128
128 128 128
64 64 64
64 64 64
128 128 128
128 128 128
64 64 64
64 64 64
64 64 64
64 64 64
128 128 128
64 64 64
64 64 64
128 128 128
128 128 128
64 64 64
64 64 64
192 192 192
192 192 192
192 192 192
192 192 192
192 192 192
192 192 192
192 192 192
192 192 192
192 192 192
192 192 192
192 192 192
192 192 192
192 192 192
192 192 192
192 192 192
192 192 192
192 192 192
192 192 192
192 192 192
192 192 192
192 192 192
192 192 192
192 192 192
192 192 192
192 192 192
192 192 192
192 192 192
192 192 192
192 192 192
192 192 192
128 128 128
64 64 64
64 64 64
64 64 64
64 64 64
64 64 64
64 64 64
64 64 64
64 64 64
128 128 128
64 64 64
64 64 64
64 64 64
64 64 64
64 64 64
64 64 64
64 64 64
64 64 64
128 128 128
64 64 64
128 128 128
192 192 192
128 128 128
128 128 128
128 128 128
128 128 128
128 128 128
128 128 128
128 128 128
128 128 128
64 64 64
192 192 192
256 256 256
256 256 256
256 256 256
192 192 192
192 192 192
192 192 192
192 192 192
192 192 192
192 192 192
192 192 192
192 192 192
192 192 192
192 192 192
192 192 192
192 192 192
192 192 192
192 192 192
192 192 192
192 192 192
192 192 192
192 192 192
192 192 192
192 192 192
192 192 192
192 192 192
192 192 192
192 192 192
192 192 192
192 192 192
192 192 192
192 192 192
192 192 192
192 192 192
192 192 192
192 192 192
192 192 192
192 192 192
192 192 192
192 192 192
192 192 192
192 192 192
192 192 192
192 192 192
192 192 192
192 192 192
192 192 192
192 192 192
192 192 192
192 192 192
192 192 192
192 192 192
128 128 128
128 128 128
128 128 128
128 128 128
128 128 128
128 128 128
128 128 128
128 128 128
128 128 128
128 128 128
128 128 128
128 128 128
128 128 128
128 128 128
128 128 128
128 128 128
128 128 128
128 128 128
128 128 128
128 128 128
128 128 128
128 128 128
128 128 128
128 128 128
128 128 128
128 128 128
128 128 128
128 128 128
128 128 128
128 128 128
128 128 128
128 128 128
128 128 128
64 64 64
128 128 128
64 64 64
0 0 0
64 64 64
0 0 0
0 0 0
0 0 0
0 0 0
0 0 0
0 0 0
0 0 0
0 0 0
0 0 0
0 0 0
64 64 64
128 128 128
128 128 128
64 64 64
64 64 64
128 128 128
128 128 128
128 128 128
64 64 64
64 64 64
64 64 64
64 64 64
128 128 128
64 64 64
128 128 128
128 128 128
128 128 128
64 64 64
64 64 64
192 192 192
192 192 192
192 192 192
192 192 192
192 192 192
192 192 192
192 192 192
192 192 192
192 192 192
192 192 192
192 192 192
192 192 192
192 192 192
192 192 192
192 192 192
192 192 192
192 192 192
192 192 192
192 192 192
192 192 192
192 192 192
192 192 192
192 192 192
192 192 192
192 192 192
192 192 192
192 192 192
192 192 192
192 192 192
192 192 192
192 192 192
128 128 128
64 64 64
64 64 64
64 64 64
64 64 64
64 64 64
64 64 64
64 64 64
64 64 64
64 64 64
128 128 128
64 64 64
64 64 64
64 64 64
64 64 64
64 64 64
128 128 128
128 128 128
128 128 128
128 128 128
128 128 128
128 128 128
128 128 128
192 192 192
192 192 192
128 128 128
128 128 128
128 128 128
128 128 128
64 64 64
192 192 192
256 256 256
256 256 256
256 256 256
192 192 192
192 192 192
192 192 192
192 192 192
192 192 192
192 192 192
192 192 192
192 192 192
192 192 192
192 192 192
192 192 192
192 192 192
192 192 192
192 192 192
192 192 192
192 192 192
192 192 192
192 192 192
192 192 192
192 192 192
192 192 192
192 192 192
192 192 192
192 192 192
192 192 192
192 192 192
192 192 192
192 192 192
192 192 192
192 192 192
192 192 192
192 192 192
192 192 192
192 192 192
192 192 192
192 192 192
192 192 192
192 192 192
192 192 192
192 192 192
192 192 192
192 192 192
192 192 192
192 192 192
128 128 128
128 128 128
192 192 192
192 192 192
128 128 128
128 128 128
128 128 128
128 128 128
128 128 128
128 128 128
128 128 128
128 128 128
128 128 128
128 128 128
128 128 128
128 128 128
128 128 128
128 128 128
128 128 128
128 128 128
128 128 128
128 128 128
128 128 128
128 128 128
128 128 128
128 128 128
128 128 128
128 128 128
128 128 128
128 128 128
128 128 128
128 128 128
128 128 128
128 128 128
128 128 128
128 128 128
128 128 128
128 128 128
128 128 128
64 64 64
0 0 0
64 64 64
0 0 0
0 0 0
0 0 0
0 0 0
0 0 0
64 64 64
64 64 64
0 0 0
0 0 0
64 64 64
128 128 128
128 128 128
128 128 128
64 64 64
64 64 64
128 128 128
128 128 128
128 128 128
64 64 64
64 64 64
64 64 64
128 128 128
64 64 64
64 64 64
128 128 128
128 128 128
128 128 128
64 64 64
128 128 128
192 192 192
192 192 192
192 192 192
192 192 192
192 192 192
192 192 192
192 192 192
192 192 192
192 192 192
192 192 192
192 192 192
192 192 192
192 192 192
192 192 192
192 192 192
192 192 192
192 192 192
192 192 192
192 192 192
192 192 192
192 192 192
192 192 192
192 192 192
192 192 192
192 192 192
192 192 192
192 192 192
192 192 192
192 192 192
192 192 192
192 192 192
192 192 192
128 128 128
64 64 64
64 64 64
64 64 64
64 64 64
64 64 64
64 64 64
64 64 64
64 64 64
64 64 64
64 64 64
64 64 64
64 64 64
64 64 64
64 64 64
128 128 128
128 128 128
128 128 128
128 128 128
192 192 192
128 128 128
128 128 128
128 128 128
128 128 128
128 128 128
128 128 128
128 128 128
64 64 64
128 128 128
256 256 256
256 256 256
256 256 256
256 256 256
192 192 192
192 192 192
192 192 192
192 192 192
192 192 192
192 192 192
192 192 192
192 192 192
192 192 192
128 128 128
128 128 128
192 192 192
192 192 192
192 192 192
192 192 192
192 192 192
192 192 192
192 192 192
192 192 192
192 192 192
192 192 192
192 192 192
192 192 192
192 192 192
192 192 192
192 192 192
192 192 192
192 192 192
192 192 192
192 192 192
192 192 192
192 192 192
192 192 192
192 192 192
192 192 192
192 192 192
192 192 192
192 192 192
192 192 192
192 192 192
192 192 192
192 192 192
192 192 192
192 192 192
192 192 192
128 128 128
192 192 192
128 128 128
128 128 128
128 128 128
128 128 128
128 128 128
128 128 128
128 128 128
128 128 128
128 128 128
128 128 128
128 128 128
128 128 128
128 128 128
128 128 128
128 128 128
128 128 128
128 128 128
128 128 128
128 128 128
128 128 128
128 128 128
128 128 128
128 128 128
128 128 128
128 128 128
128 128 128
128 128 128
128 128 128
128 128 128
128 128 128
128 128 128
128 128 128
128 128 128
128 128 128
128 128 128
128 128 128
0 0 0
64 64 64
64 64 64
0 0 0
0 0 0
0 0 0
64 64 64
128 128 128
128 128 128
128 128 128
128 128 128
128 128 128
128 128 128
128 128 128
128 128 128
128 128 128
64 64 64
64 64 64
128 128 128
128 128 128
128 128 128
64 64 64
64 64 64
64 64 64
64 64 64
64 64 64
128 128 128
128 128 128
64 64 64
128 128 128
64 64 64
128 128 128
192 192 192
192 192 192
192 192 192
192 192 192
192 192 192
192 192 192
192 192 192
192 192 192
192 192 192
192 192 192
192 192 192
192 192 192
192 192 192
192 192 192
192 192 192
192 192 192
192 192 192
192 192 192
192 192 192
192 192 192
192 192 192
192 192 192
192 192 192
192 192 192
192 192 192
192 192 192
192 192 192
192 192 192
192 192 192
192 192 192
192 192 192
192 192 192
192 192 192
128 128 128
64 64 64
64 64 64
64 64 64
64 64 64
64 64 64
64 64 64
64 64 64
64 64 64
128 128 128
64 64 64
64 64 64
64 64 64
0 0 0
128 128 128
128 128 128
128 128 128
128 128 128
128 128 128
128 128 128
128 128 128
128 128 128
128 128 128
128 128 128
128 128 128
128 128 128
192 192 192
192 192 192
256 256 256
256 256 256
256 256 256
256 256 256
192 192 192
192 192 192
192 192 192
192 192 192
192 192 192
192 192 192
192 192 192
192 192 192
128 128 128
128 128 128
128 128 128
128 128 128
128 128 128
128 128 128
192 192 192
192 192 192
192 192 192
192 192 192
192 192 192
192 192 192
192 192 192
192 192 192
192 192 192
192 192 192
192 192 192
192 192 192
192 192 192
192 192 192
192 192 192
192 192 192
192 192 192
192 192 192
192 192 192
192 192 192
192 192 192
192 192 192
192 192 192
192 192 192
192 192 192
192 192 192
192 192 192
192 192 192
192 192 192
192 192 192
128 128 128
128 128 128
192 192 192
128 128 128
128 128 128
128 128 128
128 128 128
128 128 128
128 128 128
128 128 128
128 128 128
128 128 128
128 128 128
128 128 128
128 128 128
128 128 128
128 128 128
128 128 128
128 128 128
128 128 128
128 128 128
128 128 128
128 128 128
128 128 128
128 128 128
128 128 128
128 128 128
128 128 128
128 128 128
128 128 128
128 128 128
128 128 128
128 128 128
128 128 128
128 128 128
128 128 128
128 128 128
128 128 128
128 128 128
64 64 64
0 0 0
0 0 0
0 0 0
64 64 64
128 128 128
128 128 128
128 128 128
128 128 128
128 128 128
128 128 128
128 128 128
128 128 128
128 128 128
128 128 128
64 64 64
64 64 64
128 128 128
128 128 128
128 128 128
128 128 128
128 128 128
64 64 64
64 64 64
64 64 64
64 64 64
128 128 128
128 128 128
64 64 64
64 64 64
64 64 64
128 128 128
192 192 192
192 192 192
192 192 192
192 192 192
192 192 192
192 192 192
192 192 192
192 192 192
192 192 192
192 192 192
192 192 192
192 192 192
192 192 192
192 192 192
192 192 192
192 192 192
192 192 192
192 192 192
192 192 192
192 192 192
192 192 192
192 192 192
192 192 192
192 192 192
192 192 192
192 192 192
192 192 192
192 192 192
192 192 192
192 192 192
192 192 192
192 192 192
192 192 192
192 192 192
192 192 192
128 128 128
64 64 64
64 64 64
64 64 64
64 64 64
64 64 64
64 64 64
64 64 64
128 128 128
128 128 128
64 64 64
0 0 0
128 128 128
128 128 128
128 128 128
192 192 192
192 192 192
128 128 128
128 128 128
128 128 128
128 128 128
64 64 64
128 128 128
192 192 192
192 192 192
192 192 192
256 256 256
256 256 256
256 256 256
256 256 256
256 256 256
192 192 192
192 192 192
192 192 192
192 192 192
192 192 192
192 192 192
192 192 192
128 128 128
128 128 128
128 128 128
128 128 128
128 128 128
128 128 128
128 128 128
128 128 128
128 128 128
192 192 192
192 192 192
192 192 192
192 192 192
192 192 192
192 192 192
192 192 192
192 192 192
192 192 192
192 192 192
192 192 192
192 192 192
192 192 192
192 192 192
192 192 192
192 192 192
192 192 192
192 192 192
192 192 192
192 192 192
192 192 192
192 192 192
192 192 192
192 192 192
192 192 192
192 192 192
128 128 128
128 128 128
128 128 128
128 128 128
192 192 192
128 128 128
128 128 128
128 128 128
128 128 128
128 128 128
128 128 128
128 128 128
128 128 128
128 128 128
128 128 128
128 128 128
128 128 128
128 128 128
128 128 128
128 128 128
128 128 128
128 128 128
128 128 128
128 128 128
128 128 128
128 128 128
128 128 128
128 128 128
128 128 128
128 128 128
128 128 128
128 128 128
128 128 128
128 128 128
128 128 128
128 128 128
128 128 128
128 128 128
128 128 128
128 128 128
128 128 128
64 64 64
64 64 64
64 64 64
128 128 128
128 128 128
128 128 128
128 128 128
128 128 128
128 128 128
128 128 128
128 128 128
128 128 128
128 128 128
128 128 128
64 64 64
64 64 64
128 128 128
128 128 128
128 128 128
128 128 128
128 128 128
128 128 128
64 64 64
64 64 64
128 128 128
128 128 128
128 128 128
64 64 64
64 64 64
64 64 64
128 128 128
192 192 192
192 192 192
192 192 192
192 192 192
192 192 192
192 192 192
192 192 192
192 192 192
192 192 192
192 192 192
192 192 192
192 192 192
192 192 192
192 192 192
192 192 192
192 192 192
192 192 192
192 192 192
192 192 192
192 192 192
192 192 192
192 192 192
192 192 192
192 192 192
192 192 192
192 192 192
192 192 192
192 192 192
192 192 192
192 192 192
192 192 192
192 192 192
192 192 192
192 192 192
192 192 192
192 192 192
192 192 192
128 128 128
64 64 64
64 64 64
64 64 64
64 64 64
64 64 64
64 64 64
128 128 128
64 64 64
64 64 64
192 192 192
128 128 128
192 192 192
192 192 192
192 192 192
128 128 128
128 128 128
128 128 128
64 64 64
192 192 192
192 192 192
192 192 192
192 192 192
256 256 256
256 256 256
256 256 256
256 256 256
256 256 256
256 256 256
256 256 256
192 192 192
192 192 192
192 192 192
192 192 192
192 192 192
192 192 192
192 192 192
192 192 192
128 128 128
128 128 128
128 128 128
128 128 128
128 128 128
128 128 128
128 128 128
128 128 128
192 192 192
192 192 192
192 192 192
192 192 192
192 192 192
192 192 192
192 192 192
192 192 192
192 192 192
192 192 192
192 192 192
192 192 192
192 192 192
192 192 192
192 192 192
192 192 192
192 192 192
192 192 192
192 192 192
192 192 192
192 192 192
192 192 192
192 192 192
192 192 192
192 192 192
128 128 128
192 192 192
128 128 128
128 128 128
128 128 128
128 128 128
128 128 128
128 128 128
128 128 128
128 128 128
128 128 128
128 128 128
128 128 128
128 128 128
128 128 128
128 128 128
128 128 128
128 128 128
128 128 128
128 128 128
128 128 128
128 128 128
128 128 128
128 128 128
128 128 128
128 128 128
128 128 128
128 128 128
128 128 128
128 128 128
128 128 128
128 128 128
128 128 128
128 128 128
128 128 128
128 128 128
128 128 128
128 128 128
128 128 128
128 128 128
64 64 64
128 128 128
128 128 128
128 128 128
128 128 128
128 128 128
128 128 128
128 128 128
128 128 128
128 128 128
128 128 128
128 128 128
64 64 64
64 64 64
64 64 64
64 64 64
64 64 64
128 128 128
128 128 128
64 64 64
64 64 64
128 128 128
128 128 128
64 64 64
64 64 64
128 128 128
64 64 64
64 64 64
64 64 64
64 64 64
64 64 64
128 128 128
192 192 192
192 192 192
192 192 192
192 192 192
192 192 192
192 192 192
192 192 192
192 192 192
192 192 192
192 192 192
192 192 192
192 192 192
192 192 192
192 192 192
192 192 192
192 192 192
192 192 192
192 192 192
192 192 192
192 192 192
192 192 192
192 192 192
192 192 192
192 192 192
192 192 192
192 192 192
192 192 192
192 192 192
192 192 192
192 192 192
192 192 192
192 192 192
192 192 192
192 192 192
192 192 192
192 192 192
192 192 192
192 192 192
192 192 192
128 128 128
128 128 128
64 64 64
64 64 64
64 64 64
64 64 64
64 64 64
64 64 64
192 192 192
192 192 192
192 192 192
192 192 192
128 128 128
128 128 128
128 128 128
128 128 128
192 192 192
192 192 192
192 192 192
192 192 192
192 192 192
256 256 256
256 256 256
256 256 256
256 256 256
256 256 256
256 256 256
256 256 256
192 192 192
192 192 192
192 192 192
192 192 192
192 192 192
192 192 192
192 192 192
192 192 192
192 192 192
128 128 128
128 128 128
64 64 64
64 64 64
64 64 64
128 128 128
128 128 128
192 192 192
192 192 192
192 192 192
192 192 192
192 192 192
192 192 192
192 192 192
192 192 192
192 192 192
192 192 192
192 192 192
192 192 192
192 192 192
192 192 192
192 192 192
192 192 192
192 192 192
192 192 192
192 192 192
192 192 192
192 192 192
192 192 192
192 192 192
192 192 192
192 192 192
128 128 128
128 128 128
128 128 128
128 128 128
128 128 128
128 128 128
128 128 128
128 128 128
128 128 128
128 128 128
128 128 128
128 128 128
128 128 128
128 128 128
128 128 128
128 128 128
128 128 128
128 128 128
128 128 128
128 128 128
128 128 128
128 128 128
128 128 128
128 128 128
128 128 128
128 128 128
128 128 128
128 128 128
128 128 128
128 128 128
128 128 128
128 128 128
128 128 128
128 128 128
128 128 128
128 128 128
128 128 128
128 128 128
128 128 128
64 64 64
64 64 64
64 64 64
64 64 64
128 128 128
128 128 128
128 128 128
128 128 128
128 128 128
128 128 128
128 128 128
128 128 128
64 64 64
64 64 64
64 64 64
128 128 128
128 128 128
128 128 128
128 128 128
64 64 64
64 64 64
64 64 64
128 128 128
128 128 128
128 128 128
64 64 64
64 64 64
64 64 64
64 64 64
128 128 128
64 64 64
64 64 64
128 128 128
192 192 192
192 192 192
192 192 192
192 192 192
192 192 192
192 192 192
192 192 192
192 192 192
192 192 192
192 192 192
192 192 192
192 192 192
192 192 192
192 192 192
192 192 192
192 192 192
192 192 192
192 192 192
192 192 192
192 192 192
192 192 192
192 192 192
192 192 192
192 192 192
192 192 192
192 192 192
192 192 192
192 192 192
192 192 192
192 192 192
192 192 192
192 192 192
192 192 192
192 192 192
192 192 192
192 192 192
192 192 192
192 192 192
192 192 192
192 192 192
192 192 192
192 192 192
128 128 128
64 64 64
64 64 64
64 64 64
64 64 64
192 192 192
192 192 192
192 192 192
192 192 192
192 192 192
192 192 192
192 192 192
256 256 256
256 256 256
256 256 256
192 192 192
192 192 192
256 256 256
256 256 256
256 256 256
256 256 256
256 256 256
256 256 256
256 256 256
256 256 256
192 192 192
192 192 192
192 192 192
192 192 192
192 192 192
192 192 192
192 192 192
192 192 192
256 256 256
256 256 256
256 256 256
192 192 192
192 192 192
128 128 128
128 128 128
128 128 128
128 128 128
128 128 128
192 192 192
192 192 192
192 192 192
192 192 192
192 192 192
192 192 192
192 192 192
192 192 192
192 192 192
192 192 192
192 192 192
192 192 192
192 192 192
192 192 192
192 192 192
192 192 192
192 192 192
192 192 192
192 192 192
192 192 192
192 192 192
192 192 192
192 192 192
128 128 128
192 192 192
128 128 128
128 128 128
128 128 128
128 128 128
128 128 128
128 128 128
128 128 128
128 128 128
128 128 128
128 128 128
128 128 128
128 128 128
128 128 128
128 128 128
128 128 128
128 128 128
128 128 128
128 128 128
128 128 128
128 128 128
128 128 128
128 128 128
128 128 128
128 128 128
128 128 128
128 128 128
128 128 128
128 128 128
128 128 128
128 128 128
128 128 128
128 128 128
128 128 128
128 128 128
128 128 128
128 128 128
64 64 64
64 64 64
64 64 64
64 64 64
64 64 64
64 64 64
128 128 128
128 128 128
128 128 128
128 128 128
128 128 128
128 128 128
128 128 128
128 128 128
128 128 128
128 128 128
128 128 128
128 128 128
128 128 128
128 128 128
0 0 0
64 64 64
64 64 64
64 64 64
128 128 128
128 128 128
128 128 128
128 128 128
64 64 64
64 64 64
128 128 128
64 64 64
64 64 64
192 192 192
192 192 192
192 192 192
192 192 192
192 192 192
192 192 192
192 192 192
192 192 192
192 192 192
192 192 192
192 192 192
192 192 192
192 192 192
192 192 192
192 192 192
192 192 192
192 192 192
192 192 192
192 192 192
192 192 192
192 192 192
192 192 192
192 192 192
192 192 192
192 192 192
192 192 192
192 192 192
192 192 192
192 192 192
192 192 192
192 192 192
192 192 192
192 192 192
192 192 192
192 192 192
192 192 192
192 192 192
192 192 192
192 192 192
192 192 192
192 192 192
192 192 192
192 192 192
192 192 192
192 192 192
128 128 128
64 64 64
64 64 64
192 192 192
192 192 192
192 192 192
192 192 192
256 256 256
256 256 256
256 256 256
256 256 256
256 256 256
192 192 192
192 192 192
256 256 256
256 256 256
256 256 256
256 256 256
256 256 256
256 256 256
256 256 256
256 256 256
192 192 192
192 192 192
192 192 192
192 192 192
192 192 192
192 192 192
192 192 192
192 192 192
192 192 192
192 192 192
192 192 192
192 192 192
192 192 192
192 192 192
192 192 192
128 128 128
128 128 128
128 128 128
128 128 128
192 192 192
192 192 192
192 192 192
192 192 192
192 192 192
192 192 192
192 192 192
192 192 192
192 192 192
192 192 192
192 192 192
192 192 192
192 192 192
192 192 192
192 192 192
192 192 192
192 192 192
192 192 192
192 192 192
192 192 192
192 192 192
192 192 192
192 192 192
192 192 192
128 128 128
192 192 192
128 128 128
128 128 128
128 128 128
128 128 128
128 128 128
128 128 128
128 128 128
128 128 128
128 128 128
128 128 128
128 128 128
128 128 128
128 128 128
128 128 128
128 128 128
128 128 128
128 128 128
128 128 128
128 128 128
128 128 128
128 128 128
128 128 128
128 128 128
128 128 128
128 128 128
128 128 128
128 128 128
128 128 128
128 128 128
128 128 128
128 128 128
128 128 128
128 128 128
128 128 128
128 128 128
128 128 128
128 128 128
64 64 64
64 64 64
64 64 64
64 64 64
64 64 64
128 128 128
128 128 128
128 128 128
128 128 128
128 128 128
128 128 128
128 128 128
128 128 128
128 128 128
128 128 128
128 128 128
128 128 128
64 64 64
0 0 0
64 64 64
64 64 64
64 64 64
64 64 64
128 128 128
128 128 128
128 128 128
64 64 64
64 64 64
128 128 128
64 64 64
128 128 128
192 192 192
192 192 192
192 192 192
192 192 192
192 192 192
192 192 192
192 192 192
192 192 192
192 192 192
192 192 192
192 192 192
192 192 192
192 192 192
192 192 192
192 192 192
192 192 192
192 192 192
192 192 192
192 192 192
192 192 192
192 192 192
192 192 192
192 192 192
192 192 192
192 192 192
192 192 192
192 192 192
192 192 192
192 192 192
192 192 192
192 192 192
192 192 192
192 192 192
192 192 192
192 192 192
192 192 192
192 192 192
192 192 192
192 192 192
192 192 192
192 192 192
192 192 192
192 192 192
192 192 192
192 192 192
192 192 192
192 192 192
128 128 128
192 192 192
192 192 192
192 192 192
192 192 192
256 256 256
256 256 256
256 256 256
192 192 192
192 192 192
192 192 192
256 256 256
256 256 256
256 256 256
256 256 256
256 256 256
256 256 256
256 256 256
192 192 192
192 192 192
192 192 192
192 192 192
192 192 192
192 192 192
192 192 192
192 192 192
192 192 192
192 192 192
192 192 192
192 192 192
192 192 192
192 192 192
192 192 192
192 192 192
192 192 192
192 192 192
128 128 128
128 128 128
128 128 128
128 128 128
128 128 128
192 192 192
192 192 192
192 192 192
192 192 192
192 192 192
192 192 192
192 192 192
192 192 192
192 192 192
192 192 192
192 192 192
192 192 192
192 192 192
192 192 192
192 192 192
192 192 192
192 192 192
192 192 192
192 192 192
192 192 192
192 192 192
192 192 192
128 128 128
128 128 128
128 128 128
128 128 128
128 128 128
128 128 128
128 128 128
128 128 128
128 128 128
128 128 128
128 128 128
128 128 128
128 128 128
128 128 128
128 128 128
128 128 128
128 128 128
128 128 128
128 128 128
128 128 128
128 128 128
128 128 128
128 128 128
128 128 128
128 128 128
128 128 128
128 128 128
128 128 128
128 128 128
128 128 128
128 128 128
128 128 128
128 128 128
128 128 128
128 128 128
128 128 128
128 128 128
128 128 128
128 128 128
128 128 128
128 128 128
128 128 128
128 128 128
128 128 128
128 128 128
128 128 128
128 128 128
128 128 128
128 128 128
128 128 128
128 128 128
128 128 128
128 128 128
128 128 128
128 128 128
64 64 64
0 0 0
0 0 0
64 64 64
64 64 64
64 64 64
64 64 64
128 128 128
128 128 128
128 128 128
64 64 64
64 64 64
128 128 128
64 64 64
128 128 128
192 192 192
192 192 192
192 192 192
192 192 192
192 192 192
192 192 192
192 192 192
192 192 192
192 192 192
192 192 192
192 192 192
192 192 192
192 192 192
192 192 192
192 192 192
192 192 192
192 192 192
192 192 192
192 192 192
192 192 192
192 192 192
192 192 192
192 192 192
192 192 192
192 192 192
192 192 192
192 192 192
192 192 192
192 192 192
192 192 192
192 192 192
192 192 192
192 192 192
192 192 192
192 192 192
192 192 192
192 192 192
192 192 192
192 192 192
192 192 192
192 192 192
192 192 192
192 192 192
192 192 192
192 192 192
192 192 192
192 192 192
192 192 192
192 192 192
192 192 192
192 192 192
256 256 256
256 256 256
256 256 256
256 256 256
192 192 192
192 192 192
192 192 192
256 256 256
256 256 256
256 256 256
256 256 256
256 256 256
192 192 192
192 192 192
192 192 192
192 192 192
192 192 192
192 192 192
192 192 192
192 192 192
192 192 192
192 192 192
192 192 192
192 192 192
192 192 192
192 192 192
192 192 192
192 192 192
192 192 192
192 192 192
192 192 192
192 192 192
128 128 128
128 128 128
128 128 128
128 128 128
128 128 128
128 128 128
192 192 192
192 192 192
192 192 192
192 192 192
192 192 192
192 192 192
192 192 192
192 192 192
192 192 192
192 192 192
192 192 192
192 192 192
192 192 192
192 192 192
192 192 192
192 192 192
192 192 192
192 192 192
192 192 192
192 192 192
128 128 128
128 128 128
128 128 128
192 192 192
128 128 128
128 128 128
128 128 128
128 128 128
128 128 128
128 128 128
128 128 128
128 128 128
128 128 128
128 128 128
128 128 128
128 128 128
128 128 128
128 128 128
128 128 128
128 128 128
128 128 128
128 128 128
128 128 128
128 128 128
128 128 128
128 128 128
128 128 128
128 128 128
128 128 128
128 128 128
128 128 128
128 128 128
128 128 128
128 128 128
128 128 128
128 128 128
128 128 128
128 128 128
128 128 128
128 128 128
128 128 128
128 128 128
128 128 128
128 128 128
128 128 128
128 128 128
128 128 128
128 128 128
128 128 128
128 128 128
128 128 128
128 128 128
128 128 128
128 128 128
128 128 128
128 128 128
0 0 0
64 64 64
0 0 0
64 64 64
64 64 64
64 64 64
128 128 128
64 64 64
64 64 64
128 128 128
64 64 64
64 64 64
64 64 64
64 64 64
128 128 128
192 192 192
192 192 192
192 192 192
192 192 192
192 192 192
192 192 192
192 192 192
192 192 192
192 192 192
192 192 192
192 192 192
192 192 192
192 192 192
192 192 192
192 192 192
192 192 192
192 192 192
192 192 192
192 192 192
192 192 192
192 192 192
192 192 192
192 192 192
192 192 192
192 192 192
192 192 192
192 192 192
192 192 192
192 192 192
192 192 192
192 192 192
192 192 192
192 192 192
192 192 192
192 192 192
192 192 192
192 192 192
192 192 192
192 192 192
192 192 192
192 192 192
192 192 192
192 192 192
192 192 192
192 192 192
192 192 192
192 192 192
192 192 192
192 192 192
192 192 192
192 192 192
256 256 256
192 192 192
192 192 192
192 192 192
192 192 192
192 192 192
256 256 256
192 192 192
256 256 256
256 256 256
192 192 192
192 192 192
192 192 192
128 128 128
128 128 128
128 128 128
128 128 128
128 128 128
128 128 128
128 128 128
128 128 128
192 192 192
192 192 192
192 192 192
192 192 192
192 192 192
192 192 192
192 192 192
192 192 192
192 192 192
192 192 192
192 192 192
128 128 128
128 128 128
128 128 128
128 128 128
128 128 128
128 128 128
192 192 192
192 192 192
192 192 192
192 192 192
192 192 192
192 192 192
192 192 192
192 192 192
192 192 192
192 192 192
192 192 192
192 192 192
192 192 192
192 192 192
192 192 192
192 192 192
192 192 192
192 192 192
192 192 192
128 128 128
192 192 192
128 128 128
128 128 128
128 128 128
128 128 128
128 128 128
128 128 128
128 128 128
128 128 128
128 128 128
128 128 128
128 128 128
128 128 128
128 128 128
128 128 128
128 128 128
128 128 128
128 128 128
128 128 128
128 128 128
128 128 128
128 128 128
128 128 128
128 128 128
128 128 128
128 128 128
128 128 128
128 128 128
128 128 128
128 128 128
128 128 128
128 128 128
128 128 128
128 128 128
128 128 128
128 128 128
128 128 128
64 64 64
128 128 128
128 128 128
128 128 128
128 128 128
128 128 128
128 128 128
128 128 128
128 128 128
128 128 128
128 128 128
128 128 128
128 128 128
128 128 128
128 128 128
128 128 128
128 128 128
64 64 64
64 64 64
64 64 64
64 64 64
64 64 64
0 0 0
64 64 64
64 64 64
64 64 64
64 64 64
128 128 128
64 64 64
64 64 64
64 64 64
64 64 64
64 64 64
128 128 128
192 192 192
192 192 192
192 192 192
192 192 192
192 192 192
192 192 192
192 192 192
192 192 192
192 192 192
192 192 192
192 192 192
192 192 192
192 192 192
192 192 192
192 192 192
192 192 192
192 192 192
192 192 192
192 192 192
192 192 192
192 192 192
192 192 192
192 192 192
192 192 192
192 192 192
192 192 192
192 192 192
192 192 192
192 192 192
192 192 192
192 192 192
192 192 192
192 192 192
192 192 192
192 192 192
192 192 192
192 192 192
192 192 192
192 192 192
192 192 192
192 192 192
192 192 192
192 192 192
192 192 192
192 192 192
192 192 192
192 192 192
192 192 192
192 192 192
192 192 192
192 192 192
256 256 256
192 192 192
192 192 192
192 192 192
192 192 192
192 192 192
192 192 192
256 256 256
192 192 192
192 192 192
192 192 192
192 192 192
128 128 128
128 128 128
128 128 128
128 128 128
128 128 128
128 128 128
128 128 128
128 128 128
128 128 128
128 128 128
128 128 128
128 128 128
128 128 128
128 128 128
128 128 128
128 128 128
128 128 128
128 128 128
128 128 128
128 128 128
128 128 128
128 128 128
128 128 128
192 192 192
192 192 192
192 192 192
192 192 192
192 192 192
192 192 192
192 192 192
192 192 192
192 192 192
192 192 192
192 192 192
192 192 192
192 192 192
192 192 192
192 192 192
192 192 192
192 192 192
192 192 192
192 192 192
192 192 192
192 192 192
192 192 192
192 192 192
128 128 128
128 128 128
128 128 128
128 128 128
128 128 128
128 128 128
128 128 128
128 128 128
128 128 128
128 128 128
128 128 128
128 128 128
128 128 128
128 128 128
128 128 128
128 128 128
128 128 128
128 128 128
128 128 128
128 128 128
128 128 128
128 128 128
128 128 128
128 128 128
128 128 128
128 128 128
128 128 128
128 128 128
128 128 128
128 128 128
128 128 128
128 128 128
128 128 128
128 128 128
128 128 128
128 128 128
128 128 128
64 64 64
128 128 128
128 128 128
128 128 128
128 128 128
128 128 128
128 128 128
128 128 128
128 128 128
128 128 128
128 128 128
128 128 128
128 128 128
128 128 128
128 128 128
64 64 64
64 64 64
64 64 64
64 64 64
64 64 64
64 64 64
64 64 64
0 0 0
0 0 0
64 64 64
64 64 64
128 128 128
128 128 128
128 128 128
128 128 128
64 64 64
64 64 64
64 64 64
128 128 128
192 192 192
192 192 192
192 192 192
192 192 192
192 192 192
192 192 192
192 192 192
192 192 192
192 192 192
192 192 192
192 192 192
192 192 192
192 192 192
192 192 192
192 192 192
192 192 192
192 192 192
192 192 192
192 192 192
192 192 192
192 192 192
192 192 192
192 192 192
192 192 192
192 192 192
192 192 192
192 192 192
192 192 192
192 192 192
192 192 192
192 192 192
192 192 192
192 192 192
192 192 192
192 192 192
192 192 192
192 192 192
192 192 192
192 192 192
192 192 192
192 192 192
192 192 192
192 192 192
192 192 192
192 192 192
192 192 192
192 192 192
192 192 192
192 192 192
256 256 256
192 192 192
192 192 192
192 192 192
192 192 192
192 192 192
192 192 192
192 192 192
192 192 192
256 256 256
192 192 192
128 128 128
128 128 128
128 128 128
128 128 128
128 128 128
128 128 128
128 128 128
128 128 128
128 128 128
128 128 128
128 128 128
128 128 128
128 128 128
128 128 128
128 128 128
128 128 128
128 128 128
128 128 128
128 128 128
128 128 128
128 128 128
128 128 128
128 128 128
128 128 128
128 128 128
128 128 128
192 192 192
192 192 192
192 192 192
192 192 192
192 192 192
192 192 192
192 192 192
192 192 192
192 192 192
192 192 192
192 192 192
192 192 192
192 192 192
192 192 192
192 192 192
192 192 192
192 192 192
192 192 192
192 192 192
192 192 192
192 192 192
128 128 128
128 128 128
128 128 128
128 128 128
128 128 128
128 128 128
128 128 128
128 128 128
128 128 128
128 128 128
128 128 128
128 128 128
128 128 128
128 128 128
128 128 128
128 128 128
128 128 128
128 128 128
128 128 128
128 128 128
128 128 128
128 128 128
128 128 128
128 128 128
128 128 128
128 128 128
128 128 128
128 128 128
128 128 128
128 128 128
128 128 128
128 128 128
128 128 128
128 128 128
128 128 128
128 128 128
128 128 128
128 128 128
128 128 128
64 64 64
128 128 128
128 128 128
128 128 128
128 128 128
128 128 128
128 128 128
128 128 128
128 128 128
128 128 128
128 128 128
128 128 128
128 128 128
64 64 64
64 64 64
64 64 64
64 64 64
0 0 0
64 64 64
64 64 64
64 64 64
64 64 64
64 64 64
0 0 0
0 0 0
64 64 64
64 64 64
64 64 64
128 128 128
64 64 64
64 64 64
64 64 64
64 64 64
192 192 192
192 192 192
192 192 192
192 192 192
192 192 192
192 192 192
192 192 192
192 192 192
192 192 192
192 192 192
192 192 192
192 192 192
192 192 192
192 192 192
192 192 192
192 192 192
192 192 192
192 192 192
192 192 192
192 192 192
192 192 192
192 192 192
192 192 192
192 192 192
192 192 192
192 192 192
192 192 192
192 192 192
192 192 192
192 192 192
192 192 192
192 192 192
192 192 192
192 192 192
192 192 192
192 192 192
192 192 192
192 192 192
192 192 192
192 192 192
192 192 192
192 192 192
192 192 192
192 192 192
192 192 192
192 192 192
192 192 192
192 192 192
192 192 192
192 192 192
192 192 192
192 192 192
192 192 192
192 192 192
192 192 192
192 192 192
192 192 192
192 192 192
192 192 192
192 192 192
192 192 192
64 64 64
128 128 128
128 128 128
128 128 128
128 128 128
128 128 128
128 128 128
128 128 128
128 128 128
128 128 128
128 128 128
128 128 128
128 128 128
64 64 64
64 64 64
64 64 64
64 64 64
0 0 0
64 64 64
64 64 64
64 64 64
128 128 128
128 128 128
128 128 128
128 128 128
128 128 128
192 192 192
192 192 192
192 192 192
192 192 192
192 192 192
192 192 192
192 192 192
192 192 192
192 192 192
192 192 192
192 192 192
192 192 192
192 192 192
192 192 192
192 192 192
192 192 192
192 192 192
192 192 192
192 192 192
192 192 192
192 192 192
192 192 192
128 128 128
128 128 128
128 128 128
128 128 128
128 128 128
128 128 128
128 128 128
128 128 128
128 128 128
128 128 128
128 128 128
128 128 128
128 128 128
128 128 128
128 128 128
128 128 128
128 128 128
128 128 128
128 128 128
128 128 128
128 128 128
128 128 128
128 128 128
128 128 128
128 128 128
128 128 128
128 128 128
128 128 128
128 128 128
128 128 128
128 128 128
128 128 128
128 128 128
128 128 128
128 128 128
128 128 128
128 128 128
128 128 128
64 64 64
128 128 128
64 64 64
64 64 64
128 128 128
128 128 128
128 128 128
128 128 128
128 128 128
128 128 128
128 128 128
64 64 64
64 64 64
64 64 64
64 64 64
64 64 64
64 64 64
64 64 64
64 64 64
64 64 64
64 64 64
64 64 64
64 64 64
0 0 0
0 0 0
0 0 0
0 0 0
64 64 64
64 64 64
64 64 64
64 64 64
64 64 64
128 128 128
192 192 192
192 192 192
192 192 192
192 192 192
192 192 192
192 192 192
192 192 192
192 192 192
192 192 192
192 192 192
192 192 192
192 192 192
192 192 192
192 192 192
192 192 192
192 192 192
192 192 192
192 192 192
192 192 192
192 192 192
192 192 192
192 192 192
192 192 192
192 192 192
192 192 192
192 192 192
192 192 192
192 192 192
192 192 192
192 192 192
192 192 192
192 192 192
192 192 192
192 192 192
192 192 192
192 192 192
192 192 192
192 192 192
192 192 192
192 192 192
192 192 192
192 192 192
192 192 192
192 192 192
192 192 192
192 192 192
192 192 192
192 192 192
192 192 192
192 192 192
192 192 192
192 192 192
192 192 192
192 192 192
192 192 192
192 192 192
192 192 192
192 192 192
192 192 192
192 192 192
192 192 192
192 192 192
64 64 64
128 128 128
128 128 128
128 128 128
128 128 128
128 128 128
128 128 128
128 128 128
128 128 128
128 128 128
64 64 64
0 0 0
0 0 0
64 64 64
64 64 64
64 64 64
64 64 64
64 64 64
64 64 64
64 64 64
128 128 128
128 128 128
128 128 128
64 64 64
128 128 128
192 192 192
192 192 192
192 192 192
192 192 192
192 192 192
192 192 192
192 192 192
192 192 192
192 192 192
192 192 192
192 192 192
192 192 192
192 192 192
192 192 192
192 192 192
192 192 192
192 192 192
192 192 192
192 192 192
192 192 192
192 192 192
128 128 128
128 128 128
128 128 128
128 128 128
128 128 128
128 128 128
128 128 128
128 128 128
128 128 128
128 128 128
128 128 128
128 128 128
128 128 128
128 128 128
128 128 128
128 128 128
128 128 128
128 128 128
128 128 128
128 128 128
128 128 128
128 128 128
128 128 128
128 128 128
128 128 128
128 128 128
128 128 128
128 128 128
128 128 128
128 128 128
128 128 128
128 128 128
128 128 128
128 128 128
128 128 128
128 128 128
128 128 128
128 128 128
128 128 128
128 128 128
64 64 64
128 128 128
128 128 128
128 128 128
128 128 128
128 128 128
128 128 128
128 128 128
128 128 128
64 64 64
64 64 64
64 64 64
64 64 64
64 64 64
64 64 64
0 0 0
64 64 64
64 64 64
64 64 64
128 128 128
64 64 64
64 64 64
0 0 0
0 0 0
0 0 0
64 64 64
64 64 64
128 128 128
64 64 64
64 64 64
128 128 128
192 192 192
192 192 192
192 192 192
192 192 192
192 192 192
192 192 192
192 192 192
192 192 192
192 192 192
192 192 192
192 192 192
192 192 192
192 192 192
192 192 192
192 192 192
192 192 192
192 192 192
192 192 192
192 192 192
192 192 192
192 192 192
192 192 192
192 192 192
192 192 192
192 192 192
192 192 192
192 192 192
192 192 192
192 192 192
192 192 192
192 192 192
192 192 192
192 192 192
192 192 192
192 192 192
192 192 192
192 192 192
192 192 192
192 192 192
192 192 192
192 192 192
192 192 192
192 192 192
192 192 192
192 192 192
192 192 192
192 192 192
192 192 192
192 192 192
192 192 192
192 192 192
192 192 192
192 192 192
192 192 192
192 192 192
192 192 192
192 192 192
192 192 192
192 192 192
192 192 192
192 192 192
192 192 192
192 192 192
128 128 128
128 128 128
128 128 128
128 128 128
128 128 128
128 128 128
128 128 128
128 128 128
128 128 128
128 128 128
0 0 0
64 64 64
64 64 64
64 64 64
64 64 64
0 0 0
0 0 0
0 0 0
0 0 0
64 64 64
128 128 128
128 128 128
128 128 128
64 64 64
128 128 128
192 192 192
192 192 192
192 192 192
192 192 192
192 192 192
192 192 192
192 192 192
192 192 192
192 192 192
192 192 192
192 192 192
192 192 192
192 192 192
192 192 192
192 192 192
192 192 192
192 192 192
192 192 192
192 192 192
192 192 192
128 128 128
128 128 128
128 128 128
128 128 128
128 128 128
128 128 128
128 128 128
128 128 128
128 128 128
128 128 128
128 128 128
128 128 128
128 128 128
128 128 128
128 128 128
128 128 128
128 128 128
128 128 128
128 128 128
128 128 128
128 128 128
128 128 128
128 128 128
128 128 128
128 128 128
128 128 128
128 128 128
128 128 128
128 128 128
128 128 128
128 128 128
128 128 128
128 128 128
128 128 128
128 128 128
128 128 128
128 128 128
128 128 128
128 128 128
128 128 128
128 128 128
64 64 64
64 64 64
128 128 128
128 128 128
128 128 128
128 128 128
128 128 128
64 64 64
64 64 64
64 64 64
64 64 64
0 0 0
0 0 0
64 64 64
64 64 64
64 64 64
64 64 64
128 128 128
128 128 128
128 128 128
0 0 0
0 0 0
0 0 0
64 64 64
64 64 64
64 64 64
64 64 64
128 128 128
64 64 64
192 192 192
192 192 192
192 192 192
192 192 192
192 192 192
192 192 192
192 192 192
192 192 192
192 192 192
192 192 192
192 192 192
192 192 192
192 192 192
192 192 192
192 192 192
192 192 192
192 192 192
192 192 192
192 192 192
192 192 192
192 192 192
192 192 192
192 192 192
192 192 192
192 192 192
192 192 192
192 192 192
192 192 192
192 192 192
192 192 192
192 192 192
192 192 192
192 192 192
192 192 192
192 192 192
192 192 192
192 192 192
192 192 192
192 192 192
192 192 192
192 192 192
192 192 192
192 192 192
192 192 192
192 192 192
192 192 192
192 192 192
192 192 192
192 192 192
192 192 192
192 192 192
192 192 192
192 192 192
192 192 192
192 192 192
192 192 192
192 192 192
192 192 192
192 192 192
192 192 192
192 192 192
192 192 192
192 192 192
192 192 192
192 192 192
192 192 192
128 128 128
128 128 128
128 128 128
128 128 128
128 128 128
128 128 128
128 128 128
128 128 128
128 128 128
64 64 64
128 128 128
128 128 128
128 128 128
128 128 128
64 64 64
0 0 0
0 0 0
64 64 64
128 128 128
128 128 128
128 128 128
64 64 64
64 64 64
128 128 128
192 192 192
192 192 192
192 192 192
192 192 192
192 192 192
192 192 192
192 192 192
192 192 192
192 192 192
192 192 192
192 192 192
192 192 192
192 192 192
192 192 192
192 192 192
192 192 192
192 192 192
192 192 192
192 192 192
192 192 192
192 192 192
128 128 128
128 128 128
128 128 128
128 128 128
128 128 128
128 128 128
128 128 128
128 128 128
128 128 128
128 128 128
128 128 128
128 128 128
128 128 128
128 128 128
128 128 128
128 128 128
128 128 128
128 128 128
128 128 128
128 128 128
128 128 128
128 128 128
128 128 128
128 128 128
128 128 128
128 128 128
128 128 128
128 128 128
128 128 128
128 128 128
128 128 128
128 128 128
128 128 128
128 128 128
128 128 128
128 128 128
128 128 128
128 128 128
128 128 128
128 128 128
128 128 128
64 64 64
64 64 64
128 128 128
128 128 128
64 64 64
64 64 64
64 64 64
64 64 64
64 64 64
0 0 0
64 64 64
64 64 64
128 128 128
128 128 128
128 128 128
128 128 128
64 64 64
128 128 128
128 128 128
0 0 0
64 64 64
64 64 64
64 64 64
64 64 64
64 64 64
128 128 128
64 64 64
192 192 192
256 256 256
192 192 192
192 192 192
192 192 192
192 192 192
192 192 192
192 192 192
192 192 192
192 192 192
192 192 192
192 192 192
192 192 192
192 192 192
192 192 192
192 192 192
192 192 192
192 192 192
192 192 192
192 192 192
192 192 192
192 192 192
192 192 192
192 192 192
192 192 192
192 192 192
192 192 192
192 192 192
192 192 192
192 192 192
192 192 192
192 192 192
192 192 192
192 192 192
192 192 192
192 192 192
192 192 192
192 192 192
192 192 192
192 192 192
192 192 192
192 192 192
192 192 192
192 192 192
192 192 192
192 192 192
192 192 192
192 192 192
192 192 192
192 192 192
192 192 192
192 192 192
192 192 192
192 192 192
192 192 192
192 192 192
192 192 192
192 192 192
192 192 192
192 192 192
192 192 192
192 192 192
192 192 192
192 192 192
192 192 192
192 192 192
192 192 192
128 128 128
128 128 128
64 64 64
128 128 128
128 128 128
128 128 128
128 128 128
128 128 128
128 128 128
128 128 128
128 128 128
128 128 128
128 128 128
128 128 128
128 128 128
128 128 128
128 128 128
128 128 128
128 128 128
128 128 128
64 64 64
64 64 64
64 64 64
128 128 128
192 192 192
192 192 192
192 192 192
192 192 192
192 192 192
192 192 192
192 192 192
192 192 192
192 192 192
192 192 192
192 192 192
192 192 192
192 192 192
192 192 192
192 192 192
192 192 192
192 192 192
192 192 192
192 192 192
192 192 192
128 128 128
128 128 128
128 128 128
128 128 128
128 128 128
128 128 128
128 128 128
128 128 128
128 128 128
128 128 128
128 128 128
128 128 128
128 128 128
128 128 128
128 128 128
128 128 128
128 128 128
128 128 128
128 128 128
128 128 128
128 128 128
128 128 128
128 128 128
128 128 128
128 128 128
128 128 128
128 128 128
128 128 128
128 128 128
128 128 128
128 128 128
128 128 128
128 128 128
128 128 128
128 128 128
128 128 128
128 128 128
128 128 128
128 128 128
128 128 128
128 128 128
128 128 128
64 64 64
128 128 128
128 128 128
128 128 128
64 64 64
64 64 64
64 64 64
0 0 0
0 0 0
128 128 128
128 128 128
128 128 128
128 128 128
128 128 128
128 128 128
128 128 128
64 64 64
128 128 128
128 128 128
0 0 0
64 64 64
64 64 64
64 64 64
64 64 64
64 64 64
128 128 128
64 64 64
192 192 192
192 192 192
192 192 192
192 192 192
192 192 192
192 192 192
192 192 192
192 192 192
192 192 192
192 192 192
192 192 192
192 192 192
192 192 192
192 192 192
192 192 192
192 192 192
192 192 192
192 192 192
192 192 192
192 192 192
192 192 192
192 192 192
192 192 192
192 192 192
192 192 192
192 192 192
192 192 192
192 192 192
192 192 192
192 192 192
192 192 192
192 192 192
192 192 192
192 192 192
192 192 192
192 192 192
192 192 192
192 192 192
192 192 192
192 192 192
192 192 192
192 192 192
192 192 192
192 192 192
192 192 192
192 192 192
192 192 192
192 192 192
192 192 192
192 192 192
192 192 192
192 192 192
192 192 192
192 192 192
192 192 192
192 192 192
192 192 192
192 192 192
192 192 192
192 192 192
192 192 192
192 192 192
192 192 192
192 192 192
192 192 192
192 192 192
192 192 192
192 192 192
128 128 128
64 64 64
64 64 64
64 64 64
128 128 128
128 128 128
128 128 128
128 128 128
128 128 128
128 128 128
128 128 128
128 128 128
128 128 128
128 128 128
128 128 128
128 128 128
128 128 128
128 128 128
128 128 128
64 64 64
64 64 64
128 128 128
128 128 128
192 192 192
192 192 192
192 192 192
192 192 192
192 192 192
192 192 192
192 192 192
192 192 192
192 192 192
192 192 192
192 192 192
192 192 192
192 192 192
192 192 192
192 192 192
192 192 192
192 192 192
192 192 192
192 192 192
128 128 128
128 128 128
128 128 128
128 128 128
128 128 128
128 128 128
128 128 128
128 128 128
128 128 128
128 128 128
128 128 128
128 128 128
128 128 128
128 128 128
128 128 128
128 128 128
128 128 128
128 128 128
128 128 128
128 128 128
128 128 128
128 128 128
128 128 128
128 128 128
128 128 128
128 128 128
128 128 128
128 128 128
128 128 128
128 128 128
128 128 128
128 128 128
128 128 128
128 128 128
128 128 128
128 128 128
128 128 128
128 128 128
128 128 128
128 128 128
128 128 128
128 128 128
128 128 128
128 128 128
128 128 128
128 128 128
128 128 128
64 64 64
64 64 64
64 64 64
64 64 64
128 128 128
128 128 128
64 64 64
64 64 64
64 64 64
64 64 64
64 64 64
64 64 64
64 64 64
128 128 128
128 128 128
0 0 0
64 64 64
64 64 64
64 64 64
64 64 64
128 128 128
128 128 128
128 128 128
192 192 192
192 192 192
192 192 192
192 192 192
192 192 192
192 192 192
192 192 192
192 192 192
192 192 192
192 192 192
192 192 192
192 192 192
192 192 192
192 192 192
192 192 192
192 192 192
192 192 192
192 192 192
192 192 192
192 192 192
192 192 192
192 192 192
192 192 192
192 192 192
192 192 192
192 192 192
192 192 192
192 192 192
192 192 192
192 192 192
192 192 192
192 192 192
192 192 192
192 192 192
192 192 192
192 192 192
192 192 192
192 192 192
192 192 192
192 192 192
192 192 192
192 192 192
192 192 192
192 192 192
192 192 192
192 192 192
192 192 192
192 192 192
192 192 192
192 192 192
192 192 192
192 192 192
192 192 192
192 192 192
192 192 192
192 192 192
192 192 192
192 192 192
192 192 192
192 192 192
192 192 192
192 192 192
192 192 192
192 192 192
192 192 192
192 192 192
192 192 192
192 192 192
128 128 128
128 128 128
64 64 64
0 0 0
0 0 0
64 64 64
128 128 128
128 128 128
128 128 128
128 128 128
128 128 128
128 128 128
128 128 128
64 64 64
128 128 128
128 128 128
128 128 128
128 128 128
128 128 128
128 128 128
128 128 128
128 128 128
128 128 128
192 192 192
192 192 192
192 192 192
192 192 192
192 192 192
192 192 192
192 192 192
192 192 192
192 192 192
192 192 192
192 192 192
192 192 192
192 192 192
192 192 192
192 192 192
192 192 192
192 192 192
192 192 192
192 192 192
192 192 192
128 128 128
128 128 128
128 128 128
128 128 128
128 128 128
128 128 128
128 128 128
128 128 128
128 128 128
128 128 128
128 128 128
128 128 128
128 128 128
128 128 128
128 128 128
128 128 128
128 128 128
128 128 128
128 128 128
128 128 128
128 128 128
128 128 128
128 128 128
128 128 128
128 128 128
128 128 128
128 128 128
128 128 128
128 128 128
128 128 128
128 128 128
128 128 128
128 128 128
128 128 128
128 128 128
128 128 128
128 128 128
128 128 128
128 128 128
128 128 128
128 128 128
128 128 128
128 128 128
128 128 128
128 128 128
128 128 128
64 64 64
64 64 64
64 64 64
128 128 128
64 64 64
64 64 64
64 64 64
64 64 64
64 64 64
64 64 64
64 64 64
64 64 64
128 128 128
128 128 128
128 128 128
64 64 64
64 64 64
64 64 64
64 64 64
128 128 128
128 128 128
64 64 64
128 128 128
192 192 192
192 192 192
192 192 192
192 192 192
192 192 192
192 192 192
192 192 192
192 192 192
192 192 192
192 192 192
192 192 192
192 192 192
192 192 192
192 192 192
192 192 192
192 192 192
192 192 192
192 192 192
192 192 192
192 192 192
192 192 192
192 192 192
192 192 192
192 192 192
192 192 192
192 192 192
192 192 192
192 192 192
192 192 192
192 192 192
192 192 192
192 192 192
192 192 192
192 192 192
192 192 192
192 192 192
192 192 192
192 192 192
192 192 192
192 192 192
192 192 192
192 192 192
192 192 192
192 192 192
192 192 192
192 192 192
192 192 192
192 192 192
192 192 192
192 192 192
192 192 192
192 192 192
192 192 192
192 192 192
192 192 192
192 192 192
192 192 192
192 192 192
192 192 192
192 192 192
192 192 192
192 192 192
192 192 192
192 192 192
192 192 192
192 192 192
192 192 192
192 192 192
192 192 192
192 192 192
192 192 192
128 128 128
64 64 64
128 128 128
128 128 128
128 128 128
128 128 128
128 128 128
128 128 128
64 64 64
64 64 64
64 64 64
128 128 128
128 128 128
128 128 128
128 128 128
128 128 128
128 128 128
128 128 128
128 128 128
128 128 128
192 192 192
192 192 192
192 192 192
192 192 192
192 192 192
192 192 192
192 192 192
192 192 192
192 192 192
192 192 192
192 192 192
192 192 192
192 192 192
192 192 192
192 192 192
192 192 192
192 192 192
192 192 192
192 192 192
192 192 192
192 192 192
128 128 128
128 128 128
128 128 128
128 128 128
128 128 128
128 128 128
128 128 128
128 128 128
128 128 128
128 128 128
128 128 128
128 128 128
128 128 128
128 128 128
128 128 128
128 128 128
128 128 128
128 128 128
128 128 128
128 128 128
128 128 128
128 128 128
128 128 128
128 128 128
128 128 128
128 128 128
128 128 128
128 128 128
128 128 128
128 128 128
128 128 128
128 128 128
128 128 128
128 128 128
128 128 128
128 128 128
128 128 128
128 128 128
128 128 128
128 128 128
128 128 128
128 128 128
128 128 128
128 128 128
128 128 128
64 64 64
64 64 64
64 64 64
64 64 64
64 64 64
64 64 64
64 64 64
64 64 64
64 64 64
64 64 64
128 128 128
64 64 64
64 64 64
128 128 128
128 128 128
64 64 64
64 64 64
64 64 64
64 64 64
128 128 128
64 64 64
128 128 128
192 192 192
192 192 192
192 192 192
192 192 192
192 192 192
192 192 192
192 192 192
192 192 192
192 192 192
192 192 192
192 192 192
192 192 192
192 192 192
192 192 192
192 192 192
192 192 192
192 192 192
192 192 192
192 192 192
192 192 192
192 192 192
192 192 192
192 192 192
192 192 192
192 192 192
192 192 192
192 192 192
192 192 192
192 192 192
192 192 192
192 192 192
192 192 192
192 192 192
192 192 192
192 192 192
192 192 192
192 192 192
192 192 192
192 192 192
192 192 192
192 192 192
192 192 192
192 192 192
192 192 192
192 192 192
192 192 192
192 192 192
192 192 192
192 192 192
192 192 192
192 192 192
192 192 192
192 192 192
192 192 192
192 192 192
192 192 192
192 192 192
192 192 192
192 192 192
192 192 192
192 192 192
192 192 192
192 192 192
192 192 192
192 192 192
192 192 192
192 192 192
192 192 192
192 192 192
192 192 192
256 256 256
256 256 256
256 256 256
128 128 128
128 128 128
128 128 128
128 128 128
128 128 128
128 128 128
128 128 128
64 64 64
64 64 64
64 64 64
128 128 128
128 128 128
128 128 128
128 128 128
128 128 128
128 128 128
128 128 128
128 128 128
192 192 192
192 192 192
192 192 192
192 192 192
192 192 192
192 192 192
192 192 192
192 192 192
192 192 192
192 192 192
192 192 192
192 192 192
192 192 192
192 192 192
192 192 192
192 192 192
192 192 192
192 192 192
192 192 192
192 192 192
192 192 192
128 128 128
128 128 128
128 128 128
128 128 128
128 128 128
128 128 128
128 128 128
128 128 128
128 128 128
128 128 128
128 128 128
128 128 128
128 128 128
128 128 128
128 128 128
128 128 128
128 128 128
128 128 128
128 128 128
128 128 128
128 128 128
128 128 128
128 128 128
128 128 128
128 128 128
128 128 128
128 128 128
128 128 128
128 128 128
128 128 128
128 128 128
128 128 128
128 128 128
128 128 128
128 128 128
128 128 128
128 128 128
128 128 128
128 128 128
128 128 128
128 128 128
128 128 128
128 128 128
128 128 128
128 128 128
128 128 128
64 64 64
64 64 64
64 64 64
64 64 64
64 64 64
64 64 64
64 64 64
64 64 64
64 64 64
64 64 64
128 128 128
128 128 128
64 64 64
128 128 128
128 128 128
64 64 64
64 64 64
64 64 64
64 64 64
128 128 128
128 128 128
192 192 192
192 192 192
192 192 192
192 192 192
192 192 192
192 192 192
192 192 192
192 192 192
192 192 192
192 192 192
192 192 192
192 192 192
192 192 192
192 192 192
192 192 192
192 192 192
192 192 192
192 192 192
192 192 192
192 192 192
192 192 192
192 192 192
192 192 192
192 192 192
192 192 192
192 192 192
192 192 192
192 192 192
192 192 192
192 192 192
192 192 192
192 192 192
192 192 192
192 192 192
192 192 192
192 192 192
192 192 192
192 192 192
192 192 192
192 192 192
192 192 192
192 192 192
192 192 192
192 192 192
192 192 192
192 192 192
192 192 192
192 192 192
192 192 192
192 192 192
192 192 192
192 192 192
192 192 192
192 192 192
192 192 192
192 192 192
192 192 192
128 128 128
192 192 192
192 192 192
192 192 192
192 192 192
192 192 192
192 192 192
192 192 192
192 192 192
192 192 192
192 192 192
192 192 192
192 192 192
192 192 192
256 256 256
256 256 256
256 256 256
128 128 128
128 128 128
128 128 128
128 128 128
128 128 128
128 128 128
64 64 64
64 64 64
64 64 64
64 64 64
64 64 64
64 64 64
128 128 128
128 128 128
128 128 128
128 128 128
128 128 128
128 128 128
128 128 128
192 192 192
192 192 192
192 192 192
192 192 192
192 192 192
192 192 192
192 192 192
192 192 192
192 192 192
192 192 192
192 192 192
192 192 192
192 192 192
192 192 192
192 192 192
192 192 192
192 192 192
192 192 192
192 192 192
192 192 192
128 128 128
128 128 128
128 128 128
128 128 128
128 128 128
128 128 128
128 128 128
128 128 128
128 128 128
128 128 128
128 128 128
128 128 128
128 128 128
128 128 128
128 128 128
128 128 128
128 128 128
128 128 128
128 128 128
128 128 128
128 128 128
128 128 128
128 128 128
128 128 128
128 128 128
128 128 128
128 128 128
128 128 128
128 128 128
128 128 128
128 128 128
128 128 128
128 128 128
128 128 128
128 128 128
128 128 128
128 128 128
128 128 128
128 128 128
128 128 128
128 128 128
128 128 128
128 128 128
128 128 128
128 128 128
128 128 128
64 64 64
64 64 64
64 64 64
64 64 64
64 64 64
128 128 128
128 128 128
128 128 128
128 128 128
128 128 128
128 128 128
128 128 128
128 128 128
128 128 128
128 128 128
64 64 64
64 64 64
64 64 64
64 64 64
64 64 64
128 128 128
192 192 192
192 192 192
192 192 192
192 192 192
192 192 192
192 192 192
192 192 192
192 192 192
192 192 192
192 192 192
192 192 192
192 192 192
192 192 192
192 192 192
192 192 192
192 192 192
192 192 192
192 192 192
192 192 192
192 192 192
192 192 192
192 192 192
192 192 192
192 192 192
192 192 192
192 192 192
192 192 192
192 192 192
192 192 192
192 192 192
192 192 192
192 192 192
192 192 192
192 192 192
192 192 192
192 192 192
192 192 192
192 192 192
192 192 192
192 192 192
192 192 192
192 192 192
192 192 192
192 192 192
192 192 192
192 192 192
192 192 192
192 192 192
192 192 192
192 192 192
192 192 192
192 192 192
192 192 192
192 192 192
192 192 192
192 192 192
192 192 192
128 128 128
192 192 192
192 192 192
192 192 192
192 192 192
192 192 192
192 192 192
192 192 192
192 192 192
192 192 192
192 192 192
192 192 192
192 192 192
192 192 192
256 256 256
256 256 256
192 192 192
128 128 128
128 128 128
128 128 128
128 128 128
128 128 128
128 128 128
64 64 64
64 64 64
64 64 64
64 64 64
64 64 64
64 64 64
64 64 64
128 128 128
128 128 128
128 128 128
128 128 128
192 192 192
128 128 128
192 192 192
192 192 192
192 192 192
192 192 192
192 192 192
192 192 192
192 192 192
192 192 192
192 192 192
192 192 192
192 192 192
192 192 192
192 192 192
192 192 192
192 192 192
192 192 192
192 192 192
192 192 192
192 192 192
192 192 192
128 128 128
128 128 128
128 128 128
128 128 128
128 128 128
128 128 128
128 128 128
128 128 128
128 128 128
128 128 128
128 128 128
128 128 128
128 128 128
128 128 128
128 128 128
128 128 128
128 128 128
128 128 128
128 128 128
128 128 128
128 128 128
128 128 128
128 128 128
128 128 128
128 128 128
128 128 128
128 128 128
128 128 128
128 128 128
128 128 128
128 128 128
128 128 128
128 128 128
128 128 128
128 128 128
128 128 128
128 128 128
128 128 128
128 128 128
128 128 128
128 128 128
128 128 128
128 128 128
128 128 128
128 128 128
128 128 128
64 64 64
64 64 64
128 128 128
128 128 128
128 128 128
128 128 128
128 128 128
128 128 128
64 64 64
64 64 64
64 64 64
128 128 128
128 128 128
64 64 64
128 128 128
128 128 128
64 64 64
64 64 64
64 64 64
64 64 64
128 128 128
192 192 192
192 192 192
192 192 192
192 192 192
192 192 192
192 192 192
192 192 192
192 192 192
192 192 192
192 192 192
192 192 192
192 192 192
192 192 192
192 192 192
192 192 192
192 192 192
192 192 192
192 192 192
192 192 192
192 192 192
192 192 192
192 192 192
192 192 192
192 192 192
192 192 192
192 192 192
192 192 192
192 192 192
192 192 192
192 192 192
192 192 192
192 192 192
192 192 192
192 192 192
192 192 192
192 192 192
192 192 192
192 192 192
192 192 192
192 192 192
192 192 192
192 192 192
192 192 192
192 192 192
192 192 192
192 192 192
192 192 192
192 192 192
192 192 192
192 192 192
192 192 192
192 192 192
192 192 192
192 192 192
192 192 192
192 192 192
192 192 192
192 192 192
128 128 128
192 192 192
192 192 192
192 192 192
192 192 192
192 192 192
192 192 192
192 192 192
192 192 192
192 192 192
192 192 192
192 192 192
192 192 192
256 256 256
256 256 256
192 192 192
192 192 192
192 192 192
128 128 128
64 64 64
128 128 128
64 64 64
64 64 64
128 128 128
128 128 128
128 128 128
128 128 128
128 128 128
128 128 128
128 128 128
128 128 128
192 192 192
192 192 192
192 192 192
192 192 192
192 192 192
192 192 192
192 192 192
192 192 192
192 192 192
192 192 192
192 192 192
192 192 192
192 192 192
192 192 192
192 192 192
192 192 192
192 192 192
192 192 192
192 192 192
192 192 192
192 192 192
192 192 192
192 192 192
128 128 128
128 128 128
128 128 128
128 128 128
128 128 128
128 128 128
128 128 128
128 128 128
128 128 128
128 128 128
128 128 128
128 128 128
128 128 128
128 128 128
128 128 128
128 128 128
128 128 128
128 128 128
128 128 128
128 128 128
128 128 128
128 128 128
128 128 128
128 128 128
128 128 128
128 128 128
128 128 128
128 128 128
128 128 128
128 128 128
128 128 128
128 128 128
128 128 128
128 128 128
128 128 128
128 128 128
128 128 128
128 128 128
128 128 128
128 128 128
128 128 128
128 128 128
128 128 128
128 128 128
128 128 128
128 128 128
64 64 64
64 64 64
64 64 64
128 128 128
128 128 128
128 128 128
128 128 128
64 64 64
64 64 64
0 0 0
0 0 0
64 64 64
128 128 128
128 128 128
128 128 128
128 128 128
128 128 128
64 64 64
64 64 64
64 64 64
64 64 64
128 128 128
192 192 192
192 192 192
192 192 192
192 192 192
192 192 192
192 192 192
192 192 192
192 192 192
192 192 192
192 192 192
192 192 192
192 192 192
192 192 192
192 192 192
192 192 192
192 192 192
192 192 192
192 192 192
192 192 192
192 192 192
192 192 192
192 192 192
192 192 192
192 192 192
192 192 192
192 192 192
192 192 192
192 192 192
192 192 192
192 192 192
192 192 192
192 192 192
192 192 192
192 192 192
192 192 192
192 192 192
192 192 192
192 192 192
192 192 192
192 192 192
192 192 192
192 192 192
192 192 192
192 192 192
192 192 192
192 192 192
192 192 192
192 192 192
192 192 192
192 192 192
192 192 192
192 192 192
192 192 192
192 192 192
192 192 192
192 192 192
192 192 192
192 192 192
128 128 128
192 192 192
192 192 192
192 192 192
192 192 192
192 192 192
192 192 192
192 192 192
192 192 192
192 192 192
192 192 192
192 192 192
192 192 192
256 256 256
256 256 256
256 256 256
192 192 192
192 192 192
128 128 128
128 128 128
64 64 64
128 128 128
128 128 128
128 128 128
128 128 128
128 128 128
128 128 128
128 128 128
128 128 128
128 128 128
128 128 128
128 128 128
128 128 128
192 192 192
192 192 192
192 192 192
192 192 192
192 192 192
192 192 192
192 192 192
192 192 192
192 192 192
192 192 192
192 192 192
192 192 192
192 192 192
192 192 192
192 192 192
192 192 192
192 192 192
192 192 192
192 192 192
192 192 192
192 192 192
128 128 128
128 128 128
128 128 128
128 128 128
128 128 128
128 128 128
128 128 128
128 128 128
128 128 128
128 128 128
128 128 128
128 128 128
128 128 128
128 128 128
128 128 128
128 128 128
128 128 128
128 128 128
128 128 128
128 128 128
128 128 128
128 128 128
128 128 128
128 128 128
128 128 128
128 128 128
128 128 128
128 128 128
128 128 128
128 128 128
128 128 128
128 128 128
128 128 128
128 128 128
128 128 128
128 128 128
128 128 128
128 128 128
128 128 128
128 128 128
128 128 128
128 128 128
128 128 128
128 128 128
128 128 128
128 128 128
128 128 128
64 64 64
64 64 64
64 64 64
128 128 128
128 128 128
64 64 64
64 64 64
0 0 0
0 0 0
64 64 64
64 64 64
64 64 64
128 128 128
128 128 128
128 128 128
128 128 128
64 64 64
64 64 64
64 64 64
64 64 64
64 64 64
192 192 192
192 192 192
192 192 192
192 192 192
192 192 192
192 192 192
192 192 192
192 192 192
192 192 192
192 192 192
192 192 192
192 192 192
192 192 192
192 192 192
192 192 192
192 192 192
192 192 192
192 192 192
192 192 192
192 192 192
192 192 192
192 192 192
192 192 192
192 192 192
192 192 192
192 192 192
192 192 192
192 192 192
192 192 192
192 192 192
192 192 192
192 192 192
192 192 192
192 192 192
192 192 192
192 192 192
192 192 192
192 192 192
192 192 192
192 192 192
192 192 192
192 192 192
192 192 192
192 192 192
192 192 192
192 192 192
192 192 192
192 192 192
192 192 192
192 192 192
192 192 192
192 192 192
192 192 192
192 192 192
192 192 192
192 192 192
192 192 192
192 192 192
192 192 192
192 192 192
192 192 192
192 192 192
192 192 192
192 192 192
192 192 192
192 192 192
192 192 192
192 192 192
192 192 192
192 192 192
256 256 256
256 256 256
256 256 256
256 256 256
192 192 192
192 192 192
192 192 192
192 192 192
128 128 128
128 128 128
128 128 128
128 128 128
128 128 128
128 128 128
128 128 128
128 128 128
128 128 128
128 128 128
128 128 128
128 128 128
128 128 128
128 128 128
128 128 128
128 128 128
128 128 128
128 128 128
128 128 128
128 128 128
128 128 128
128 128 128
192 192 192
192 192 192
192 192 192
192 192 192
192 192 192
192 192 192
192 192 192
192 192 192
192 192 192
192 192 192
192 192 192
192 192 192
128 128 128
128 128 128
128 128 128
128 128 128
128 128 128
128 128 128
128 128 128
128 128 128
128 128 128
128 128 128
128 128 128
128 128 128
128 128 128
128 128 128
128 128 128
128 128 128
128 128 128
128 128 128
128 128 128
128 128 128
128 128 128
128 128 128
128 128 128
128 128 128
128 128 128
128 128 128
128 128 128
128 128 128
128 128 128
128 128 128
128 128 128
128 128 128
128 128 128
128 128 128
128 128 128
128 128 128
128 128 128
128 128 128
128 128 128
128 128 128
128 128 128
128 128 128
128 128 128
128 128 128
128 128 128
128 128 128
128 128 128
64 64 64
128 128 128
128 128 128
64 64 64
64 64 64
64 64 64
0 0 0
0 0 0
64 64 64
64 64 64
128 128 128
64 64 64
128 128 128
64 64 64
128 128 128
128 128 128
128 128 128
64 64 64
0 0 0
64 64 64
64 64 64
192 192 192
192 192 192
192 192 192
192 192 192
192 192 192
192 192 192
192 192 192
192 192 192
192 192 192
192 192 192
192 192 192
192 192 192
192 192 192
192 192 192
192 192 192
192 192 192
192 192 192
192 192 192
192 192 192
192 192 192
192 192 192
192 192 192
192 192 192
192 192 192
192 192 192
192 192 192
192 192 192
192 192 192
192 192 192
192 192 192
192 192 192
192 192 192
192 192 192
192 192 192
192 192 192
192 192 192
192 192 192
192 192 192
192 192 192
192 192 192
192 192 192
192 192 192
192 192 192
192 192 192
192 192 192
192 192 192
192 192 192
192 192 192
192 192 192
192 192 192
192 192 192
192 192 192
192 192 192
192 192 192
192 192 192
192 192 192
192 192 192
192 192 192
192 192 192
128 128 128
192 192 192
192 192 192
192 192 192
192 192 192
192 192 192
192 192 192
192 192 192
192 192 192
192 192 192
192 192 192
256 256 256
256 256 256
256 256 256
256 256 256
192 192 192
128 128 128
128 128 128
128 128 128
128 128 128
128 128 128
128 128 128
128 128 128
128 128 128
128 128 128
128 128 128
128 128 128
128 128 128
128 128 128
128 128 128
128 128 128
128 128 128
128 128 128
128 128 128
128 128 128
128 128 128
128 128 128
128 128 128
128 128 128
128 128 128
128 128 128
128 128 128
192 192 192
192 192 192
192 192 192
192 192 192
192 192 192
192 192 192
192 192 192
128 128 128
128 128 128
192 192 192
128 128 128
128 128 128
128 128 128
128 128 128
128 128 128
128 128 128
128 128 128
128 128 128
128 128 128
128 128 128
128 128 128
128 128 128
128 128 128
128 128 128
128 128 128
128 128 128
128 128 128
128 128 128
128 128 128
128 128 128
128 128 128
128 128 128
128 128 128
128 128 128
128 128 128
128 128 128
128 128 128
128 128 128
128 128 128
128 128 128
128 128 128
128 128 128
128 128 128
128 128 128
128 128 128
128 128 128
128 128 128
128 128 128
128 128 128
128 128 128
128 128 128
128 128 128
128 128 128
128 128 128
128 128 128
128 128 128
128 128 128
64 64 64
64 64 64
128 128 128
128 128 128
64 64 64
64 64 64
0 0 0
0 0 0
0 0 0
64 64 64
64 64 64
64 64 64
128 128 128
128 128 128
64 64 64
128 128 128
64 64 64
64 64 64
64 64 64
64 64 64
64 64 64
64 64 64
64 64 64
128 128 128
192 192 192
192 192 192
192 192 192
192 192 192
192 192 192
192 192 192
192 192 192
192 192 192
192 192 192
192 192 192
192 192 192
192 192 192
192 192 192
192 192 192
192 192 192
192 192 192
192 192 192
192 192 192
192 192 192
192 192 192
192 192 192
192 192 192
192 192 192
192 192 192
192 192 192
192 192 192
192 192 192
192 192 192
192 192 192
192 192 192
192 192 192
192 192 192
192 192 192
192 192 192
192 192 192
192 192 192
192 192 192
192 192 192
192 192 192
192 192 192
192 192 192
192 192 192
192 192 192
192 192 192
192 192 192
192 192 192
192 192 192
192 192 192
192 192 192
192 192 192
192 192 192
192 192 192
192 192 192
192 192 192
192 192 192
192 192 192
192 192 192
192 192 192
192 192 192
192 192 192
192 192 192
192 192 192
192 192 192
192 192 192
192 192 192
192 192 192
192 192 192
192 192 192
256 256 256
192 192 192
256 256 256
192 192 192
192 192 192
192 192 192
128 128 128
128 128 128
128 128 128
128 128 128
128 128 128
128 128 128
128 128 128
128 128 128
128 128 128
128 128 128
128 128 128
128 128 128
128 128 128
128 128 128
128 128 128
128 128 128
128 128 128
128 128 128
128 128 128
128 128 128
128 128 128
128 128 128
128 128 128
128 128 128
128 128 128
128 128 128
192 192 192
192 192 192
192 192 192
192 192 192
192 192 192
192 192 192
128 128 128
192 192 192
192 192 192
128 128 128
128 128 128
128 128 128
128 128 128
128 128 128
128 128 128
128 128 128
128 128 128
128 128 128
128 128 128
128 128 128
128 128 128
128 128 128
128 128 128
128 128 128
128 128 128
128 128 128
128 128 128
128 128 128
128 128 128
128 128 128
128 128 128
128 128 128
128 128 128
128 128 128
128 128 128
128 128 128
128 128 128
128 128 128
128 128 128
128 128 128
128 128 128
128 128 128
128 128 128
128 128 128
128 128 128
128 128 128
128 128 128
128 128 128
128 128 128
128 128 128
128 128 128
128 128 128
128 128 128
128 128 128
128 128 128
128 128 128
64 64 64
64 64 64
128 128 128
128 128 128
64 64 64
64 64 64
0 0 0
0 0 0
0 0 0
64 64 64
64 64 64
64 64 64
64 64 64
64 64 64
64 64 64
128 128 128
64 64 64
64 64 64
64 64 64
64 64 64
64 64 64
64 64 64
64 64 64
64 64 64
128 128 128
256 256 256
192 192 192
192 192 192
192 192 192
192 192 192
192 192 192
192 192 192
192 192 192
192 192 192
192 192 192
192 192 192
192 192 192
192 192 192
192 192 192
192 192 192
192 192 192
192 192 192
192 192 192
192 192 192
192 192 192
192 192 192
192 192 192
192 192 192
192 192 192
192 192 192
192 192 192
192 192 192
192 192 192
192 192 192
192 192 192
192 192 192
192 192 192
192 192 192
192 192 192
192 192 192
192 192 192
192 192 192
192 192 192
192 192 192
192 192 192
192 192 192
192 192 192
192 192 192
192 192 192
192 192 192
192 192 192
192 192 192
192 192 192
192 192 192
192 192 192
192 192 192
192 192 192
192 192 192
192 192 192
192 192 192
192 192 192
192 192 192
128 128 128
192 192 192
192 192 192
192 192 192
192 192 192
192 192 192
192 192 192
192 192 192
192 192 192
192 192 192
192 192 192
192 192 192
256 256 256
192 192 192
192 192 192
128 128 128
128 128 128
128 128 128
128 128 128
128 128 128
128 128 128
128 128 128
128 128 128
128 128 128
128 128 128
128 128 128
128 128 128
128 128 128
128 128 128
128 128 128
128 128 128
128 128 128
128 128 128
128 128 128
128 128 128
128 128 128
128 128 128
128 128 128
128 128 128
128 128 128
128 128 128
128 128 128
192 192 192
128 128 128
192 192 192
192 192 192
192 192 192
128 128 128
128 128 128
128 128 128
128 128 128
128 128 128
128 128 128
128 128 128
128 128 128
128 128 128
128 128 128
128 128 128
128 128 128
128 128 128
128 128 128
128 128 128
128 128 128
128 128 128
128 128 128
128 128 128
128 128 128
128 128 128
128 128 128
128 128 128
128 128 128
128 128 128
128 128 128
128 128 128
128 128 128
128 128 128
128 128 128
128 128 128
128 128 128
128 128 128
128 128 128
128 128 128
128 128 128
128 128 128
128 128 128
128 128 128
128 128 128
128 128 128
128 128 128
128 128 128
128 128 128
128 128 128
128 128 128
128 128 128
128 128 128
128 128 128
128 128 128
128 128 128
128 128 128
128 128 128
128 128 128
128 128 128
64 64 64
0 0 0
0 0 0
0 0 0
0 0 0
0 0 0
64 64 64
64 64 64
64 64 64
64 64 64
64 64 64
128 128 128
64 64 64
64 64 64
64 64 64
0 0 0
64 64 64
64 64 64
64 64 64
64 64 64
64 64 64
128 128 128
192 192 192
192 192 192
192 192 192
192 192 192
192 192 192
192 192 192
192 192 192
192 192 192
192 192 192
192 192 192
192 192 192
192 192 192
192 192 192
192 192 192
192 192 192
192 192 192
192 192 192
192 192 192
192 192 192
192 192 192
192 192 192
192 192 192
192 192 192
192 192 192
192 192 192
192 192 192
192 192 192
192 192 192
192 192 192
192 192 192
192 192 192
192 192 192
192 192 192
192 192 192
192 192 192
192 192 192
192 192 192
192 192 192
192 192 192
192 192 192
192 192 192
192 192 192
192 192 192
192 192 192
192 192 192
192 192 192
192 192 192
192 192 192
192 192 192
192 192 192
192 192 192
192 192 192
192 192 192
192 192 192
192 192 192
192 192 192
192 192 192
192 192 192
192 192 192
192 192 192
192 192 192
192 192 192
192 192 192
192 192 192
192 192 192
192 192 192
192 192 192
192 192 192
192 192 192
192 192 192
128 128 128
128 128 128
128 128 128
128 128 128
128 128 128
128 128 128
128 128 128
128 128 128
128 128 128
64 64 64
64 64 64
64 64 64
64 64 64
64 64 64
64 64 64
64 64 64
64 64 64
64 64 64
64 64 64
64 64 64
64 64 64
128 128 128
128 128 128
64 64 64
128 128 128
128 128 128
128 128 128
128 128 128
128 128 128
128 128 128
128 128 128
192 192 192
192 192 192
128 128 128
128 128 128
128 128 128
128 128 128
128 128 128
128 128 128
128 128 128
128 128 128
128 128 128
128 128 128
128 128 128
128 128 128
128 128 128
128 128 128
128 128 128
128 128 128
128 128 128
128 128 128
128 128 128
128 128 128
128 128 128
128 128 128
128 128 128
128 128 128
128 128 128
128 128 128
128 128 128
128 128 128
128 128 128
128 128 128
128 128 128
128 128 128
128 128 128
128 128 128
128 128 128
128 128 128
128 128 128
128 128 128
128 128 128
128 128 128
128 128 128
128 128 128
128 128 128
128 128 128
128 128 128
128 128 128
128 128 128
128 128 128
128 128 128
128 128 128
128 128 128
128 128 128
64 64 64
128 128 128
128 128 128
64 64 64
0 0 0
0 0 0
0 0 0
64 64 64
64 64 64
64 64 64
64 64 64
128 128 128
128 128 128
128 128 128
128 128 128
64 64 64
64 64 64
64 64 64
0 0 0
64 64 64
64 64 64
64 64 64
64 64 64
64 64 64
64 64 64
128 128 128
192 192 192
192 192 192
192 192 192
192 192 192
192 192 192
192 192 192
192 192 192
192 192 192
192 192 192
192 192 192
192 192 192
192 192 192
192 192 192
192 192 192
192 192 192
192 192 192
192 192 192
192 192 192
192 192 192
192 192 192
256 256 256
256 256 256
192 192 192
192 192 192
192 192 192
192 192 192
192 192 192
192 192 192
192 192 192
192 192 192
192 192 192
192 192 192
192 192 192
192 192 192
192 192 192
192 192 192
192 192 192
192 192 192
192 192 192
192 192 192
192 192 192
192 192 192
192 192 192
192 192 192
192 192 192
192 192 192
192 192 192
192 192 192
192 192 192
192 192 192
192 192 192
192 192 192
192 192 192
192 192 192
192 192 192
192 192 192
128 128 128
192 192 192
192 192 192
192 192 192
192 192 192
192 192 192
192 192 192
192 192 192
192 192 192
192 192 192
192 192 192
192 192 192
128 128 128
128 128 128
128 128 128
128 128 128
128 128 128
128 128 128
128 128 128
128 128 128
64 64 64
64 64 64
64 64 64
64 64 64
128 128 128
128 128 128
128 128 128
128 128 128
128 128 128
128 128 128
128 128 128
128 128 128
128 128 128
128 128 128
64 64 64
64 64 64
64 64 64
64 64 64
128 128 128
128 128 128
128 128 128
128 128 128
192 192 192
128 128 128
128 128 128
192 192 192
128 128 128
128 128 128
128 128 128
128 128 128
128 128 128
128 128 128
128 128 128
128 128 128
128 128 128
128 128 128
128 128 128
128 128 128
128 128 128
128 128 128
128 128 128
128 128 128
128 128 128
128 128 128
128 128 128
128 128 128
128 128 128
128 128 128
128 128 128
128 128 128
128 128 128
128 128 128
128 128 128
128 128 128
128 128 128
128 128 128
128 128 128
128 128 128
128 128 128
128 128 128
128 128 128
128 128 128
128 128 128
128 128 128
128 128 128
128 128 128
128 128 128
128 128 128
128 128 128
128 128 128
128 128 128
128 128 128
128 128 128
128 128 128
128 128 128
128 128 128
128 128 128
128 128 128
64 64 64
128 128 128
128 128 128
64 64 64
64 64 64
64 64 64
128 128 128
128 128 128
128 128 128
128 128 128
128 128 128
128 128 128
128 128 128
128 128 128
128 128 128
64 64 64
128 128 128
64 64 64
0 0 0
0 0 0
64 64 64
0 0 0
64 64 64
64 64 64
64 64 64
64 64 64
128 128 128
192 192 192
192 192 192
192 192 192
192 192 192
192 192 192
192 192 192
192 192 192
192 192 192
192 192 192
192 192 192
192 192 192
192 192 192
192 192 192
192 192 192
192 192 192
192 192 192
256 256 256
192 192 192
192 192 192
192 192 192
192 192 192
256 256 256
192 192 192
192 192 192
192 192 192
192 192 192
192 192 192
192 192 192
192 192 192
192 192 192
192 192 192
192 192 192
192 192 192
192 192 192
192 192 192
192 192 192
192 192 192
192 192 192
192 192 192
192 192 192
192 192 192
192 192 192
192 192 192
192 192 192
192 192 192
192 192 192
192 192 192
192 192 192
192 192 192
192 192 192
192 192 192
192 192 192
192 192 192
192 192 192
192 192 192
128 128 128
192 192 192
192 192 192
192 192 192
192 192 192
192 192 192
192 192 192
192 192 192
192 192 192
192 192 192
192 192 192
192 192 192
128 128 128
128 128 128
128 128 128
64 64 64
64 64 64
0 0 0
64 64 64
64 64 64
64 64 64
128 128 128
128 128 128
128 128 128
128 128 128
192 192 192
192 192 192
192 192 192
192 192 192
192 192 192
192 192 192
128 128 128
128 128 128
128 128 128
128 128 128
128 128 128
128 128 128
128 128 128
192 192 192
192 192 192
192 192 192
192 192 192
192 192 192
128 128 128
128 128 128
128 128 128
192 192 192
192 192 192
128 128 128
128 128 128
128 128 128
192 192 192
128 128 128
128 128 128
128 128 128
128 128 128
128 128 128
128 128 128
128 128 128
128 128 128
128 128 128
128 128 128
128 128 128
128 128 128
128 128 128
128 128 128
128 128 128
128 128 128
128 128 128
128 128 128
128 128 128
128 128 128
128 128 128
128 128 128
128 128 128
128 128 128
128 128 128
128 128 128
128 128 128
128 128 128
128 128 128
128 128 128
128 128 128
128 128 128
128 128 128
128 128 128
128 128 128
128 128 128
128 128 128
128 128 128
128 128 128
128 128 128
128 128 128
128 128 128
128 128 128
128 128 128
128 128 128
128 128 128
64 64 64
64 64 64
128 128 128
64 64 64
64 64 64
128 128 128
64 64 64
64 64 64
64 64 64
64 64 64
128 128 128
128 128 128
128 128 128
128 128 128
128 128 128
128 128 128
64 64 64
128 128 128
64 64 64
64 64 64
64 64 64
64 64 64
64 64 64
64 64 64
64 64 64
64 64 64
128 128 128
192 192 192
192 192 192
192 192 192
192 192 192
192 192 192
192 192 192
192 192 192
192 192 192
192 192 192
192 192 192
192 192 192
192 192 192
192 192 192
192 192 192
192 192 192
192 192 192
256 256 256
192 192 192
192 192 192
192 192 192
192 192 192
256 256 256
192 192 192
192 192 192
192 192 192
192 192 192
192 192 192
192 192 192
192 192 192
192 192 192
192 192 192
192 192 192
192 192 192
192 192 192
192 192 192
192 192 192
192 192 192
192 192 192
192 192 192
192 192 192
192 192 192
192 192 192
192 192 192
192 192 192
192 192 192
192 192 192
192 192 192
192 192 192
192 192 192
192 192 192
192 192 192
192 192 192
192 192 192
192 192 192
192 192 192
192 192 192
128 128 128
192 192 192
192 192 192
192 192 192
192 192 192
192 192 192
192 192 192
192 192 192
192 192 192
192 192 192
128 128 128
128 128 128
128 128 128
64 64 64
128 128 128
128 128 128
192 192 192
128 128 128
128 128 128
128 128 128
128 128 128
128 128 128
128 128 128
128 128 128
128 128 128
128 128 128
128 128 128
128 128 128
128 128 128
128 128 128
128 128 128
128 128 128
128 128 128
128 128 128
128 128 128
192 192 192
192 192 192
192 192 192
192 192 192
192 192 192
192 192 192
192 192 192
192 192 192
192 192 192
192 192 192
192 192 192
192 192 192
128 128 128
128 128 128
128 128 128
128 128 128
128 128 128
128 128 128
128 128 128
128 128 128
128 128 128
128 128 128
128 128 128
128 128 128
128 128 128
128 128 128
128 128 128
128 128 128
128 128 128
128 128 128
128 128 128
128 128 128
128 128 128
128 128 128
128 128 128
128 128 128
128 128 128
128 128 128
128 128 128
128 128 128
128 128 128
128 128 128
128 128 128
128 128 128
128 128 128
128 128 128
128 128 128
128 128 128
128 128 128
128 128 128
128 128 128
128 128 128
128 128 128
128 128 128
128 128 128
128 128 128
128 128 128
128 128 128
128 128 128
128 128 128
128 128 128
128 128 128
64 64 64
64 64 64
64 64 64
64 64 64
128 128 128
64 64 64
0 0 0
0 0 0
0 0 0
64 64 64
128 128 128
128 128 128
128 128 128
128 128 128
128 128 128
64 64 64
64 64 64
128 128 128
128 128 128
64 64 64
64 64 64
128 128 128
64 64 64
64 64 64
64 64 64
64 64 64
128 128 128
192 192 192
192 192 192
192 192 192
192 192 192
192 192 192
192 192 192
192 192 192
192 192 192
192 192 192
192 192 192
192 192 192
192 192 192
192 192 192
256 256 256
192 192 192
192 192 192
192 192 192
256 256 256
256 256 256
256 256 256
256 256 256
256 256 256
192 192 192
192 192 192
192 192 192
192 192 192
192 192 192
192 192 192
192 192 192
192 192 192
192 192 192
192 192 192
192 192 192
192 192 192
192 192 192
192 192 192
192 192 192
192 192 192
192 192 192
192 192 192
192 192 192
192 192 192
192 192 192
192 192 192
192 192 192
192 192 192
192 192 192
192 192 192
192 192 192
192 192 192
192 192 192
192 192 192
192 192 192
192 192 192
192 192 192
192 192 192
128 128 128
192 192 192
192 192 192
192 192 192
192 192 192
192 192 192
192 192 192
192 192 192
192 192 192
128 128 128
128 128 128
128 128 128
128 128 128
192 192 192
256 256 256
192 192 192
192 192 192
192 192 192
192 192 192
128 128 128
128 128 128
128 128 128
128 128 128
128 128 128
128 128 128
128 128 128
128 128 128
128 128 128
128 128 128
128 128 128
128 128 128
128 128 128
128 128 128
128 128 128
192 192 192
192 192 192
192 192 192
192 192 192
192 192 192
192 192 192
192 192 192
192 192 192
192 192 192
128 128 128
128 128 128
192 192 192
192 192 192
128 128 128
128 128 128
128 128 128
128 128 128
128 128 128
128 128 128
128 128 128
128 128 128
128 128 128
128 128 128
64 64 64
128 128 128
128 128 128
128 128 128
128 128 128
128 128 128
128 128 128
128 128 128
128 128 128
128 128 128
128 128 128
128 128 128
128 128 128
128 128 128
128 128 128
128 128 128
128 128 128
128 128 128
128 128 128
128 128 128
128 128 128
128 128 128
128 128 128
128 128 128
128 128 128
128 128 128
128 128 128
128 128 128
128 128 128
128 128 128
128 128 128
128 128 128
128 128 128
128 128 128
128 128 128
128 128 128
128 128 128
128 128 128
128 128 128
128 128 128
64 64 64
128 128 128
64 64 64
128 128 128
64 64 64
0 0 0
0 0 0
0 0 0
64 64 64
64 64 64
128 128 128
128 128 128
128 128 128
128 128 128
64 64 64
64 64 64
64 64 64
64 64 64
128 128 128
64 64 64
64 64 64
128 128 128
128 128 128
128 128 128
128 128 128
128 128 128
128 128 128
192 192 192
192 192 192
192 192 192
192 192 192
192 192 192
192 192 192
192 192 192
192 192 192
256 256 256
192 192 192
192 192 192
192 192 192
192 192 192
192 192 192
256 256 256
256 256 256
256 256 256
192 192 192
256 256 256
256 256 256
256 256 256
256 256 256
192 192 192
192 192 192
192 192 192
192 192 192
192 192 192
192 192 192
192 192 192
192 192 192
192 192 192
192 192 192
192 192 192
192 192 192
192 192 192
192 192 192
192 192 192
192 192 192
192 192 192
192 192 192
192 192 192
192 192 192
192 192 192
192 192 192
192 192 192
192 192 192
192 192 192
192 192 192
192 192 192
192 192 192
192 192 192
192 192 192
192 192 192
192 192 192
192 192 192
192 192 192
192 192 192
128 128 128
192 192 192
192 192 192
192 192 192
192 192 192
192 192 192
192 192 192
192 192 192
128 128 128
128 128 128
128 128 128
128 128 128
256 256 256
192 192 192
192 192 192
192 192 192
192 192 192
128 128 128
128 128 128
128 128 128
128 128 128
128 128 128
128 128 128
128 128 128
128 128 128
128 128 128
128 128 128
128 128 128
128 128 128
128 128 128
128 128 128
128 128 128
128 128 128
192 192 192
192 192 192
192 192 192
192 192 192
192 192 192
192 192 192
192 192 192
192 192 192
192 192 192
192 192 192
128 128 128
192 192 192
128 128 128
128 128 128
128 128 128
128 128 128
128 128 128
128 128 128
128 128 128
128 128 128
128 128 128
128 128 128
128 128 128
128 128 128
128 128 128
128 128 128
128 128 128
128 128 128
128 128 128
128 128 128
128 128 128
128 128 128
128 128 128
128 128 128
128 128 128
128 128 128
128 128 128
128 128 128
128 128 128
128 128 128
128 128 128
128 128 128
128 128 128
128 128 128
128 128 128
128 128 128
128 128 128
128 128 128
128 128 128
128 128 128
128 128 128
128 128 128
128 128 128
128 128 128
128 128 128
128 128 128
128 128 128
128 128 128
64 64 64
128 128 128
128 128 128
128 128 128
128 128 128
64 64 64
64 64 64
64 64 64
64 64 64
0 0 0
0 0 0
64 64 64
128 128 128
128 128 128
128 128 128
128 128 128
128 128 128
128 128 128
128 128 128
128 128 128
64 64 64
64 64 64
64 64 64
64 64 64
128 128 128
128 128 128
128 128 128
128 128 128
128 128 128
128 128 128
128 128 128
128 128 128
192 192 192
192 192 192
192 192 192
192 192 192
192 192 192
192 192 192
192 192 192
192 192 192
192 192 192
192 192 192
192 192 192
192 192 192
192 192 192
192 192 192
256 256 256
256 256 256
256 256 256
256 256 256
256 256 256
256 256 256
256 256 256
256 256 256
192 192 192
192 192 192
192 192 192
192 192 192
192 192 192
192 192 192
192 192 192
192 192 192
192 192 192
192 192 192
192 192 192
192 192 192
192 192 192
192 192 192
192 192 192
192 192 192
192 192 192
192 192 192
192 192 192
192 192 192
192 192 192
192 192 192
192 192 192
192 192 192
192 192 192
192 192 192
192 192 192
192 192 192
192 192 192
192 192 192
192 192 192
192 192 192
192 192 192
192 192 192
192 192 192
128 128 128
192 192 192
192 192 192
192 192 192
192 192 192
192 192 192
192 192 192
192 192 192
128 128 128
128 128 128
128 128 128
192 192 192
256 256 256
192 192 192
192 192 192
128 128 128
128 128 128
128 128 128
128 128 128
128 128 128
128 128 128
128 128 128
128 128 128
128 128 128
128 128 128
128 128 128
128 128 128
128 128 128
128 128 128
128 128 128
128 128 128
128 128 128
128 128 128
128 128 128
192 192 192
192 192 192
192 192 192
192 192 192
192 192 192
192 192 192
192 192 192
192 192 192
128 128 128
128 128 128
192 192 192
128 128 128
128 128 128
128 128 128
128 128 128
128 128 128
128 128 128
128 128 128
128 128 128
128 128 128
128 128 128
128 128 128
128 128 128
128 128 128
128 128 128
128 128 128
128 128 128
128 128 128
128 128 128
128 128 128
128 128 128
128 128 128
128 128 128
128 128 128
128 128 128
128 128 128
128 128 128
128 128 128
128 128 128
128 128 128
128 128 128
128 128 128
128 128 128
128 128 128
128 128 128
128 128 128
128 128 128
128 128 128
128 128 128
128 128 128
128 128 128
128 128 128
128 128 128
128 128 128
128 128 128
128 128 128
64 64 64
64 64 64
128 128 128
128 128 128
128 128 128
128 128 128
128 128 128
64 64 64
64 64 64
0 0 0
0 0 0
64 64 64
128 128 128
64 64 64
128 128 128
128 128 128
128 128 128
128 128 128
128 128 128
128 128 128
128 128 128
128 128 128
64 64 64
64 64 64
64 64 64
64 64 64
64 64 64
128 128 128
128 128 128
128 128 128
128 128 128
128 128 128
128 128 128
192 192 192
192 192 192
192 192 192
192 192 192
192 192 192
192 192 192
192 192 192
192 192 192
192 192 192
256 256 256
256 256 256
256 256 256
192 192 192
256 256 256
256 256 256
256 256 256
256 256 256
256 256 256
256 256 256
256 256 256
256 256 256
256 256 256
256 256 256
256 256 256
192 192 192
256 256 256
192 192 192
192 192 192
192 192 192
192 192 192
192 192 192
192 192 192
192 192 192
192 192 192
192 192 192
192 192 192
192 192 192
192 192 192
192 192 192
192 192 192
192 192 192
192 192 192
192 192 192
192 192 192
192 192 192
192 192 192
192 192 192
192 192 192
192 192 192
192 192 192
192 192 192
192 192 192
192 192 192
192 192 192
192 192 192
192 192 192
192 192 192
192 192 192
128 128 128
192 192 192
192 192 192
192 192 192
192 192 192
192 192 192
128 128 128
128 128 128
128 128 128
128 128 128
192 192 192
128 128 128
128 128 128
128 128 128
128 128 128
128 128 128
128 128 128
128 128 128
128 128 128
128 128 128
128 128 128
128 128 128
128 128 128
128 128 128
128 128 128
128 128 128
128 128 128
128 128 128
128 128 128
128 128 128
128 128 128
128 128 128
192 192 192
192 192 192
192 192 192
192 192 192
192 192 192
192 192 192
192 192 192
192 192 192
192 192 192
192 192 192
192 192 192
192 192 192
192 192 192
128 128 128
192 192 192
128 128 128
128 128 128
128 128 128
128 128 128
128 128 128
128 128 128
128 128 128
128 128 128
128 128 128
128 128 128
128 128 128
128 128 128
128 128 128
128 128 128
128 128 128
128 128 128
128 128 128
128 128 128
128 128 128
128 128 128
128 128 128
128 128 128
128 128 128
128 128 128
128 128 128
128 128 128
128 128 128
128 128 128
128 128 128
128 128 128
128 128 128
128 128 128
128 128 128
128 128 128
128 128 128
128 128 128
128 128 128
128 128 128
128 128 128
128 128 128
128 128 128
128 128 128
64 64 64
128 128 128
128 128 128
128 128 128
128 128 128
128 128 128
128 128 128
64 64 64
64 64 64
0 0 0
0 0 0
128 128 128
128 128 128
128 128 128
128 128 128
128 128 128
128 128 128
128 128 128
128 128 128
128 128 128
128 128 128
128 128 128
128 128 128
128 128 128
128 128 128
64 64 64
64 64 64
64 64 64
128 128 128
128 128 128
128 128 128
128 128 128
128 128 128
192 192 192
192 192 192
192 192 192
192 192 192
192 192 192
192 192 192
192 192 192
192 192 192
192 192 192
256 256 256
256 256 256
192 192 192
192 192 192
256 256 256
256 256 256
192 192 192
256 256 256
256 256 256
256 256 256
256 256 256
256 256 256
256 256 256
256 256 256
192 192 192
192 192 192
192 192 192
192 192 192
192 192 192
192 192 192
192 192 192
192 192 192
192 192 192
192 192 192
192 192 192
192 192 192
192 192 192
192 192 192
192 192 192
192 192 192
192 192 192
192 192 192
192 192 192
192 192 192
192 192 192
192 192 192
192 192 192
192 192 192
192 192 192
192 192 192
192 192 192
192 192 192
192 192 192
192 192 192
192 192 192
192 192 192
192 192 192
192 192 192
192 192 192
128 128 128
192 192 192
192 192 192
192 192 192
192 192 192
192 192 192
128 128 128
128 128 128
128 128 128
128 128 128
128 128 128
128 128 128
128 128 128
128 128 128
128 128 128
128 128 128
128 128 128
128 128 128
128 128 128
128 128 128
128 128 128
128 128 128
128 128 128
128 128 128
128 128 128
128 128 128
128 128 128
128 128 128
128 128 128
128 128 128
128 128 128
128 128 128
192 192 192
192 192 192
192 192 192
192 192 192
192 192 192
192 192 192
192 192 192
192 192 192
192 192 192
192 192 192
192 192 192
192 192 192
128 128 128
128 128 128
192 192 192
192 192 192
128 128 128
128 128 128
128 128 128
128 128 128
128 128 128
128 128 128
128 128 128
128 128 128
128 128 128
128 128 128
192 192 192
128 128 128
128 128 128
128 128 128
128 128 128
128 128 128
128 128 128
128 128 128
128 128 128
128 128 128
128 128 128
128 128 128
128 128 128
128 128 128
128 128 128
128 128 128
128 128 128
128 128 128
128 128 128
128 128 128
128 128 128
128 128 128
128 128 128
128 128 128
128 128 128
128 128 128
128 128 128
128 128 128
128 128 128
128 128 128
64 64 64
64 64 64
128 128 128
128 128 128
128 128 128
128 128 128
128 128 128
128 128 128
128 128 128
64 64 64
0 0 0
64 64 64
128 128 128
128 128 128
128 128 128
128 128 128
128 128 128
128 128 128
128 128 128
128 128 128
128 128 128
128 128 128
128 128 128
128 128 128
128 128 128
64 64 64
64 64 64
64 64 64
64 64 64
64 64 64
128 128 128
128 128 128
128 128 128
128 128 128
192 192 192
192 192 192
192 192 192
192 192 192
192 192 192
192 192 192
192 192 192
192 192 192
256 256 256
256 256 256
192 192 192
256 256 256
256 256 256
256 256 256
256 256 256
256 256 256
256 256 256
256 256 256
256 256 256
256 256 256
256 256 256
256 256 256
256 256 256
256 256 256
256 256 256
256 256 256
192 192 192
192 192 192
256 256 256
192 192 192
192 192 192
192 192 192
192 192 192
192 192 192
192 192 192
192 192 192
192 192 192
192 192 192
192 192 192
192 192 192
192 192 192
192 192 192
192 192 192
192 192 192
192 192 192
192 192 192
192 192 192
192 192 192
192 192 192
192 192 192
192 192 192
192 192 192
192 192 192
192 192 192
192 192 192
192 192 192
192 192 192
192 192 192
192 192 192
128 128 128
192 192 192
192 192 192
192 192 192
192 192 192
128 128 128
128 128 128
192 192 192
192 192 192
192 192 192
128 128 128
128 128 128
128 128 128
128 128 128
128 128 128
128 128 128
128 128 128
128 128 128
128 128 128
128 128 128
128 128 128
128 128 128
128 128 128
128 128 128
128 128 128
128 128 128
128 128 128
128 128 128
128 128 128
128 128 128
192 192 192
192 192 192
192 192 192
192 192 192
192 192 192
192 192 192
192 192 192
192 192 192
192 192 192
192 192 192
192 192 192
192 192 192
192 192 192
128 128 128
128 128 128
128 128 128
192 192 192
128 128 128
128 128 128
192 192 192
128 128 128
128 128 128
128 128 128
192 192 192
192 192 192
128 128 128
192 192 192
192 192 192
128 128 128
128 128 128
128 128 128
128 128 128
128 128 128
128 128 128
128 128 128
128 128 128
128 128 128
128 128 128
128 128 128
128 128 128
128 128 128
128 128 128
128 128 128
128 128 128
128 128 128
128 128 128
128 128 128
128 128 128
128 128 128
128 128 128
128 128 128
128 128 128
128 128 128
128 128 128
128 128 128
128 128 128
64 64 64
64 64 64
64 64 64
64 64 64
128 128 128
128 128 128
128 128 128
128 128 128
128 128 128
128 128 128
64 64 64
64 64 64
128 128 128
128 128 128
128 128 128
128 128 128
128 128 128
128 128 128
128 128 128
128 128 128
128 128 128
128 128 128
128 128 128
128 128 128
128 128 128
64 64 64
64 64 64
64 64 64
128 128 128
128 128 128
128 128 128
128 128 128
128 128 128
128 128 128
128 128 128
192 192 192
192 192 192
192 192 192
192 192 192
192 192 192
192 192 192
192 192 192
192 192 192
256 256 256
256 256 256
192 192 192
256 256 256
256 256 256
256 256 256
256 256 256
256 256 256
256 256 256
256 256 256
256 256 256
256 256 256
256 256 256
256 256 256
256 256 256
256 256 256
256 256 256
256 256 256
256 256 256
192 192 192
192 192 192
192 192 192
192 192 192
192 192 192
192 192 192
192 192 192
192 192 192
192 192 192
192 192 192
192 192 192
192 192 192
192 192 192
192 192 192
192 192 192
192 192 192
192 192 192
192 192 192
192 192 192
192 192 192
192 192 192
192 192 192
192 192 192
192 192 192
192 192 192
192 192 192
192 192 192
192 192 192
192 192 192
192 192 192
192 192 192
192 192 192
128 128 128
192 192 192
192 192 192
192 192 192
192 192 192
192 192 192
192 192 192
192 192 192
192 192 192
192 192 192
192 192 192
128 128 128
128 128 128
128 128 128
128 128 128
128 128 128
128 128 128
64 64 64
64 64 64
64 64 64
64 64 64
128 128 128
64 64 64
128 128 128
128 128 128
128 128 128
128 128 128
128 128 128
128 128 128
192 192 192
192 192 192
192 192 192
192 192 192
192 192 192
192 192 192
192 192 192
192 192 192
192 192 192
192 192 192
192 192 192
192 192 192
192 192 192
128 128 128
128 128 128
128 128 128
128 128 128
192 192 192
128 128 128
192 192 192
192 192 192
128 128 128
128 128 128
128 128 128
128 128 128
192 192 192
192 192 192
128 128 128
128 128 128
128 128 128
128 128 128
128 128 128
128 128 128
128 128 128
128 128 128
128 128 128
128 128 128
128 128 128
128 128 128
128 128 128
128 128 128
128 128 128
128 128 128
128 128 128
128 128 128
128 128 128
128 128 128
128 128 128
128 128 128
128 128 128
128 128 128
128 128 128
128 128 128
128 128 128
128 128 128
128 128 128
64 64 64
64 64 64
64 64 64
64 64 64
128 128 128
128 128 128
128 128 128
128 128 128
128 128 128
128 128 128
128 128 128
64 64 64
64 64 64
128 128 128
128 128 128
64 64 64
128 128 128
64 64 64
64 64 64
128 128 128
128 128 128
128 128 128
128 128 128
128 128 128
128 128 128
128 128 128
64 64 64
128 128 128
128 128 128
128 128 128
128 128 128
128 128 128
128 128 128
128 128 128
128 128 128
128 128 128
192 192 192
192 192 192
192 192 192
192 192 192
192 192 192
192 192 192
192 192 192
192 192 192
256 256 256
256 256 256
192 192 192
256 256 256
256 256 256
256 256 256
256 256 256
256 256 256
256 256 256
256 256 256
256 256 256
256 256 256
256 256 256
256 256 256
256 256 256
256 256 256
256 256 256
192 192 192
256 256 256
256 256 256
192 192 192
192 192 192
192 192 192
192 192 192
192 192 192
192 192 192
192 192 192
192 192 192
192 192 192
192 192 192
192 192 192
192 192 192
192 192 192
192 192 192
192 192 192
192 192 192
192 192 192
192 192 192
192 192 192
192 192 192
192 192 192
192 192 192
192 192 192
192 192 192
192 192 192
192 192 192
192 192 192
192 192 192
192 192 192
192 192 192
192 192 192
192 192 192
128 128 128
192 192 192
192 192 192
192 192 192
192 192 192
192 192 192
192 192 192
192 192 192
256 256 256
192 192 192
128 128 128
128 128 128
128 128 128
128 128 128
128 128 128
64 64 64
64 64 64
128 128 128
128 128 128
128 128 128
128 128 128
128 128 128
128 128 128
128 128 128
128 128 128
128 128 128
128 128 128
192 192 192
192 192 192
192 192 192
192 192 192
192 192 192
192 192 192
192 192 192
192 192 192
192 192 192
192 192 192
192 192 192
192 192 192
192 192 192
192 192 192
192 192 192
128 128 128
128 128 128
128 128 128
128 128 128
128 128 128
192 192 192
192 192 192
128 128 128
128 128 128
128 128 128
128 128 128
128 128 128
192 192 192
128 128 128
128 128 128
128 128 128
128 128 128
128 128 128
128 128 128
128 128 128
128 128 128
128 128 128
128 128 128
128 128 128
128 128 128
128 128 128
128 128 128
128 128 128
128 128 128
128 128 128
128 128 128
128 128 128
128 128 128
128 128 128
128 128 128
128 128 128
128 128 128
128 128 128
128 128 128
128 128 128
128 128 128
64 64 64
64 64 64
128 128 128
128 128 128
128 128 128
128 128 128
128 128 128
128 128 128
128 128 128
128 128 128
128 128 128
128 128 128
128 128 128
64 64 64
128 128 128
128 128 128
0 0 0
64 64 64
64 64 64
64 64 64
128 128 128
128 128 128
128 128 128
128 128 128
128 128 128
128 128 128
64 64 64
128 128 128
128 128 128
128 128 128
128 128 128
128 128 128
128 128 128
128 128 128
128 128 128
128 128 128
128 128 128
192 192 192
192 192 192
192 192 192
192 192 192
192 192 192
192 192 192
192 192 192
192 192 192
256 256 256
256 256 256
192 192 192
256 256 256
256 256 256
256 256 256
256 256 256
256 256 256
256 256 256
256 256 256
256 256 256
256 256 256
256 256 256
256 256 256
256 256 256
256 256 256
256 256 256
192 192 192
192 192 192
192 192 192
256 256 256
192 192 192
192 192 192
192 192 192
192 192 192
192 192 192
192 192 192
192 192 192
192 192 192
192 192 192
192 192 192
192 192 192
192 192 192
192 192 192
192 192 192
192 192 192
192 192 192
192 192 192
192 192 192
192 192 192
192 192 192
192 192 192
192 192 192
192 192 192
192 192 192
192 192 192
192 192 192
192 192 192
192 192 192
192 192 192
192 192 192
192 192 192
128 128 128
192 192 192
192 192 192
192 192 192
192 192 192
192 192 192
192 192 192
192 192 192
256 256 256
192 192 192
192 192 192
128 128 128
128 128 128
128 128 128
128 128 128
128 128 128
128 128 128
192 192 192
192 192 192
192 192 192
192 192 192
192 192 192
192 192 192
192 192 192
192 192 192
192 192 192
192 192 192
192 192 192
192 192 192
192 192 192
192 192 192
192 192 192
192 192 192
192 192 192
192 192 192
192 192 192
192 192 192
192 192 192
192 192 192
192 192 192
192 192 192
128 128 128
128 128 128
128 128 128
128 128 128
128 128 128
192 192 192
192 192 192
192 192 192
128 128 128
192 192 192
128 128 128
128 128 128
192 192 192
192 192 192
192 192 192
128 128 128
128 128 128
128 128 128
128 128 128
128 128 128
128 128 128
128 128 128
128 128 128
128 128 128
128 128 128
128 128 128
128 128 128
128 128 128
128 128 128
128 128 128
128 128 128
128 128 128
128 128 128
128 128 128
128 128 128
128 128 128
128 128 128
128 128 128
128 128 128
128 128 128
128 128 128
64 64 64
64 64 64
64 64 64
128 128 128
128 128 128
128 128 128
128 128 128
128 128 128
128 128 128
128 128 128
128 128 128
128 128 128
128 128 128
128 128 128
64 64 64
128 128 128
64 64 64
0 0 0
0 0 0
64 64 64
128 128 128
128 128 128
128 128 128
128 128 128
128 128 128
128 128 128
64 64 64
64 64 64
128 128 128
128 128 128
128 128 128
128 128 128
128 128 128
128 128 128
128 128 128
128 128 128
128 128 128
128 128 128
192 192 192
192 192 192
192 192 192
192 192 192
192 192 192
192 192 192
192 192 192
192 192 192
256 256 256
256 256 256
256 256 256
256 256 256
256 256 256
256 256 256
256 256 256
256 256 256
256 256 256
256 256 256
256 256 256
256 256 256
256 256 256
256 256 256
256 256 256
256 256 256
256 256 256
256 256 256
256 256 256
192 192 192
192 192 192
192 192 192
192 192 192
192 192 192
192 192 192
192 192 192
192 192 192
192 192 192
192 192 192
192 192 192
192 192 192
192 192 192
192 192 192
192 192 192
192 192 192
192 192 192
192 192 192
192 192 192
192 192 192
192 192 192
192 192 192
192 192 192
192 192 192
192 192 192
192 192 192
192 192 192
192 192 192
192 192 192
192 192 192
192 192 192
192 192 192
192 192 192
192 192 192
128 128 128
192 192 192
128 128 128
128 128 128
192 192 192
192 192 192
192 192 192
192 192 192
192 192 192
192 192 192
128 128 128
128 128 128
128 128 128
192 192 192
192 192 192
192 192 192
256 256 256
192 192 192
192 192 192
192 192 192
192 192 192
192 192 192
192 192 192
192 192 192
192 192 192
192 192 192
192 192 192
192 192 192
192 192 192
192 192 192
192 192 192
192 192 192
192 192 192
192 192 192
192 192 192
192 192 192
192 192 192
192 192 192
192 192 192
128 128 128
128 128 128
128 128 128
128 128 128
128 128 128
128 128 128
128 128 128
192 192 192
192 192 192
128 128 128
128 128 128
128 128 128
128 128 128
192 192 192
128 128 128
192 192 192
192 192 192
128 128 128
128 128 128
128 128 128
128 128 128
128 128 128
128 128 128
128 128 128
128 128 128
128 128 128
128 128 128
128 128 128
128 128 128
128 128 128
128 128 128
128 128 128
128 128 128
128 128 128
128 128 128
128 128 128
128 128 128
128 128 128
128 128 128
128 128 128
128 128 128
64 64 64
64 64 64
64 64 64
128 128 128
128 128 128
128 128 128
128 128 128
128 128 128
128 128 128
128 128 128
128 128 128
128 128 128
128 128 128
128 128 128
128 128 128
128 128 128
64 64 64
0 0 0
0 0 0
64 64 64
128 128 128
128 128 128
128 128 128
128 128 128
128 128 128
128 128 128
128 128 128
128 128 128
128 128 128
128 128 128
128 128 128
128 128 128
128 128 128
128 128 128
128 128 128
128 128 128
128 128 128
128 128 128
192 192 192
192 192 192
192 192 192
192 192 192
192 192 192
192 192 192
192 192 192
192 192 192
192 192 192
256 256 256
256 256 256
256 256 256
256 256 256
256 256 256
256 256 256
256 256 256
256 256 256
256 256 256
256 256 256
256 256 256
256 256 256
256 256 256
256 256 256
256 256 256
256 256 256
256 256 256
256 256 256
256 256 256
256 256 256
256 256 256
256 256 256
256 256 256
192 192 192
192 192 192
192 192 192
192 192 192
256 256 256
192 192 192
192 192 192
192 192 192
192 192 192
192 192 192
192 192 192
192 192 192
192 192 192
192 192 192
192 192 192
192 192 192
192 192 192
192 192 192
192 192 192
192 192 192
192 192 192
192 192 192
192 192 192
192 192 192
192 192 192
192 192 192
192 192 192
192 192 192
192 192 192
192 192 192
128 128 128
128 128 128
128 128 128
128 128 128
192 192 192
192 192 192
192 192 192
192 192 192
192 192 192
192 192 192
192 192 192
192 192 192
192 192 192
256 256 256
256 256 256
256 256 256
192 192 192
192 192 192
192 192 192
192 192 192
192 192 192
192 192 192
192 192 192
192 192 192
192 192 192
192 192 192
192 192 192
192 192 192
192 192 192
192 192 192
192 192 192
192 192 192
192 192 192
192 192 192
192 192 192
192 192 192
192 192 192
128 128 128
128 128 128
128 128 128
128 128 128
128 128 128
128 128 128
128 128 128
128 128 128
128 128 128
192 192 192
192 192 192
128 128 128
128 128 128
128 128 128
128 128 128
192 192 192
128 128 128
192 192 192
128 128 128
128 128 128
128 128 128
128 128 128
128 128 128
128 128 128
128 128 128
128 128 128
128 128 128
128 128 128
128 128 128
128 128 128
128 128 128
128 128 128
128 128 128
128 128 128
128 128 128
128 128 128
128 128 128
128 128 128
128 128 128
128 128 128
128 128 128
128 128 128
64 64 64
64 64 64
128 128 128
128 128 128
128 128 128
128 128 128
128 128 128
128 128 128
128 128 128
128 128 128
128 128 128
128 128 128
128 128 128
128 128 128
128 128 128
128 128 128
128 128 128
64 64 64
0 0 0
0 0 0
64 64 64
128 128 128
128 128 128
128 128 128
128 128 128
128 128 128
128 128 128
128 128 128
128 128 128
128 128 128
128 128 128
128 128 128
128 128 128
128 128 128
128 128 128
128 128 128
128 128 128
128 128 128
128 128 128
192 192 192
192 192 192
192 192 192
192 192 192
192 192 192
192 192 192
192 192 192
192 192 192
192 192 192
256 256 256
256 256 256
256 256 256
256 256 256
256 256 256
256 256 256
256 256 256
256 256 256
256 256 256
256 256 256
256 256 256
256 256 256
256 256 256
256 256 256
256 256 256
256 256 256
256 256 256
256 256 256
256 256 256
256 256 256
256 256 256
256 256 256
192 192 192
192 192 192
192 192 192
192 192 192
192 192 192
256 256 256
192 192 192
192 192 192
192 192 192
192 192 192
192 192 192
192 192 192
192 192 192
192 192 192
192 192 192
192 192 192
192 192 192
192 192 192
192 192 192
192 192 192
192 192 192
192 192 192
192 192 192
192 192 192
192 192 192
192 192 192
192 192 192
192 192 192
192 192 192
192 192 192
192 192 192
128 128 128
128 128 128
128 128 128
128 128 128
128 128 128
192 192 192
192 192 192
192 192 192
192 192 192
192 192 192
192 192 192
256 256 256
256 256 256
256 256 256
256 256 256
192 192 192
192 192 192
192 192 192
192 192 192
192 192 192
192 192 192
192 192 192
192 192 192
192 192 192
192 192 192
192 192 192
192 192 192
192 192 192
192 192 192
192 192 192
192 192 192
192 192 192
192 192 192
192 192 192
192 192 192
192 192 192
128 128 128
128 128 128
128 128 128
128 128 128
128 128 128
128 128 128
128 128 128
128 128 128
192 192 192
128 128 128
192 192 192
192 192 192
128 128 128
192 192 192
128 128 128
128 128 128
128 128 128
128 128 128
128 128 128
128 128 128
128 128 128
128 128 128
128 128 128
128 128 128
128 128 128
128 128 128
128 128 128
128 128 128
128 128 128
128 128 128
128 128 128
128 128 128
128 128 128
128 128 128
128 128 128
128 128 128
128 128 128
128 128 128
128 128 128
128 128 128
128 128 128
128 128 128
64 64 64
64 64 64
64 64 64
128 128 128
128 128 128
128 128 128
128 128 128
128 128 128
128 128 128
128 128 128
128 128 128
128 128 128
128 128 128
128 128 128
128 128 128
128 128 128
128 128 128
128 128 128
64 64 64
0 0 0
64 64 64
128 128 128
128 128 128
128 128 128
128 128 128
128 128 128
128 128 128
128 128 128
128 128 128
128 128 128
128 128 128
128 128 128
128 128 128
128 128 128
128 128 128
128 128 128
128 128 128
128 128 128
128 128 128
128 128 128
192 192 192
192 192 192
192 192 192
192 192 192
192 192 192
192 192 192
192 192 192
192 192 192
192 192 192
256 256 256
256 256 256
256 256 256
256 256 256
256 256 256
256 256 256
256 256 256
256 256 256
256 256 256
256 256 256
256 256 256
256 256 256
256 256 256
256 256 256
256 256 256
256 256 256
256 256 256
256 256 256
256 256 256
256 256 256
256 256 256
256 256 256
256 256 256
256 256 256
192 192 192
192 192 192
192 192 192
256 256 256
192 192 192
192 192 192
192 192 192
192 192 192
192 192 192
192 192 192
192 192 192
192 192 192
192 192 192
192 192 192
192 192 192
192 192 192
192 192 192
192 192 192
192 192 192
192 192 192
192 192 192
192 192 192
192 192 192
192 192 192
192 192 192
192 192 192
192 192 192
192 192 192
192 192 192
192 192 192
128 128 128
128 128 128
128 128 128
128 128 128
192 192 192
192 192 192
192 192 192
192 192 192
192 192 192
256 256 256
256 256 256
256 256 256
256 256 256
192 192 192
192 192 192
192 192 192
192 192 192
192 192 192
192 192 192
192 192 192
192 192 192
192 192 192
192 192 192
192 192 192
192 192 192
192 192 192
192 192 192
192 192 192
192 192 192
192 192 192
192 192 192
192 192 192
192 192 192
192 192 192
192 192 192
128 128 128
128 128 128
128 128 128
128 128 128
128 128 128
128 128 128
128 128 128
128 128 128
128 128 128
128 128 128
192 192 192
128 128 128
128 128 128
128 128 128
128 128 128
128 128 128
128 128 128
128 128 128
128 128 128
128 128 128
128 128 128
128 128 128
128 128 128
128 128 128
128 128 128
128 128 128
128 128 128
128 128 128
128 128 128
128 128 128
128 128 128
128 128 128
128 128 128
128 128 128
128 128 128
128 128 128
128 128 128
128 128 128
128 128 128
128 128 128
128 128 128
64 64 64
64 64 64
64 64 64
64 64 64
128 128 128
128 128 128
128 128 128
128 128 128
128 128 128
128 128 128
128 128 128
128 128 128
128 128 128
128 128 128
128 128 128
128 128 128
128 128 128
128 128 128
128 128 128
0 0 0
0 0 0
64 64 64
64 64 64
128 128 128
128 128 128
128 128 128
128 128 128
128 128 128
128 128 128
128 128 128
128 128 128
128 128 128
128 128 128
128 128 128
128 128 128
128 128 128
128 128 128
128 128 128
128 128 128
128 128 128
64 64 64
192 192 192
192 192 192
192 192 192
192 192 192
192 192 192
192 192 192
192 192 192
192 192 192
256 256 256
256 256 256
256 256 256
256 256 256
256 256 256
256 256 256
256 256 256
256 256 256
256 256 256
256 256 256
256 256 256
256 256 256
256 256 256
256 256 256
256 256 256
256 256 256
256 256 256
256 256 256
256 256 256
256 256 256
256 256 256
256 256 256
256 256 256
256 256 256
256 256 256
192 192 192
256 256 256
192 192 192
192 192 192
192 192 192
192 192 192
192 192 192
192 192 192
192 192 192
192 192 192
192 192 192
192 192 192
192 192 192
192 192 192
192 192 192
192 192 192
192 192 192
192 192 192
192 192 192
192 192 192
192 192 192
192 192 192
192 192 192
192 192 192
192 192 192
192 192 192
192 192 192
192 192 192
192 192 192
256 256 256
128 128 128
128 128 128
128 128 128
128 128 128
192 192 192
192 192 192
192 192 192
192 192 192
256 256 256
256 256 256
256 256 256
256 256 256
192 192 192
192 192 192
192 192 192
192 192 192
192 192 192
128 128 128
192 192 192
192 192 192
192 192 192
192 192 192
192 192 192
192 192 192
192 192 192
192 192 192
192 192 192
192 192 192
192 192 192
192 192 192
192 192 192
192 192 192
128 128 128
128 128 128
128 128 128
128 128 128
128 128 128
128 128 128
128 128 128
128 128 128
128 128 128
128 128 128
128 128 128
128 128 128
128 128 128
192 192 192
128 128 128
128 128 128
128 128 128
128 128 128
128 128 128
128 128 128
128 128 128
128 128 128
128 128 128
128 128 128
128 128 128
128 128 128
128 128 128
128 128 128
128 128 128
128 128 128
128 128 128
128 128 128
128 128 128
128 128 128
128 128 128
128 128 128
128 128 128
128 128 128
128 128 128
128 128 128
128 128 128
128 128 128
128 128 128
64 64 64
64 64 64
64 64 64
128 128 128
128 128 128
128 128 128
128 128 128
128 128 128
128 128 128
128 128 128
128 128 128
128 128 128
128 128 128
128 128 128
128 128 128
128 128 128
128 128 128
128 128 128
128 128 128
128 128 128
64 64 64
64 64 64
128 128 128
128 128 128
128 128 128
128 128 128
128 128 128
128 128 128
128 128 128
128 128 128
128 128 128
128 128 128
64 64 64
128 128 128
128 128 128
128 128 128
128 128 128
128 128 128
128 128 128
128 128 128
64 64 64
64 64 64
128 128 128
192 192 192
192 192 192
192 192 192
192 192 192
192 192 192
192 192 192
256 256 256
256 256 256
256 256 256
256 256 256
256 256 256
256 256 256
256 256 256
256 256 256
256 256 256
256 256 256
256 256 256
256 256 256
256 256 256
256 256 256
256 256 256
256 256 256
256 256 256
256 256 256
256 256 256
256 256 256
256 256 256
256 256 256
256 256 256
256 256 256
256 256 256
256 256 256
256 256 256
256 256 256
192 192 192
192 192 192
192 192 192
192 192 192
192 192 192
192 192 192
192 192 192
192 192 192
192 192 192
192 192 192
192 192 192
192 192 192
192 192 192
192 192 192
192 192 192
192 192 192
192 192 192
192 192 192
192 192 192
192 192 192
192 192 192
192 192 192
192 192 192
192 192 192
192 192 192
192 192 192
192 192 192
192 192 192
192 192 192
128 128 128
128 128 128
128 128 128
192 192 192
192 192 192
192 192 192
256 256 256
256 256 256
256 256 256
256 256 256
192 192 192
192 192 192
192 192 192
192 192 192
192 192 192
192 192 192
192 192 192
192 192 192
192 192 192
192 192 192
192 192 192
192 192 192
192 192 192
192 192 192
192 192 192
192 192 192
192 192 192
128 128 128
128 128 128
128 128 128
128 128 128
128 128 128
128 128 128
128 128 128
128 128 128
128 128 128
128 128 128
128 128 128
128 128 128
128 128 128
128 128 128
128 128 128
128 128 128
128 128 128
128 128 128
192 192 192
128 128 128
128 128 128
192 192 192
128 128 128
128 128 128
128 128 128
128 128 128
128 128 128
128 128 128
128 128 128
128 128 128
128 128 128
128 128 128
128 128 128
128 128 128
128 128 128
128 128 128
128 128 128
128 128 128
128 128 128
128 128 128
128 128 128
128 128 128
128 128 128
128 128 128
128 128 128
64 64 64
64 64 64
64 64 64
64 64 64
128 128 128
128 128 128
128 128 128
128 128 128
128 128 128
128 128 128
128 128 128
128 128 128
128 128 128
128 128 128
128 128 128
128 128 128
128 128 128
128 128 128
128 128 128
128 128 128
128 128 128
128 128 128
64 64 64
64 64 64
128 128 128
128 128 128
128 128 128
128 128 128
128 128 128
128 128 128
128 128 128
128 128 128
128 128 128
128 128 128
64 64 64
128 128 128
128 128 128
128 128 128
128 128 128
128 128 128
64 64 64
64 64 64
64 64 64
64 64 64
128 128 128
192 192 192
192 192 192
192 192 192
192 192 192
192 192 192
256 256 256
256 256 256
256 256 256
256 256 256
256 256 256
256 256 256
256 256 256
256 256 256
256 256 256
256 256 256
256 256 256
256 256 256
256 256 256
256 256 256
256 256 256
256 256 256
256 256 256
256 256 256
256 256 256
256 256 256
256 256 256
256 256 256
256 256 256
256 256 256
256 256 256
256 256 256
256 256 256
256 256 256
256 256 256
256 256 256
256 256 256
192 192 192
192 192 192
192 192 192
192 192 192
192 192 192
192 192 192
192 192 192
192 192 192
192 192 192
192 192 192
192 192 192
192 192 192
192 192 192
192 192 192
192 192 192
192 192 192
192 192 192
192 192 192
192 192 192
192 192 192
192 192 192
192 192 192
192 192 192
192 192 192
192 192 192
192 192 192
256 256 256
128 128 128
128 128 128
128 128 128
192 192 192
192 192 192
192 192 192
192 192 192
256 256 256
256 256 256
256 256 256
192 192 192
192 192 192
192 192 192
192 192 192
192 192 192
128 128 128
128 128 128
128 128 128
192 192 192
128 128 128
128 128 128
128 128 128
128 128 128
128 128 128
128 128 128
128 128 128
128 128 128
128 128 128
128 128 128
128 128 128
128 128 128
128 128 128
128 128 128
128 128 128
128 128 128
128 128 128
128 128 128
128 128 128
128 128 128
128 128 128
128 128 128
128 128 128
128 128 128
128 128 128
128 128 128
128 128 128
128 128 128
128 128 128
128 128 128
128 128 128
128 128 128
128 128 128
128 128 128
128 128 128
128 128 128
128 128 128
128 128 128
128 128 128
128 128 128
128 128 128
128 128 128
128 128 128
128 128 128
128 128 128
128 128 128
128 128 128
128 128 128
128 128 128
128 128 128
128 128 128
128 128 128
64 64 64
64 64 64
64 64 64
128 128 128
128 128 128
64 64 64
64 64 64
128 128 128
128 128 128
128 128 128
128 128 128
128 128 128
128 128 128
128 128 128
128 128 128
128 128 128
128 128 128
128 128 128
128 128 128
128 128 128
128 128 128
128 128 128
128 128 128
64 64 64
64 64 64
128 128 128
128 128 128
128 128 128
128 128 128
128 128 128
128 128 128
128 128 128
128 128 128
128 128 128
64 64 64
128 128 128
128 128 128
128 128 128
64 64 64
64 64 64
128 128 128
128 128 128
64 64 64
128 128 128
128 128 128
192 192 192
192 192 192
192 192 192
192 192 192
192 192 192
192 192 192
256 256 256
256 256 256
256 256 256
256 256 256
256 256 256
256 256 256
256 256 256
256 256 256
256 256 256
256 256 256
256 256 256
256 256 256
256 256 256
256 256 256
256 256 256
256 256 256
256 256 256
256 256 256
256 256 256
256 256 256
256 256 256
256 256 256
256 256 256
256 256 256
256 256 256
256 256 256
256 256 256
256 256 256
256 256 256
256 256 256
256 256 256
192 192 192
192 192 192
192 192 192
192 192 192
192 192 192
192 192 192
192 192 192
192 192 192
192 192 192
192 192 192
192 192 192
192 192 192
192 192 192
192 192 192
192 192 192
192 192 192
192 192 192
192 192 192
192 192 192
192 192 192
192 192 192
192 192 192
192 192 192
192 192 192
192 192 192
192 192 192
192 192 192
192 192 192
128 128 128
128 128 128
192 192 192
192 192 192
192 192 192
192 192 192
256 256 256
256 256 256
192 192 192
192 192 192
192 192 192
128 128 128
128 128 128
128 128 128
128 128 128
128 128 128
128 128 128
128 128 128
128 128 128
128 128 128
128 128 128
128 128 128
128 128 128
128 128 128
128 128 128
128 128 128
128 128 128
128 128 128
128 128 128
128 128 128
128 128 128
128 128 128
128 128 128
128 128 128
128 128 128
128 128 128
128 128 128
128 128 128
128 128 128
128 128 128
128 128 128
128 128 128
128 128 128
128 128 128
128 128 128
128 128 128
128 128 128
128 128 128
128 128 128
128 128 128
128 128 128
128 128 128
128 128 128
128 128 128
128 128 128
128 128 128
128 128 128
128 128 128
128 128 128
128 128 128
128 128 128
128 128 128
128 128 128
128 128 128
128 128 128
128 128 128
128 128 128
128 128 128
128 128 128
64 64 64
64 64 64
64 64 64
64 64 64
64 64 64
64 64 64
128 128 128
128 128 128
128 128 128
128 128 128
128 128 128
128 128 128
128 128 128
128 128 128
128 128 128
128 128 128
128 128 128
128 128 128
128 128 128
128 128 128
128 128 128
128 128 128
128 128 128
128 128 128
128 128 128
64 64 64
128 128 128
128 128 128
128 128 128
128 128 128
128 128 128
128 128 128
128 128 128
128 128 128
128 128 128
64 64 64
64 64 64
128 128 128
64 64 64
64 64 64
64 64 64
128 128 128
128 128 128
128 128 128
128 128 128
128 128 128
192 192 192
192 192 192
192 192 192
192 192 192
192 192 192
192 192 192
256 256 256
256 256 256
256 256 256
256 256 256
256 256 256
256 256 256
256 256 256
256 256 256
256 256 256
256 256 256
256 256 256
256 256 256
256 256 256
256 256 256
256 256 256
256 256 256
256 256 256
256 256 256
256 256 256
256 256 256
256 256 256
256 256 256
256 256 256
256 256 256
256 256 256
256 256 256
256 256 256
256 256 256
256 256 256
192 192 192
256 256 256
256 256 256
192 192 192
192 192 192
256 256 256
192 192 192
256 256 256
192 192 192
192 192 192
192 192 192
192 192 192
192 192 192
192 192 192
192 192 192
192 192 192
192 192 192
192 192 192
192 192 192
192 192 192
192 192 192
192 192 192
192 192 192
192 192 192
192 192 192
192 192 192
192 192 192
192 192 192
192 192 192
256 256 256
128 128 128
128 128 128
128 128 128
192 192 192
192 192 192
192 192 192
256 256 256
192 192 192
192 192 192
192 192 192
192 192 192
128 128 128
128 128 128
128 128 128
128 128 128
128 128 128
128 128 128
128 128 128
128 128 128
128 128 128
128 128 128
128 128 128
128 128 128
128 128 128
128 128 128
128 128 128
128 128 128
128 128 128
128 128 128
128 128 128
128 128 128
128 128 128
128 128 128
128 128 128
128 128 128
192 192 192
128 128 128
128 128 128
128 128 128
128 128 128
128 128 128
128 128 128
128 128 128
128 128 128
128 128 128
128 128 128
128 128 128
128 128 128
128 128 128
128 128 128
128 128 128
128 128 128
128 128 128
128 128 128
128 128 128
128 128 128
128 128 128
128 128 128
128 128 128
128 128 128
128 128 128
128 128 128
128 128 128
128 128 128
128 128 128
128 128 128
128 128 128
128 128 128
64 64 64
64 64 64
64 64 64
64 64 64
64 64 64
128 128 128
128 128 128
128 128 128
128 128 128
128 128 128
128 128 128
128 128 128
128 128 128
128 128 128
128 128 128
128 128 128
128 128 128
128 128 128
128 128 128
128 128 128
128 128 128
128 128 128
128 128 128
128 128 128
128 128 128
128 128 128
64 64 64
128 128 128
128 128 128
128 128 128
128 128 128
128 128 128
128 128 128
128 128 128
128 128 128
128 128 128
64 64 64
128 128 128
64 64 64
64 64 64
64 64 64
64 64 64
128 128 128
128 128 128
128 128 128
128 128 128
128 128 128
128 128 128
192 192 192
192 192 192
192 192 192
192 192 192
192 192 192
256 256 256
256 256 256
256 256 256
256 256 256
256 256 256
256 256 256
256 256 256
256 256 256
256 256 256
256 256 256
256 256 256
256 256 256
256 256 256
256 256 256
256 256 256
256 256 256
256 256 256
256 256 256
256 256 256
256 256 256
256 256 256
256 256 256
256 256 256
256 256 256
256 256 256
256 256 256
256 256 256
256 256 256
256 256 256
192 192 192
256 256 256
256 256 256
256 256 256
192 192 192
256 256 256
192 192 192
192 192 192
192 192 192
192 192 192
192 192 192
192 192 192
192 192 192
192 192 192
192 192 192
192 192 192
192 192 192
192 192 192
192 192 192
192 192 192
192 192 192
192 192 192
192 192 192
192 192 192
192 192 192
192 192 192
192 192 192
192 192 192
192 192 192
192 192 192
192 192 192
128 128 128
128 128 128
192 192 192
192 192 192
192 192 192
192 192 192
192 192 192
192 192 192
192 192 192
128 128 128
128 128 128
128 128 128
128 128 128
128 128 128
128 128 128
128 128 128
128 128 128
128 128 128
128 128 128
128 128 128
128 128 128
128 128 128
128 128 128
128 128 128
128 128 128
128 128 128
128 128 128
128 128 128
128 128 128
128 128 128
128 128 128
128 128 128
128 128 128
128 128 128
192 192 192
128 128 128
128 128 128
128 128 128
128 128 128
128 128 128
128 128 128
128 128 128
128 128 128
128 128 128
128 128 128
128 128 128
128 128 128
128 128 128
128 128 128
128 128 128
128 128 128
128 128 128
128 128 128
128 128 128
128 128 128
128 128 128
128 128 128
128 128 128
128 128 128
128 128 128
128 128 128
128 128 128
128 128 128
128 128 128
128 128 128
64 64 64
64 64 64
64 64 64
64 64 64
64 64 64
64 64 64
64 64 64
128 128 128
128 128 128
128 128 128
128 128 128
128 128 128
128 128 128
128 128 128
128 128 128
128 128 128
128 128 128
128 128 128
128 128 128
128 128 128
128 128 128
128 128 128
128 128 128
128 128 128
128 128 128
128 128 128
128 128 128
128 128 128
64 64 64
64 64 64
128 128 128
128 128 128
128 128 128
128 128 128
128 128 128
128 128 128
128 128 128
128 128 128
64 64 64
64 64 64
64 64 64
64 64 64
64 64 64
64 64 64
128 128 128
128 128 128
128 128 128
128 128 128
128 128 128
128 128 128
128 128 128
192 192 192
192 192 192
192 192 192
192 192 192
256 256 256
256 256 256
256 256 256
256 256 256
256 256 256
256 256 256
256 256 256
256 256 256
256 256 256
256 256 256
256 256 256
256 256 256
256 256 256
256 256 256
256 256 256
256 256 256
256 256 256
256 256 256
256 256 256
256 256 256
256 256 256
256 256 256
256 256 256
256 256 256
256 256 256
256 256 256
256 256 256
256 256 256
256 256 256
192 192 192
256 256 256
256 256 256
256 256 256
256 256 256
192 192 192
192 192 192
192 192 192
192 192 192
192 192 192
192 192 192
192 192 192
192 192 192
192 192 192
192 192 192
192 192 192
192 192 192
192 192 192
192 192 192
192 192 192
192 192 192
192 192 192
192 192 192
192 192 192
192 192 192
192 192 192
192 192 192
192 192 192
192 192 192
192 192 192
256 256 256
192 192 192
128 128 128
128 128 128
192 192 192
192 192 192
192 192 192
192 192 192
192 192 192
128 128 128
128 128 128
128 128 128
128 128 128
128 128 128
128 128 128
128 128 128
128 128 128
128 128 128
128 128 128
128 128 128
128 128 128
128 128 128
128 128 128
128 128 128
128 128 128
128 128 128
128 128 128
128 128 128
128 128 128
192 192 192
128 128 128
128 128 128
128 128 128
128 128 128
128 128 128
128 128 128
128 128 128
128 128 128
128 128 128
128 128 128
128 128 128
128 128 128
128 128 128
128 128 128
128 128 128
128 128 128
128 128 128
128 128 128
128 128 128
128 128 128
128 128 128
128 128 128
128 128 128
128 128 128
128 128 128
128 128 128
128 128 128
128 128 128
128 128 128
128 128 128
128 128 128
128 128 128
128 128 128
128 128 128
128 128 128
128 128 128
128 128 128
64 64 64
64 64 64
64 64 64
64 64 64
64 64 64
64 64 64
128 128 128
128 128 128
128 128 128
128 128 128
128 128 128
128 128 128
128 128 128
128 128 128
128 128 128
128 128 128
128 128 128
128 128 128
128 128 128
128 128 128
128 128 128
128 128 128
128 128 128
128 128 128
128 128 128
128 128 128
128 128 128
64 64 64
64 64 64
128 128 128
128 128 128
128 128 128
128 128 128
128 128 128
128 128 128
128 128 128
128 128 128
128 128 128
64 64 64
64 64 64
64 64 64
64 64 64
64 64 64
128 128 128
128 128 128
128 128 128
128 128 128
128 128 128
128 128 128
128 128 128
192 192 192
192 192 192
192 192 192
192 192 192
256 256 256
256 256 256
256 256 256
256 256 256
256 256 256
256 256 256
256 256 256
256 256 256
256 256 256
256 256 256
256 256 256
256 256 256
256 256 256
256 256 256
256 256 256
256 256 256
256 256 256
256 256 256
256 256 256
256 256 256
256 256 256
256 256 256
256 256 256
256 256 256
256 256 256
256 256 256
256 256 256
256 256 256
256 256 256
256 256 256
256 256 256
256 256 256
256 256 256
256 256 256
192 192 192
192 192 192
192 192 192
192 192 192
192 192 192
192 192 192
192 192 192
192 192 192
192 192 192
192 192 192
192 192 192
192 192 192
192 192 192
192 192 192
192 192 192
192 192 192
192 192 192
192 192 192
192 192 192
192 192 192
192 192 192
192 192 192
192 192 192
192 192 192
192 192 192
192 192 192
192 192 192
128 128 128
128 128 128
128 128 128
192 192 192
192 192 192
192 192 192
192 192 192
128 128 128
128 128 128
128 128 128
128 128 128
128 128 128
128 128 128
128 128 128
128 128 128
128 128 128
128 128 128
128 128 128
128 128 128
128 128 128
128 128 128
128 128 128
128 128 128
128 128 128
128 128 128
128 128 128
128 128 128
128 128 128
128 128 128
128 128 128
128 128 128
128 128 128
128 128 128
128 128 128
128 128 128
128 128 128
128 128 128
128 128 128
128 128 128
128 128 128
128 128 128
128 128 128
128 128 128
128 128 128
128 128 128
128 128 128
128 128 128
128 128 128
128 128 128
128 128 128
128 128 128
128 128 128
128 128 128
128 128 128
128 128 128
128 128 128
128 128 128
128 128 128
128 128 128
128 128 128
128 128 128
128 128 128
128 128 128
64 64 64
128 128 128
128 128 128
128 128 128
128 128 128
64 64 64
128 128 128
64 64 64
128 128 128
128 128 128
128 128 128
128 128 128
128 128 128
128 128 128
128 128 128
128 128 128
128 128 128
128 128 128
128 128 128
128 128 128
128 128 128
128 128 128
128 128 128
128 128 128
128 128 128
128 128 128
128 128 128
128 128 128
128 128 128
64 64 64
64 64 64
128 128 128
128 128 128
128 128 128
128 128 128
128 128 128
128 128 128
128 128 128
128 128 128
128 128 128
128 128 128
64 64 64
64 64 64
64 64 64
64 64 64
64 64 64
128 128 128
128 128 128
128 128 128
128 128 128
128 128 128
192 192 192
192 192 192
192 192 192
192 192 192
192 192 192
256 256 256
256 256 256
256 256 256
256 256 256
256 256 256
256 256 256
256 256 256
256 256 256
256 256 256
256 256 256
256 256 256
256 256 256
256 256 256
256 256 256
256 256 256
256 256 256
256 256 256
256 256 256
256 256 256
256 256 256
256 256 256
256 256 256
256 256 256
256 256 256
256 256 256
256 256 256
256 256 256
256 256 256
256 256 256
256 256 256
256 256 256
256 256 256
256 256 256
256 256 256
192 192 192
192 192 192
192 192 192
192 192 192
192 192 192
192 192 192
192 192 192
192 192 192
192 192 192
192 192 192
192 192 192
192 192 192
192 192 192
192 192 192
192 192 192
192 192 192
192 192 192
192 192 192
192 192 192
192 192 192
192 192 192
192 192 192
192 192 192
192 192 192
192 192 192
192 192 192
192 192 192
192 192 192
128 128 128
128 128 128
128 128 128
192 192 192
192 192 192
128 128 128
128 128 128
128 128 128
128 128 128
128 128 128
128 128 128
128 128 128
128 128 128
128 128 128
128 128 128
128 128 128
128 128 128
128 128 128
128 128 128
128 128 128
128 128 128
128 128 128
128 128 128
128 128 128
128 128 128
128 128 128
128 128 128
128 128 128
128 128 128
128 128 128
128 128 128
128 128 128
128 128 128
128 128 128
128 128 128
128 128 128
128 128 128
128 128 128
128 128 128
128 128 128
128 128 128
128 128 128
128 128 128
128 128 128
128 128 128
128 128 128
128 128 128
128 128 128
128 128 128
128 128 128
128 128 128
128 128 128
128 128 128
128 128 128
128 128 128
128 128 128
128 128 128
128 128 128
128 128 128
128 128 128
64 64 64
64 64 64
64 64 64
128 128 128
128 128 128
128 128 128
128 128 128
128 128 128
128 128 128
64 64 64
128 128 128
128 128 128
128 128 128
128 128 128
128 128 128
128 128 128
128 128 128
128 128 128
128 128 128
128 128 128
128 128 128
128 128 128
128 128 128
128 128 128
128 128 128
128 128 128
128 128 128
128 128 128
128 128 128
128 128 128
128 128 128
128 128 128
64 64 64
64 64 64
128 128 128
128 128 128
128 128 128
128 128 128
128 128 128
128 128 128
128 128 128
128 128 128
128 128 128
64 64 64
64 64 64
64 64 64
64 64 64
128 128 128
128 128 128
128 128 128
128 128 128
128 128 128
128 128 128
192 192 192
192 192 192
192 192 192
192 192 192
192 192 192
256 256 256
256 256 256
256 256 256
256 256 256
256 256 256
256 256 256
256 256 256
256 256 256
256 256 256
256 256 256
256 256 256
256 256 256
256 256 256
256 256 256
256 256 256
256 256 256
256 256 256
256 256 256
256 256 256
256 256 256
256 256 256
256 256 256
256 256 256
256 256 256
256 256 256
256 256 256
256 256 256
256 256 256
256 256 256
256 256 256
192 192 192
256 256 256
256 256 256
256 256 256
256 256 256
192 192 192
256 256 256
256 256 256
256 256 256
192 192 192
256 256 256
256 256 256
192 192 192
192 192 192
192 192 192
192 192 192
192 192 192
192 192 192
192 192 192
192 192 192
192 192 192
192 192 192
192 192 192
192 192 192
192 192 192
192 192 192
192 192 192
192 192 192
192 192 192
192 192 192
192 192 192
256 256 256
128 128 128
128 128 128
128 128 128
128 128 128
192 192 192
128 128 128
128 128 128
128 128 128
128 128 128
128 128 128
128 128 128
128 128 128
128 128 128
128 128 128
128 128 128
128 128 128
128 128 128
128 128 128
128 128 128
128 128 128
128 128 128
128 128 128
128 128 128
128 128 128
128 128 128
128 128 128
128 128 128
128 128 128
128 128 128
128 128 128
128 128 128
128 128 128
128 128 128
128 128 128
128 128 128
128 128 128
128 128 128
128 128 128
128 128 128
128 128 128
128 128 128
128 128 128
128 128 128
128 128 128
128 128 128
128 128 128
128 128 128
128 128 128
128 128 128
128 128 128
128 128 128
128 128 128
128 128 128
128 128 128
128 128 128
128 128 128
128 128 128
128 128 128
128 128 128
64 64 64
64 64 64
64 64 64
64 64 64
128 128 128
64 64 64
128 128 128
128 128 128
128 128 128
128 128 128
128 128 128
128 128 128
128 128 128
128 128 128
128 128 128
128 128 128
128 128 128
128 128 128
128 128 128
128 128 128
128 128 128
128 128 128
128 128 128
128 128 128
128 128 128
128 128 128
128 128 128
128 128 128
128 128 128
128 128 128
128 128 128
128 128 128
128 128 128
64 64 64
64 64 64
128 128 128
128 128 128
128 128 128
128 128 128
128 128 128
128 128 128
128 128 128
128 128 128
128 128 128
64 64 64
64 64 64
64 64 64
128 128 128
128 128 128
128 128 128
128 128 128
128 128 128
128 128 128
128 128 128
192 192 192
192 192 192
192 192 192
192 192 192
192 192 192
256 256 256
256 256 256
256 256 256
256 256 256
256 256 256
256 256 256
256 256 256
256 256 256
256 256 256
256 256 256
256 256 256
256 256 256
256 256 256
256 256 256
256 256 256
256 256 256
256 256 256
256 256 256
256 256 256
256 256 256
256 256 256
256 256 256
256 256 256
256 256 256
256 256 256
256 256 256
256 256 256
256 256 256
256 256 256
256 256 256
256 256 256
256 256 256
256 256 256
256 256 256
256 256 256
256 256 256
256 256 256
192 192 192
256 256 256
256 256 256
192 192 192
256 256 256
192 192 192
192 192 192
192 192 192
192 192 192
192 192 192
192 192 192
192 192 192
192 192 192
192 192 192
192 192 192
192 192 192
192 192 192
192 192 192
192 192 192
192 192 192
192 192 192
192 192 192
192 192 192
192 192 192
192 192 192
192 192 192
128 128 128
128 128 128
128 128 128
128 128 128
128 128 128
128 128 128
128 128 128
128 128 128
128 128 128
128 128 128
128 128 128
128 128 128
128 128 128
128 128 128
128 128 128
128 128 128
128 128 128
128 128 128
128 128 128
128 128 128
128 128 128
128 128 128
128 128 128
128 128 128
128 128 128
128 128 128
128 128 128
128 128 128
128 128 128
128 128 128
128 128 128
128 128 128
128 128 128
128 128 128
128 128 128
128 128 128
128 128 128
128 128 128
128 128 128
128 128 128
128 128 128
128 128 128
128 128 128
128 128 128
128 128 128
128 128 128
128 128 128
128 128 128
128 128 128
128 128 128
128 128 128
128 128 128
128 128 128
128 128 128
128 128 128
128 128 128
128 128 128
64 64 64
64 64 64
64 64 64
64 64 64
64 64 64
128 128 128
128 128 128
128 128 128
128 128 128
128 128 128
128 128 128
128 128 128
128 128 128
128 128 128
128 128 128
128 128 128
128 128 128
128 128 128
128 128 128
128 128 128
128 128 128
128 128 128
128 128 128
128 128 128
128 128 128
128 128 128
128 128 128
128 128 128
128 128 128
128 128 128
128 128 128
128 128 128
128 128 128
128 128 128
64 64 64
64 64 64
64 64 64
128 128 128
128 128 128
128 128 128
128 128 128
128 128 128
128 128 128
128 128 128
128 128 128
64 64 64
64 64 64
128 128 128
128 128 128
128 128 128
128 128 128
128 128 128
128 128 128
128 128 128
128 128 128
192 192 192
192 192 192
192 192 192
192 192 192
192 192 192
192 192 192
256 256 256
256 256 256
256 256 256
256 256 256
256 256 256
256 256 256
256 256 256
256 256 256
256 256 256
256 256 256
256 256 256
256 256 256
256 256 256
256 256 256
256 256 256
256 256 256
256 256 256
256 256 256
256 256 256
256 256 256
256 256 256
256 256 256
256 256 256
256 256 256
256 256 256
256 256 256
256 256 256
256 256 256
256 256 256
256 256 256
256 256 256
256 256 256
256 256 256
256 256 256
256 256 256
256 256 256
192 192 192
256 256 256
256 256 256
192 192 192
192 192 192
192 192 192
192 192 192
192 192 192
192 192 192
192 192 192
192 192 192
192 192 192
192 192 192
192 192 192
192 192 192
192 192 192
192 192 192
192 192 192
192 192 192
192 192 192
192 192 192
192 192 192
192 192 192
192 192 192
192 192 192
192 192 192
192 192 192
128 128 128
128 128 128
128 128 128
128 128 128
128 128 128
128 128 128
128 128 128
128 128 128
128 128 128
128 128 128
128 128 128
128 128 128
128 128 128
128 128 128
128 128 128
128 128 128
128 128 128
128 128 128
128 128 128
128 128 128
128 128 128
128 128 128
128 128 128
192 192 192
128 128 128
128 128 128
128 128 128
128 128 128
128 128 128
128 128 128
128 128 128
128 128 128
128 128 128
128 128 128
128 128 128
128 128 128
128 128 128
128 128 128
128 128 128
128 128 128
128 128 128
128 128 128
128 128 128
128 128 128
128 128 128
128 128 128
128 128 128
128 128 128
128 128 128
128 128 128
128 128 128
128 128 128
128 128 128
128 128 128
64 64 64
64 64 64
64 64 64
64 64 64
64 64 64
128 128 128
128 128 128
128 128 128
128 128 128
128 128 128
128 128 128
128 128 128
128 128 128
128 128 128
128 128 128
128 128 128
128 128 128
128 128 128
128 128 128
128 128 128
128 128 128
128 128 128
128 128 128
128 128 128
128 128 128
128 128 128
128 128 128
128 128 128
128 128 128
128 128 128
128 128 128
128 128 128
128 128 128
128 128 128
128 128 128
128 128 128
64 64 64
64 64 64
64 64 64
128 128 128
128 128 128
128 128 128
128 128 128
128 128 128
128 128 128
128 128 128
128 128 128
64 64 64
64 64 64
64 64 64
128 128 128
128 128 128
128 128 128
128 128 128
128 128 128
128 128 128
128 128 128
192 192 192
192 192 192
192 192 192
192 192 192
192 192 192
192 192 192
256 256 256
256 256 256
256 256 256
256 256 256
256 256 256
256 256 256
256 256 256
256 256 256
256 256 256
256 256 256
256 256 256
256 256 256
256 256 256
256 256 256
256 256 256
256 256 256
256 256 256
256 256 256
256 256 256
256 256 256
256 256 256
256 256 256
256 256 256
256 256 256
256 256 256
256 256 256
256 256 256
256 256 256
256 256 256
256 256 256
256 256 256
256 256 256
256 256 256
256 256 256
256 256 256
256 256 256
192 192 192
256 256 256
192 192 192
192 192 192
192 192 192
192 192 192
192 192 192
192 192 192
192 192 192
192 192 192
192 192 192
192 192 192
192 192 192
192 192 192
192 192 192
192 192 192
192 192 192
192 192 192
192 192 192
192 192 192
192 192 192
192 192 192
192 192 192
192 192 192
192 192 192
192 192 192
256 256 256
192 192 192
128 128 128
128 128 128
128 128 128
128 128 128
128 128 128
128 128 128
128 128 128
128 128 128
128 128 128
128 128 128
128 128 128
128 128 128
128 128 128
128 128 128
128 128 128
128 128 128
128 128 128
128 128 128
192 192 192
128 128 128
128 128 128
128 128 128
128 128 128
128 128 128
128 128 128
128 128 128
128 128 128
128 128 128
128 128 128
128 128 128
128 128 128
128 128 128
128 128 128
128 128 128
128 128 128
128 128 128
128 128 128
128 128 128
128 128 128
128 128 128
128 128 128
128 128 128
128 128 128
128 128 128
128 128 128
128 128 128
128 128 128
128 128 128
128 128 128
128 128 128
128 128 128
128 128 128
64 64 64
64 64 64
128 128 128
64 64 64
64 64 64
64 64 64
128 128 128
128 128 128
128 128 128
128 128 128
128 128 128
128 128 128
128 128 128
128 128 128
128 128 128
128 128 128
128 128 128
128 128 128
128 128 128
128 128 128
128 128 128
128 128 128
128 128 128
128 128 128
128 128 128
128 128 128
128 128 128
128 128 128
128 128 128
128 128 128
128 128 128
128 128 128
128 128 128
128 128 128
128 128 128
128 128 128
128 128 128
128 128 128
64 64 64
64 64 64
64 64 64
128 128 128
128 128 128
128 128 128
128 128 128
128 128 128
128 128 128
128 128 128
64 64 64
64 64 64
128 128 128
64 64 64
128 128 128
128 128 128
128 128 128
128 128 128
128 128 128
128 128 128
192 192 192
192 192 192
192 192 192
192 192 192
192 192 192
256 256 256
256 256 256
256 256 256
256 256 256
256 256 256
256 256 256
256 256 256
256 256 256
256 256 256
256 256 256
256 256 256
256 256 256
256 256 256
256 256 256
256 256 256
256 256 256
256 256 256
256 256 256
256 256 256
256 256 256
256 256 256
256 256 256
256 256 256
256 256 256
256 256 256
256 256 256
256 256 256
256 256 256
256 256 256
256 256 256
256 256 256
256 256 256
256 256 256
256 256 256
256 256 256
256 256 256
256 256 256
192 192 192
256 256 256
256 256 256
256 256 256
192 192 192
192 192 192
256 256 256
256 256 256
192 192 192
192 192 192
192 192 192
192 192 192
192 192 192
192 192 192
192 192 192
192 192 192
192 192 192
192 192 192
192 192 192
192 192 192
192 192 192
192 192 192
192 192 192
192 192 192
192 192 192
192 192 192
192 192 192
256 256 256
192 192 192
128 128 128
128 128 128
128 128 128
128 128 128
128 128 128
128 128 128
128 128 128
128 128 128
128 128 128
128 128 128
128 128 128
128 128 128
128 128 128
128 128 128
128 128 128
128 128 128
128 128 128
128 128 128
128 128 128
128 128 128
128 128 128
128 128 128
128 128 128
128 128 128
128 128 128
128 128 128
128 128 128
128 128 128
128 128 128
128 128 128
128 128 128
128 128 128
128 128 128
128 128 128
128 128 128
128 128 128
128 128 128
128 128 128
128 128 128
128 128 128
128 128 128
128 128 128
128 128 128
128 128 128
128 128 128
128 128 128
128 128 128
128 128 128
128 128 128
128 128 128
64 64 64
64 64 64
128 128 128
128 128 128
128 128 128
128 128 128
128 128 128
128 128 128
128 128 128
128 128 128
128 128 128
128 128 128
128 128 128
128 128 128
128 128 128
128 128 128
128 128 128
128 128 128
128 128 128
128 128 128
128 128 128
128 128 128
128 128 128
128 128 128
128 128 128
128 128 128
128 128 128
128 128 128
128 128 128
128 128 128
128 128 128
128 128 128
128 128 128
128 128 128
128 128 128
128 128 128
128 128 128
128 128 128
128 128 128
64 64 64
64 64 64
128 128 128
128 128 128
128 128 128
128 128 128
128 128 128
128 128 128
128 128 128
128 128 128
64 64 64
64 64 64
64 64 64
64 64 64
128 128 128
128 128 128
128 128 128
128 128 128
128 128 128
192 192 192
192 192 192
192 192 192
192 192 192
192 192 192
192 192 192
256 256 256
256 256 256
256 256 256
256 256 256
256 256 256
256 256 256
256 256 256
256 256 256
256 256 256
256 256 256
256 256 256
256 256 256
256 256 256
256 256 256
256 256 256
256 256 256
256 256 256
256 256 256
256 256 256
256 256 256
256 256 256
256 256 256
256 256 256
256 256 256
256 256 256
256 256 256
256 256 256
256 256 256
256 256 256
256 256 256
256 256 256
256 256 256
256 256 256
256 256 256
256 256 256
256 256 256
256 256 256
256 256 256
256 256 256
256 256 256
256 256 256
256 256 256
192 192 192
192 192 192
192 192 192
192 192 192
192 192 192
192 192 192
192 192 192
192 192 192
192 192 192
192 192 192
192 192 192
192 192 192
192 192 192
192 192 192
192 192 192
192 192 192
192 192 192
192 192 192
192 192 192
192 192 192
192 192 192
192 192 192
192 192 192
256 256 256
192 192 192
128 128 128
128 128 128
128 128 128
128 128 128
128 128 128
128 128 128
128 128 128
128 128 128
128 128 128
128 128 128
128 128 128
128 128 128
128 128 128
128 128 128
128 128 128
128 128 128
128 128 128
128 128 128
128 128 128
128 128 128
128 128 128
128 128 128
128 128 128
128 128 128
128 128 128
128 128 128
128 128 128
128 128 128
128 128 128
128 128 128
128 128 128
128 128 128
128 128 128
128 128 128
128 128 128
128 128 128
128 128 128
128 128 128
128 128 128
128 128 128
128 128 128
128 128 128
128 128 128
128 128 128
128 128 128
128 128 128
128 128 128
128 128 128
64 64 64
64 64 64
128 128 128
128 128 128
128 128 128
128 128 128
128 128 128
128 128 128
128 128 128
128 128 128
128 128 128
128 128 128
128 128 128
128 128 128
128 128 128
128 128 128
128 128 128
128 128 128
128 128 128
128 128 128
128 128 128
128 128 128
128 128 128
128 128 128
128 128 128
128 128 128
128 128 128
128 128 128
128 128 128
128 128 128
128 128 128
128 128 128
128 128 128
128 128 128
128 128 128
128 128 128
128 128 128
128 128 128
128 128 128
128 128 128
128 128 128
64 64 64
128 128 128
128 128 128
128 128 128
128 128 128
128 128 128
128 128 128
128 128 128
128 128 128
64 64 64
64 64 64
128 128 128
64 64 64
128 128 128
128 128 128
128 128 128
128 128 128
128 128 128
192 192 192
192 192 192
192 192 192
192 192 192
192 192 192
192 192 192
256 256 256
256 256 256
256 256 256
256 256 256
256 256 256
256 256 256
256 256 256
256 256 256
256 256 256
256 256 256
256 256 256
256 256 256
256 256 256
256 256 256
256 256 256
256 256 256
256 256 256
256 256 256
256 256 256
256 256 256
256 256 256
256 256 256
256 256 256
256 256 256
256 256 256
256 256 256
256 256 256
256 256 256
256 256 256
256 256 256
256 256 256
256 256 256
256 256 256
256 256 256
256 256 256
256 256 256
256 256 256
256 256 256
256 256 256
256 256 256
256 256 256
256 256 256
256 256 256
256 256 256
256 256 256
192 192 192
256 256 256
256 256 256
192 192 192
192 192 192
192 192 192
192 192 192
192 192 192
192 192 192
192 192 192
192 192 192
192 192 192
192 192 192
192 192 192
192 192 192
192 192 192
192 192 192
192 192 192
192 192 192
192 192 192
192 192 192
256 256 256
192 192 192
128 128 128
128 128 128
128 128 128
128 128 128
128 128 128
128 128 128
128 128 128
128 128 128
128 128 128
128 128 128
128 128 128
128 128 128
128 128 128
128 128 128
128 128 128
128 128 128
128 128 128
128 128 128
128 128 128
128 128 128
128 128 128
128 128 128
128 128 128
128 128 128
128 128 128
128 128 128
128 128 128
128 128 128
128 128 128
128 128 128
128 128 128
128 128 128
128 128 128
128 128 128
128 128 128
128 128 128
128 128 128
128 128 128
128 128 128
128 128 128
128 128 128
128 128 128
128 128 128
128 128 128
128 128 128
128 128 128
64 64 64
128 128 128
128 128 128
128 128 128
128 128 128
128 128 128
128 128 128
128 128 128
128 128 128
128 128 128
128 128 128
128 128 128
128 128 128
128 128 128
128 128 128
128 128 128
128 128 128
128 128 128
128 128 128
128 128 128
128 128 128
128 128 128
128 128 128
128 128 128
128 128 128
128 128 128
128 128 128
128 128 128
128 128 128
128 128 128
128 128 128
128 128 128
128 128 128
128 128 128
128 128 128
128 128 128
128 128 128
128 128 128
128 128 128
128 128 128
128 128 128
128 128 128
128 128 128
128 128 128
128 128 128
128 128 128
128 128 128
64 64 64
128 128 128
128 128 128
128 128 128
64 64 64
64 64 64
128 128 128
128 128 128
128 128 128
128 128 128
128 128 128
128 128 128
128 128 128
192 192 192
192 192 192
192 192 192
192 192 192
192 192 192
192 192 192
256 256 256
256 256 256
256 256 256
256 256 256
256 256 256
256 256 256
256 256 256
256 256 256
256 256 256
256 256 256
256 256 256
256 256 256
256 256 256
256 256 256
256 256 256
256 256 256
256 256 256
256 256 256
256 256 256
256 256 256
256 256 256
256 256 256
256 256 256
256 256 256
256 256 256
256 256 256
256 256 256
256 256 256
256 256 256
256 256 256
256 256 256
256 256 256
256 256 256
256 256 256
256 256 256
256 256 256
256 256 256
256 256 256
256 256 256
192 192 192
256 256 256
192 192 192
192 192 192
256 256 256
192 192 192
256 256 256
192 192 192
192 192 192
192 192 192
192 192 192
192 192 192
256 256 256
192 192 192
192 192 192
192 192 192
192 192 192
192 192 192
192 192 192
192 192 192
192 192 192
192 192 192
192 192 192
192 192 192
192 192 192
192 192 192
192 192 192
192 192 192
256 256 256
192 192 192
128 128 128
128 128 128
128 128 128
128 128 128
128 128 128
128 128 128
128 128 128
128 128 128
128 128 128
128 128 128
128 128 128
128 128 128
128 128 128
128 128 128
128 128 128
128 128 128
128 128 128
128 128 128
128 128 128
128 128 128
128 128 128
128 128 128
128 128 128
128 128 128
128 128 128
128 128 128
128 128 128
128 128 128
128 128 128
128 128 128
128 128 128
128 128 128
128 128 128
128 128 128
128 128 128
128 128 128
128 128 128
128 128 128
128 128 128
128 128 128
128 128 128
128 128 128
128 128 128
128 128 128
64 64 64
128 128 128
128 128 128
128 128 128
128 128 128
128 128 128
128 128 128
128 128 128
128 128 128
128 128 128
128 128 128
128 128 128
128 128 128
128 128 128
128 128 128
192 192 192
128 128 128
192 192 192
128 128 128
128 128 128
128 128 128
128 128 128
128 128 128
128 128 128
128 128 128
128 128 128
128 128 128
128 128 128
128 128 128
128 128 128
128 128 128
128 128 128
128 128 128
128 128 128
128 128 128
128 128 128
128 128 128
128 128 128
128 128 128
128 128 128
128 128 128
128 128 128
128 128 128
128 128 128
128 128 128
64 64 64
64 64 64
64 64 64
128 128 128
128 128 128
128 128 128
128 128 128
128 128 128
64 64 64
64 64 64
64 64 64
128 128 128
64 64 64
128 128 128
128 128 128
192 192 192
192 192 192
192 192 192
192 192 192
192 192 192
192 192 192
192 192 192
192 192 192
256 256 256
256 256 256
256 256 256
256 256 256
256 256 256
256 256 256
256 256 256
256 256 256
256 256 256
256 256 256
256 256 256
256 256 256
256 256 256
192 192 192
256 256 256
256 256 256
256 256 256
256 256 256
256 256 256
256 256 256
256 256 256
256 256 256
256 256 256
256 256 256
256 256 256
256 256 256
256 256 256
256 256 256
256 256 256
256 256 256
256 256 256
256 256 256
256 256 256
256 256 256
256 256 256
256 256 256
256 256 256
256 256 256
256 256 256
256 256 256
256 256 256
256 256 256
192 192 192
192 192 192
192 192 192
192 192 192
192 192 192
256 256 256
256 256 256
256 256 256
192 192 192
192 192 192
192 192 192
192 192 192
192 192 192
192 192 192
192 192 192
192 192 192
192 192 192
192 192 192
192 192 192
192 192 192
192 192 192
192 192 192
192 192 192
192 192 192
192 192 192
256 256 256
192 192 192
128 128 128
128 128 128
128 128 128
128 128 128
128 128 128
128 128 128
128 128 128
128 128 128
128 128 128
128 128 128
128 128 128
128 128 128
128 128 128
128 128 128
128 128 128
128 128 128
128 128 128
128 128 128
128 128 128
128 128 128
128 128 128
128 128 128
128 128 128
128 128 128
128 128 128
128 128 128
128 128 128
128 128 128
128 128 128
128 128 128
128 128 128
128 128 128
128 128 128
128 128 128
128 128 128
128 128 128
128 128 128
128 128 128
128 128 128
128 128 128
128 128 128
128 128 128
64 64 64
128 128 128
128 128 128
64 64 64
128 128 128
128 128 128
128 128 128
128 128 128
128 128 128
128 128 128
128 128 128
128 128 128
128 128 128
128 128 128
192 192 192
192 192 192
192 192 192
192 192 192
192 192 192
192 192 192
128 128 128
128 128 128
128 128 128
128 128 128
128 128 128
128 128 128
128 128 128
128 128 128
128 128 128
128 128 128
128 128 128
128 128 128
128 128 128
128 128 128
128 128 128
128 128 128
128 128 128
128 128 128
128 128 128
128 128 128
128 128 128
128 128 128
128 128 128
128 128 128
64 64 64
128 128 128
128 128 128
192 192 192
256 256 256
256 256 256
256 256 256
256 256 256
256 256 256
256 256 256
256 256 256
256 256 256
256 256 256
192 192 192
192 192 192
128 128 128
128 128 128
192 192 192
192 192 192
192 192 192
192 192 192
192 192 192
192 192 192
192 192 192
256 256 256
256 256 256
256 256 256
256 256 256
256 256 256
256 256 256
256 256 256
256 256 256
256 256 256
256 256 256
256 256 256
256 256 256
256 256 256
256 256 256
256 256 256
256 256 256
256 256 256
256 256 256
256 256 256
256 256 256
256 256 256
256 256 256
256 256 256
256 256 256
256 256 256
256 256 256
256 256 256
256 256 256
256 256 256
256 256 256
256 256 256
256 256 256
256 256 256
256 256 256
256 256 256
256 256 256
256 256 256
256 256 256
256 256 256
256 256 256
256 256 256
256 256 256
256 256 256
256 256 256
256 256 256
256 256 256
256 256 256
192 192 192
192 192 192
256 256 256
256 256 256
192 192 192
192 192 192
192 192 192
192 192 192
192 192 192
192 192 192
192 192 192
192 192 192
192 192 192
192 192 192
192 192 192
192 192 192
192 192 192
192 192 192
192 192 192
192 192 192
192 192 192
192 192 192
192 192 192
256 256 256
128 128 128
128 128 128
128 128 128
128 128 128
128 128 128
128 128 128
128 128 128
128 128 128
128 128 128
128 128 128
128 128 128
128 128 128
128 128 128
128 128 128
128 128 128
128 128 128
128 128 128
128 128 128
128 128 128
128 128 128
128 128 128
128 128 128
128 128 128
128 128 128
128 128 128
128 128 128
128 128 128
128 128 128
128 128 128
128 128 128
128 128 128
128 128 128
128 128 128
128 128 128
128 128 128
128 128 128
128 128 128
128 128 128
128 128 128
128 128 128
64 64 64
128 128 128
128 128 128
64 64 64
128 128 128
128 128 128
128 128 128
128 128 128
128 128 128
128 128 128
128 128 128
128 128 128
128 128 128
128 128 128
192 192 192
192 192 192
192 192 192
192 192 192
192 192 192
192 192 192
192 192 192
192 192 192
128 128 128
128 128 128
128 128 128
128 128 128
128 128 128
128 128 128
128 128 128
128 128 128
128 128 128
128 128 128
128 128 128
128 128 128
128 128 128
128 128 128
128 128 128
128 128 128
128 128 128
128 128 128
128 128 128
128 128 128
128 128 128
128 128 128
128 128 128
192 192 192
256 256 256
256 256 256
256 256 256
256 256 256
256 256 256
256 256 256
256 256 256
256 256 256
256 256 256
256 256 256
256 256 256
256 256 256
256 256 256
256 256 256
256 256 256
256 256 256
256 256 256
256 256 256
256 256 256
192 192 192
192 192 192
192 192 192
192 192 192
256 256 256
256 256 256
256 256 256
256 256 256
256 256 256
256 256 256
256 256 256
256 256 256
256 256 256
256 256 256
256 256 256
256 256 256
256 256 256
256 256 256
256 256 256
256 256 256
256 256 256
256 256 256
256 256 256
256 256 256
256 256 256
256 256 256
256 256 256
256 256 256
256 256 256
256 256 256
256 256 256
256 256 256
256 256 256
256 256 256
256 256 256
256 256 256
256 256 256
256 256 256
256 256 256
256 256 256
256 256 256
256 256 256
256 256 256
256 256 256
256 256 256
256 256 256
256 256 256
256 256 256
256 256 256
256 256 256
256 256 256
256 256 256
256 256 256
256 256 256
256 256 256
192 192 192
192 192 192
192 192 192
192 192 192
192 192 192
192 192 192
192 192 192
192 192 192
192 192 192
192 192 192
192 192 192
192 192 192
192 192 192
192 192 192
192 192 192
192 192 192
192 192 192
192 192 192
192 192 192
192 192 192
256 256 256
128 128 128
128 128 128
128 128 128
128 128 128
128 128 128
128 128 128
128 128 128
128 128 128
128 128 128
128 128 128
128 128 128
128 128 128
128 128 128
128 128 128
128 128 128
128 128 128
128 128 128
128 128 128
128 128 128
128 128 128
128 128 128
128 128 128
128 128 128
128 128 128
128 128 128
128 128 128
128 128 128
128 128 128
128 128 128
128 128 128
128 128 128
128 128 128
128 128 128
128 128 128
128 128 128
128 128 128
128 128 128
128 128 128
64 64 64
128 128 128
128 128 128
64 64 64
128 128 128
128 128 128
128 128 128
128 128 128
64 64 64
128 128 128
128 128 128
128 128 128
128 128 128
192 192 192
192 192 192
192 192 192
192 192 192
192 192 192
192 192 192
192 192 192
192 192 192
192 192 192
192 192 192
128 128 128
128 128 128
128 128 128
128 128 128
128 128 128
128 128 128
128 128 128
128 128 128
128 128 128
128 128 128
128 128 128
128 128 128
128 128 128
128 128 128
128 128 128
128 128 128
128 128 128
128 128 128
128 128 128
128 128 128
128 128 128
192 192 192
256 256 256
256 256 256
256 256 256
256 256 256
256 256 256
256 256 256
256 256 256
256 256 256
256 256 256
256 256 256
256 256 256
256 256 256
256 256 256
256 256 256
256 256 256
256 256 256
256 256 256
256 256 256
256 256 256
256 256 256
256 256 256
256 256 256
256 256 256
256 256 256
256 256 256
256 256 256
256 256 256
256 256 256
256 256 256
256 256 256
256 256 256
256 256 256
256 256 256
256 256 256
256 256 256
256 256 256
256 256 256
256 256 256
256 256 256
256 256 256
256 256 256
256 256 256
256 256 256
256 256 256
256 256 256
256 256 256
256 256 256
256 256 256
256 256 256
256 256 256
256 256 256
256 256 256
256 256 256
256 256 256
256 256 256
256 256 256
256 256 256
256 256 256
256 256 256
256 256 256
256 256 256
256 256 256
256 256 256
256 256 256
256 256 256
256 256 256
256 256 256
256 256 256
256 256 256
256 256 256
256 256 256
256 256 256
256 256 256
256 256 256
256 256 256
192 192 192
192 192 192
192 192 192
192 192 192
192 192 192
192 192 192
192 192 192
192 192 192
192 192 192
192 192 192
192 192 192
192 192 192
192 192 192
192 192 192
192 192 192
192 192 192
192 192 192
192 192 192
192 192 192
192 192 192
192 192 192
192 192 192
256 256 256
192 192 192
128 128 128
128 128 128
128 128 128
128 128 128
128 128 128
128 128 128
128 128 128
128 128 128
128 128 128
128 128 128
128 128 128
128 128 128
128 128 128
128 128 128
128 128 128
128 128 128
128 128 128
128 128 128
128 128 128
128 128 128
128 128 128
128 128 128
128 128 128
128 128 128
128 128 128
128 128 128
128 128 128
128 128 128
128 128 128
128 128 128
128 128 128
128 128 128
128 128 128
128 128 128
64 64 64
64 64 64
128 128 128
64 64 64
64 64 64
128 128 128
128 128 128
128 128 128
128 128 128
128 128 128
128 128 128
128 128 128
128 128 128
128 128 128
128 128 128
192 192 192
192 192 192
192 192 192
192 192 192
192 192 192
192 192 192
192 192 192
192 192 192
192 192 192
192 192 192
192 192 192
192 192 192
128 128 128
128 128 128
128 128 128
128 128 128
128 128 128
128 128 128
128 128 128
128 128 128
128 128 128
128 128 128
128 128 128
128 128 128
128 128 128
128 128 128
128 128 128
128 128 128
128 128 128
128 128 128
256 256 256
256 256 256
256 256 256
256 256 256
256 256 256
256 256 256
256 256 256
256 256 256
256 256 256
256 256 256
256 256 256
256 256 256
256 256 256
256 256 256
256 256 256
256 256 256
256 256 256
256 256 256
256 256 256
256 256 256
256 256 256
256 256 256
256 256 256
256 256 256
256 256 256
256 256 256
256 256 256
256 256 256
256 256 256
256 256 256
256 256 256
256 256 256
256 256 256
256 256 256
256 256 256
256 256 256
256 256 256
256 256 256
256 256 256
256 256 256
256 256 256
256 256 256
256 256 256
256 256 256
256 256 256
256 256 256
256 256 256
256 256 256
256 256 256
256 256 256
256 256 256
256 256 256
256 256 256
256 256 256
256 256 256
256 256 256
256 256 256
256 256 256
256 256 256
256 256 256
256 256 256
256 256 256
256 256 256
256 256 256
256 256 256
256 256 256
256 256 256
256 256 256
256 256 256
256 256 256
256 256 256
256 256 256
256 256 256
256 256 256
256 256 256
256 256 256
256 256 256
256 256 256
256 256 256
192 192 192
192 192 192
192 192 192
192 192 192
192 192 192
192 192 192
192 192 192
192 192 192
192 192 192
192 192 192
192 192 192
192 192 192
192 192 192
192 192 192
192 192 192
192 192 192
192 192 192
192 192 192
192 192 192
192 192 192
192 192 192
256 256 256
192 192 192
128 128 128
128 128 128
128 128 128
128 128 128
128 128 128
128 128 128
128 128 128
128 128 128
128 128 128
128 128 128
128 128 128
128 128 128
128 128 128
128 128 128
128 128 128
128 128 128
128 128 128
128 128 128
128 128 128
128 128 128
128 128 128
128 128 128
128 128 128
128 128 128
128 128 128
128 128 128
128 128 128
128 128 128
128 128 128
128 128 128
128 128 128
128 128 128
128 128 128
64 64 64
128 128 128
64 64 64
64 64 64
128 128 128
128 128 128
128 128 128
128 128 128
128 128 128
128 128 128
128 128 128
128 128 128
128 128 128
192 192 192
192 192 192
192 192 192
192 192 192
192 192 192
192 192 192
192 192 192
192 192 192
192 192 192
192 192 192
192 192 192
192 192 192
192 192 192
192 192 192
128 128 128
128 128 128
128 128 128
128 128 128
128 128 128
128 128 128
128 128 128
128 128 128
128 128 128
128 128 128
128 128 128
128 128 128
128 128 128
128 128 128
128 128 128
128 128 128
192 192 192
256 256 256
256 256 256
256 256 256
256 256 256
256 256 256
256 256 256
256 256 256
256 256 256
256 256 256
256 256 256
256 256 256
256 256 256
256 256 256
256 256 256
256 256 256
256 256 256
256 256 256
256 256 256
256 256 256
256 256 256
256 256 256
256 256 256
256 256 256
256 256 256
256 256 256
256 256 256
256 256 256
256 256 256
256 256 256
256 256 256
256 256 256
256 256 256
256 256 256
256 256 256
256 256 256
256 256 256
256 256 256
256 256 256
256 256 256
256 256 256
256 256 256
256 256 256
256 256 256
256 256 256
256 256 256
256 256 256
256 256 256
256 256 256
256 256 256
256 256 256
256 256 256
256 256 256
256 256 256
256 256 256
256 256 256
256 256 256
256 256 256
256 256 256
256 256 256
256 256 256
256 256 256
256 256 256
256 256 256
192 192 192
256 256 256
256 256 256
256 256 256
256 256 256
256 256 256
256 256 256
192 192 192
256 256 256
256 256 256
256 256 256
256 256 256
256 256 256
256 256 256
256 256 256
256 256 256
256 256 256
256 256 256
192 192 192
192 192 192
192 192 192
192 192 192
192 192 192
192 192 192
192 192 192
192 192 192
192 192 192
192 192 192
192 192 192
192 192 192
192 192 192
192 192 192
192 192 192
192 192 192
192 192 192
192 192 192
192 192 192
192 192 192
192 192 192
256 256 256
192 192 192
128 128 128
128 128 128
128 128 128
128 128 128
128 128 128
128 128 128
128 128 128
128 128 128
128 128 128
128 128 128
128 128 128
128 128 128
128 128 128
128 128 128
128 128 128
128 128 128
128 128 128
128 128 128
128 128 128
128 128 128
128 128 128
128 128 128
128 128 128
128 128 128
128 128 128
128 128 128
128 128 128
128 128 128
128 128 128
128 128 128
64 64 64
128 128 128
128 128 128
64 64 64
64 64 64
64 64 64
128 128 128
128 128 128
128 128 128
128 128 128
128 128 128
128 128 128
128 128 128
128 128 128
128 128 128
192 192 192
192 192 192
192 192 192
192 192 192
192 192 192
192 192 192
192 192 192
192 192 192
192 192 192
192 192 192
192 192 192
192 192 192
192 192 192
192 192 192
192 192 192
192 192 192
128 128 128
128 128 128
128 128 128
128 128 128
128 128 128
128 128 128
128 128 128
128 128 128
128 128 128
128 128 128
128 128 128
192 192 192
256 256 256
256 256 256
256 256 256
256 256 256
256 256 256
256 256 256
256 256 256
256 256 256
256 256 256
256 256 256
256 256 256
256 256 256
256 256 256
256 256 256
256 256 256
256 256 256
256 256 256
256 256 256
256 256 256
256 256 256
256 256 256
256 256 256
256 256 256
256 256 256
256 256 256
256 256 256
256 256 256
256 256 256
256 256 256
256 256 256
256 256 256
256 256 256
256 256 256
256 256 256
256 256 256
256 256 256
256 256 256
256 256 256
256 256 256
256 256 256
256 256 256
256 256 256
256 256 256
256 256 256
256 256 256
256 256 256
256 256 256
256 256 256
256 256 256
256 256 256
256 256 256
256 256 256
256 256 256
256 256 256
256 256 256
256 256 256
256 256 256
256 256 256
192 192 192
192 192 192
256 256 256
256 256 256
256 256 256
256 256 256
256 256 256
256 256 256
192 192 192
192 192 192
192 192 192
192 192 192
192 192 192
256 256 256
256 256 256
192 192 192
192 192 192
256 256 256
256 256 256
256 256 256
256 256 256
256 256 256
256 256 256
256 256 256
256 256 256
256 256 256
256 256 256
256 256 256
192 192 192
192 192 192
192 192 192
192 192 192
192 192 192
192 192 192
192 192 192
192 192 192
192 192 192
192 192 192
192 192 192
192 192 192
192 192 192
192 192 192
192 192 192
192 192 192
192 192 192
192 192 192
192 192 192
192 192 192
192 192 192
192 192 192
128 128 128
128 128 128
128 128 128
128 128 128
128 128 128
128 128 128
128 128 128
128 128 128
128 128 128
128 128 128
128 128 128
128 128 128
128 128 128
128 128 128
128 128 128
128 128 128
128 128 128
128 128 128
128 128 128
128 128 128
128 128 128
128 128 128
128 128 128
128 128 128
128 128 128
128 128 128
128 128 128
128 128 128
128 128 128
128 128 128
128 128 128
64 64 64
64 64 64
128 128 128
128 128 128
128 128 128
128 128 128
128 128 128
128 128 128
128 128 128
128 128 128
128 128 128
192 192 192
192 192 192
192 192 192
192 192 192
192 192 192
192 192 192
192 192 192
192 192 192
192 192 192
192 192 192
192 192 192
192 192 192
192 192 192
192 192 192
192 192 192
192 192 192
192 192 192
192 192 192
128 128 128
128 128 128
128 128 128
128 128 128
128 128 128
128 128 128
128 128 128
128 128 128
128 128 128
192 192 192
256 256 256
256 256 256
256 256 256
256 256 256
256 256 256
256 256 256
256 256 256
256 256 256
256 256 256
256 256 256
256 256 256
256 256 256
256 256 256
256 256 256
256 256 256
256 256 256
256 256 256
256 256 256
256 256 256
256 256 256
256 256 256
256 256 256
256 256 256
256 256 256
256 256 256
256 256 256
256 256 256
256 256 256
256 256 256
256 256 256
256 256 256
256 256 256
256 256 256
256 256 256
256 256 256
256 256 256
256 256 256
256 256 256
256 256 256
256 256 256
256 256 256
256 256 256
256 256 256
256 256 256
256 256 256
256 256 256
256 256 256
256 256 256
256 256 256
256 256 256
256 256 256
256 256 256
256 256 256
192 192 192
192 192 192
192 192 192
192 192 192
192 192 192
192 192 192
192 192 192
192 192 192
192 192 192
192 192 192
192 192 192
192 192 192
192 192 192
192 192 192
192 192 192
256 256 256
192 192 192
192 192 192
192 192 192
192 192 192
192 192 192
192 192 192
192 192 192
192 192 192
256 256 256
256 256 256
256 256 256
256 256 256
256 256 256
256 256 256
256 256 256
192 192 192
256 256 256
256 256 256
256 256 256
256 256 256
192 192 192
192 192 192
192 192 192
192 192 192
192 192 192
192 192 192
192 192 192
192 192 192
192 192 192
192 192 192
192 192 192
192 192 192
192 192 192
192 192 192
192 192 192
192 192 192
192 192 192
192 192 192
192 192 192
192 192 192
256 256 256
192 192 192
128 128 128
128 128 128
128 128 128
128 128 128
128 128 128
128 128 128
128 128 128
128 128 128
128 128 128
128 128 128
128 128 128
128 128 128
128 128 128
128 128 128
128 128 128
128 128 128
128 128 128
128 128 128
128 128 128
128 128 128
128 128 128
128 128 128
128 128 128
128 128 128
128 128 128
128 128 128
128 128 128
128 128 128
128 128 128
64 64 64
64 64 64
64 64 64
128 128 128
128 128 128
128 128 128
128 128 128
128 128 128
128 128 128
128 128 128
128 128 128
192 192 192
192 192 192
192 192 192
192 192 192
192 192 192
192 192 192
192 192 192
192 192 192
192 192 192
192 192 192
192 192 192
192 192 192
192 192 192
192 192 192
192 192 192
192 192 192
192 192 192
192 192 192
192 192 192
128 128 128
128 128 128
128 128 128
128 128 128
128 128 128
128 128 128
192 192 192
256 256 256
256 256 256
256 256 256
256 256 256
256 256 256
256 256 256
256 256 256
256 256 256
256 256 256
256 256 256
256 256 256
256 256 256
256 256 256
256 256 256
256 256 256
256 256 256
256 256 256
256 256 256
256 256 256
256 256 256
256 256 256
256 256 256
256 256 256
256 256 256
256 256 256
256 256 256
256 256 256
256 256 256
256 256 256
256 256 256
256 256 256
256 256 256
256 256 256
256 256 256
256 256 256
256 256 256
256 256 256
256 256 256
256 256 256
256 256 256
256 256 256
256 256 256
256 256 256
256 256 256
256 256 256
256 256 256
256 256 256
256 256 256
256 256 256
256 256 256
256 256 256
256 256 256
256 256 256
192 192 192
192 192 192
192 192 192
192 192 192
192 192 192
192 192 192
192 192 192
192 192 192
192 192 192
192 192 192
192 192 192
192 192 192
192 192 192
192 192 192
192 192 192
192 192 192
128 128 128
128 128 128
192 192 192
128 128 128
128 128 128
192 192 192
192 192 192
192 192 192
192 192 192
192 192 192
192 192 192
192 192 192
192 192 192
192 192 192
256 256 256
192 192 192
192 192 192
192 192 192
256 256 256
256 256 256
192 192 192
256 256 256
256 256 256
256 256 256
192 192 192
192 192 192
192 192 192
192 192 192
192 192 192
192 192 192
192 192 192
192 192 192
192 192 192
192 192 192
192 192 192
192 192 192
192 192 192
192 192 192
192 192 192
192 192 192
192 192 192
192 192 192
192 192 192
192 192 192
256 256 256
128 128 128
128 128 128
128 128 128
128 128 128
128 128 128
128 128 128
128 128 128
128 128 128
128 128 128
128 128 128
128 128 128
128 128 128
128 128 128
128 128 128
128 128 128
128 128 128
128 128 128
128 128 128
128 128 128
128 128 128
128 128 128
128 128 128
128 128 128
128 128 128
128 128 128
128 128 128
128 128 128
128 128 128
128 128 128
64 64 64
64 64 64
64 64 64
128 128 128
128 128 128
128 128 128
128 128 128
128 128 128
128 128 128
128 128 128
192 192 192
192 192 192
192 192 192
192 192 192
192 192 192
192 192 192
192 192 192
192 192 192
192 192 192
192 192 192
192 192 192
192 192 192
192 192 192
192 192 192
192 192 192
192 192 192
192 192 192
192 192 192
128 128 128
128 128 128
192 192 192
192 192 192
128 128 128
128 128 128
192 192 192
256 256 256
256 256 256
256 256 256
256 256 256
256 256 256
256 256 256
256 256 256
256 256 256
256 256 256
256 256 256
256 256 256
256 256 256
256 256 256
256 256 256
256 256 256
256 256 256
256 256 256
256 256 256
256 256 256
256 256 256
256 256 256
256 256 256
256 256 256
256 256 256
256 256 256
256 256 256
256 256 256
256 256 256
256 256 256
256 256 256
256 256 256
256 256 256
256 256 256
256 256 256
256 256 256
256 256 256
256 256 256
256 256 256
256 256 256
256 256 256
256 256 256
256 256 256
256 256 256
256 256 256
256 256 256
256 256 256
256 256 256
256 256 256
192 192 192
256 256 256
256 256 256
192 192 192
192 192 192
256 256 256
256 256 256
192 192 192
192 192 192
192 192 192
192 192 192
192 192 192
192 192 192
192 192 192
192 192 192
192 192 192
192 192 192
192 192 192
192 192 192
192 192 192
192 192 192
192 192 192
128 128 128
128 128 128
192 192 192
128 128 128
64 64 64
128 128 128
128 128 128
128 128 128
192 192 192
192 192 192
192 192 192
192 192 192
192 192 192
192 192 192
192 192 192
192 192 192
192 192 192
192 192 192
192 192 192
192 192 192
192 192 192
192 192 192
192 192 192
256 256 256
192 192 192
256 256 256
192 192 192
192 192 192
192 192 192
192 192 192
192 192 192
192 192 192
192 192 192
192 192 192
192 192 192
192 192 192
192 192 192
192 192 192
192 192 192
192 192 192
192 192 192
192 192 192
192 192 192
192 192 192
192 192 192
192 192 192
192 192 192
128 128 128
128 128 128
128 128 128
128 128 128
128 128 128
128 128 128
128 128 128
128 128 128
128 128 128
128 128 128
128 128 128
128 128 128
128 128 128
128 128 128
128 128 128
128 128 128
128 128 128
128 128 128
128 128 128
128 128 128
128 128 128
128 128 128
128 128 128
128 128 128
128 128 128
128 128 128
128 128 128
64 64 64
64 64 64
64 64 64
128 128 128
128 128 128
128 128 128
128 128 128
128 128 128
128 128 128
128 128 128
192 192 192
192 192 192
192 192 192
192 192 192
192 192 192
192 192 192
192 192 192
192 192 192
192 192 192
192 192 192
192 192 192
192 192 192
192 192 192
192 192 192
192 192 192
192 192 192
192 192 192
192 192 192
192 192 192
192 192 192
128 128 128
192 192 192
128 128 128
128 128 128
192 192 192
256 256 256
256 256 256
256 256 256
256 256 256
256 256 256
256 256 256
256 256 256
256 256 256
256 256 256
256 256 256
256 256 256
256 256 256
256 256 256
256 256 256
256 256 256
256 256 256
256 256 256
256 256 256
256 256 256
256 256 256
256 256 256
256 256 256
256 256 256
256 256 256
256 256 256
256 256 256
256 256 256
256 256 256
256 256 256
256 256 256
256 256 256
256 256 256
256 256 256
256 256 256
256 256 256
256 256 256
256 256 256
256 256 256
256 256 256
256 256 256
256 256 256
256 256 256
256 256 256
256 256 256
256 256 256
256 256 256
256 256 256
256 256 256
256 256 256
256 256 256
256 256 256
256 256 256
256 256 256
256 256 256
192 192 192
192 192 192
192 192 192
192 192 192
192 192 192
192 192 192
192 192 192
192 192 192
192 192 192
192 192 192
192 192 192
192 192 192
192 192 192
192 192 192
128 128 128
128 128 128
128 128 128
128 128 128
128 128 128
128 128 128
128 128 128
128 128 128
128 128 128
128 128 128
128 128 128
128 128 128
128 128 128
192 192 192
192 192 192
192 192 192
192 192 192
192 192 192
256 256 256
192 192 192
192 192 192
192 192 192
192 192 192
192 192 192
192 192 192
192 192 192
256 256 256
192 192 192
192 192 192
256 256 256
256 256 256
192 192 192
192 192 192
192 192 192
192 192 192
192 192 192
192 192 192
192 192 192
192 192 192
192 192 192
192 192 192
192 192 192
192 192 192
192 192 192
192 192 192
192 192 192
192 192 192
192 192 192
192 192 192
256 256 256
128 128 128
64 64 64
128 128 128
128 128 128
128 128 128
128 128 128
128 128 128
128 128 128
128 128 128
128 128 128
128 128 128
128 128 128
128 128 128
128 128 128
128 128 128
128 128 128
128 128 128
128 128 128
128 128 128
128 128 128
128 128 128
128 128 128
128 128 128
128 128 128
128 128 128
128 128 128
64 64 64
128 128 128
128 128 128
128 128 128
128 128 128
128 128 128
128 128 128
128 128 128
128 128 128
128 128 128
192 192 192
192 192 192
192 192 192
192 192 192
192 192 192
192 192 192
192 192 192
192 192 192
192 192 192
192 192 192
192 192 192
192 192 192
192 192 192
192 192 192
192 192 192
192 192 192
192 192 192
192 192 192
192 192 192
192 192 192
192 192 192
128 128 128
128 128 128
192 192 192
256 256 256
256 256 256
256 256 256
256 256 256
256 256 256
256 256 256
256 256 256
256 256 256
256 256 256
256 256 256
256 256 256
256 256 256
256 256 256
256 256 256
256 256 256
256 256 256
256 256 256
256 256 256
256 256 256
256 256 256
256 256 256
256 256 256
256 256 256
256 256 256
256 256 256
256 256 256
256 256 256
256 256 256
256 256 256
256 256 256
256 256 256
256 256 256
256 256 256
256 256 256
256 256 256
256 256 256
256 256 256
256 256 256
256 256 256
256 256 256
256 256 256
192 192 192
192 192 192
192 192 192
192 192 192
192 192 192
192 192 192
256 256 256
256 256 256
256 256 256
256 256 256
192 192 192
192 192 192
192 192 192
192 192 192
192 192 192
192 192 192
192 192 192
192 192 192
192 192 192
192 192 192
192 192 192
192 192 192
192 192 192
192 192 192
192 192 192
192 192 192
192 192 192
128 128 128
128 128 128
128 128 128
128 128 128
128 128 128
128 128 128
128 128 128
128 128 128
128 128 128
128 128 128
128 128 128
128 128 128
128 128 128
128 128 128
128 128 128
128 128 128
128 128 128
128 128 128
192 192 192
192 192 192
192 192 192
192 192 192
192 192 192
192 192 192
192 192 192
192 192 192
192 192 192
192 192 192
192 192 192
192 192 192
192 192 192
192 192 192
192 192 192
192 192 192
192 192 192
192 192 192
192 192 192
192 192 192
192 192 192
192 192 192
192 192 192
192 192 192
192 192 192
192 192 192
192 192 192
192 192 192
192 192 192
192 192 192
192 192 192
192 192 192
192 192 192
192 192 192
192 192 192
64 64 64
128 128 128
128 128 128
128 128 128
128 128 128
128 128 128
128 128 128
128 128 128
128 128 128
128 128 128
128 128 128
128 128 128
128 128 128
128 128 128
128 128 128
128 128 128
128 128 128
128 128 128
128 128 128
128 128 128
128 128 128
128 128 128
128 128 128
128 128 128
128 128 128
128 128 128
128 128 128
64 64 64
128 128 128
128 128 128
128 128 128
128 128 128
128 128 128
128 128 128
128 128 128
128 128 128
192 192 192
192 192 192
192 192 192
192 192 192
192 192 192
192 192 192
192 192 192
192 192 192
192 192 192
192 192 192
192 192 192
192 192 192
192 192 192
192 192 192
192 192 192
192 192 192
192 192 192
192 192 192
192 192 192
192 192 192
128 128 128
192 192 192
256 256 256
256 256 256
256 256 256
256 256 256
256 256 256
256 256 256
256 256 256
256 256 256
256 256 256
256 256 256
256 256 256
256 256 256
256 256 256
256 256 256
256 256 256
256 256 256
256 256 256
256 256 256
256 256 256
256 256 256
256 256 256
256 256 256
256 256 256
256 256 256
256 256 256
256 256 256
256 256 256
256 256 256
256 256 256
256 256 256
256 256 256
256 256 256
256 256 256
256 256 256
256 256 256
256 256 256
256 256 256
256 256 256
256 256 256
256 256 256
256 256 256
256 256 256
192 192 192
192 192 192
192 192 192
192 192 192
192 192 192
192 192 192
192 192 192
192 192 192
192 192 192
192 192 192
192 192 192
192 192 192
192 192 192
192 192 192
192 192 192
192 192 192
192 192 192
192 192 192
192 192 192
192 192 192
192 192 192
192 192 192
192 192 192
192 192 192
192 192 192
192 192 192
128 128 128
128 128 128
128 128 128
128 128 128
128 128 128
128 128 128
128 128 128
128 128 128
128 128 128
64 64 64
64 64 64
128 128 128
64 64 64
64 64 64
64 64 64
64 64 64
64 64 64
64 64 64
64 64 64
128 128 128
128 128 128
192 192 192
192 192 192
192 192 192
192 192 192
256 256 256
256 256 256
192 192 192
192 192 192
192 192 192
192 192 192
192 192 192
192 192 192
192 192 192
256 256 256
256 256 256
192 192 192
192 192 192
192 192 192
192 192 192
192 192 192
192 192 192
192 192 192
192 192 192
192 192 192
192 192 192
192 192 192
192 192 192
192 192 192
192 192 192
192 192 192
192 192 192
192 192 192
256 256 256
128 128 128
128 128 128
128 128 128
128 128 128
128 128 128
128 128 128
128 128 128
128 128 128
128 128 128
128 128 128
128 128 128
128 128 128
128 128 128
128 128 128
128 128 128
128 128 128
128 128 128
128 128 128
128 128 128
128 128 128
128 128 128
128 128 128
128 128 128
128 128 128
128 128 128
64 64 64
64 64 64
128 128 128
128 128 128
128 128 128
128 128 128
128 128 128
128 128 128
128 128 128
128 128 128
192 192 192
192 192 192
192 192 192
192 192 192
192 192 192
192 192 192
192 192 192
192 192 192
192 192 192
192 192 192
192 192 192
192 192 192
192 192 192
192 192 192
192 192 192
192 192 192
192 192 192
192 192 192
192 192 192
192 192 192
192 192 192
256 256 256
256 256 256
256 256 256
256 256 256
256 256 256
256 256 256
256 256 256
256 256 256
256 256 256
256 256 256
256 256 256
256 256 256
256 256 256
256 256 256
256 256 256
256 256 256
256 256 256
256 256 256
256 256 256
256 256 256
256 256 256
256 256 256
256 256 256
256 256 256
256 256 256
256 256 256
256 256 256
256 256 256
256 256 256
256 256 256
256 256 256
256 256 256
256 256 256
256 256 256
256 256 256
256 256 256
256 256 256
256 256 256
256 256 256
256 256 256
256 256 256
256 256 256
256 256 256
256 256 256
192 192 192
192 192 192
192 192 192
192 192 192
192 192 192
192 192 192
192 192 192
192 192 192
192 192 192
192 192 192
192 192 192
192 192 192
192 192 192
192 192 192
192 192 192
192 192 192
192 192 192
192 192 192
192 192 192
192 192 192
192 192 192
192 192 192
192 192 192
192 192 192
192 192 192
128 128 128
128 128 128
128 128 128
128 128 128
128 128 128
128 128 128
128 128 128
128 128 128
128 128 128
64 64 64
64 64 64
64 64 64
64 64 64
64 64 64
64 64 64
0 0 0
0 0 0
0 0 0
0 0 0
128 128 128
128 128 128
128 128 128
128 128 128
128 128 128
192 192 192
192 192 192
192 192 192
256 256 256
256 256 256
256 256 256
256 256 256
192 192 192
192 192 192
256 256 256
256 256 256
256 256 256
256 256 256
256 256 256
192 192 192
192 192 192
192 192 192
192 192 192
192 192 192
192 192 192
192 192 192
192 192 192
192 192 192
192 192 192
192 192 192
192 192 192
192 192 192
192 192 192
192 192 192
192 192 192
256 256 256
128 128 128
128 128 128
128 128 128
128 128 128
128 128 128
128 128 128
128 128 128
128 128 128
128 128 128
128 128 128
128 128 128
128 128 128
128 128 128
128 128 128
128 128 128
128 128 128
128 128 128
128 128 128
128 128 128
128 128 128
128 128 128
128 128 128
128 128 128
128 128 128
128 128 128
64 64 64
128 128 128
128 128 128
128 128 128
128 128 128
128 128 128
128 128 128
128 128 128
128 128 128
192 192 192
192 192 192
192 192 192
192 192 192
192 192 192
192 192 192
192 192 192
192 192 192
192 192 192
192 192 192
192 192 192
192 192 192
192 192 192
192 192 192
192 192 192
192 192 192
192 192 192
192 192 192
192 192 192
192 192 192
256 256 256
256 256 256
256 256 256
256 256 256
256 256 256
256 256 256
256 256 256
256 256 256
256 256 256
256 256 256
256 256 256
256 256 256
256 256 256
256 256 256
256 256 256
256 256 256
256 256 256
256 256 256
256 256 256
256 256 256
256 256 256
256 256 256
256 256 256
256 256 256
256 256 256
256 256 256
256 256 256
256 256 256
256 256 256
256 256 256
256 256 256
256 256 256
256 256 256
256 256 256
256 256 256
256 256 256
256 256 256
256 256 256
256 256 256
256 256 256
256 256 256
256 256 256
256 256 256
256 256 256
256 256 256
256 256 256
192 192 192
192 192 192
192 192 192
192 192 192
192 192 192
192 192 192
192 192 192
192 192 192
192 192 192
192 192 192
192 192 192
192 192 192
192 192 192
192 192 192
192 192 192
192 192 192
192 192 192
192 192 192
128 128 128
192 192 192
192 192 192
192 192 192
192 192 192
192 192 192
128 128 128
128 128 128
128 128 128
128 128 128
128 128 128
128 128 128
128 128 128
128 128 128
64 64 64
64 64 64
64 64 64
64 64 64
64 64 64
64 64 64
0 0 0
0 0 0
64 64 64
192 192 192
192 192 192
256 256 256
256 256 256
256 256 256
256 256 256
256 256 256
256 256 256
256 256 256
192 192 192
192 192 192
192 192 192
192 192 192
256 256 256
256 256 256
256 256 256
256 256 256
256 256 256
256 256 256
256 256 256
256 256 256
256 256 256
256 256 256
256 256 256
192 192 192
192 192 192
192 192 192
192 192 192
192 192 192
192 192 192
192 192 192
192 192 192
192 192 192
192 192 192
192 192 192
192 192 192
192 192 192
192 192 192
256 256 256
192 192 192
128 128 128
128 128 128
128 128 128
128 128 128
128 128 128
128 128 128
128 128 128
128 128 128
128 128 128
128 128 128
128 128 128
128 128 128
128 128 128
128 128 128
128 128 128
128 128 128
128 128 128
128 128 128
128 128 128
128 128 128
128 128 128
128 128 128
128 128 128
128 128 128
128 128 128
128 128 128
128 128 128
128 128 128
128 128 128
128 128 128
128 128 128
128 128 128
192 192 192
192 192 192
192 192 192
192 192 192
192 192 192
192 192 192
192 192 192
192 192 192
192 192 192
192 192 192
192 192 192
192 192 192
192 192 192
192 192 192
192 192 192
192 192 192
192 192 192
192 192 192
192 192 192
256 256 256
256 256 256
256 256 256
256 256 256
256 256 256
256 256 256
256 256 256
256 256 256
256 256 256
256 256 256
256 256 256
256 256 256
256 256 256
256 256 256
256 256 256
256 256 256
256 256 256
256 256 256
256 256 256
256 256 256
256 256 256
256 256 256
256 256 256
256 256 256
256 256 256
256 256 256
256 256 256
256 256 256
256 256 256
256 256 256
256 256 256
256 256 256
256 256 256
256 256 256
256 256 256
256 256 256
256 256 256
256 256 256
256 256 256
256 256 256
256 256 256
256 256 256
256 256 256
256 256 256
256 256 256
256 256 256
256 256 256
256 256 256
192 192 192
192 192 192
192 192 192
192 192 192
192 192 192
192 192 192
192 192 192
192 192 192
192 192 192
192 192 192
192 192 192
192 192 192
192 192 192
192 192 192
192 192 192
192 192 192
128 128 128
128 128 128
128 128 128
128 128 128
128 128 128
192 192 192
192 192 192
128 128 128
128 128 128
128 128 128
128 128 128
128 128 128
128 128 128
64 64 64
64 64 64
64 64 64
64 64 64
64 64 64
0 0 0
0 0 0
0 0 0
0 0 0
64 64 64
192 192 192
256 256 256
256 256 256
192 192 192
192 192 192
256 256 256
256 256 256
256 256 256
256 256 256
256 256 256
256 256 256
256 256 256
256 256 256
192 192 192
192 192 192
192 192 192
192 192 192
256 256 256
256 256 256
256 256 256
256 256 256
256 256 256
256 256 256
256 256 256
256 256 256
256 256 256
192 192 192
192 192 192
192 192 192
192 192 192
192 192 192
192 192 192
192 192 192
192 192 192
192 192 192
192 192 192
192 192 192
192 192 192
192 192 192
192 192 192
192 192 192
192 192 192
128 128 128
128 128 128
128 128 128
128 128 128
128 128 128
128 128 128
128 128 128
128 128 128
128 128 128
128 128 128
128 128 128
128 128 128
128 128 128
128 128 128
128 128 128
128 128 128
128 128 128
128 128 128
128 128 128
128 128 128
128 128 128
128 128 128
128 128 128
128 128 128
128 128 128
128 128 128
128 128 128
128 128 128
128 128 128
128 128 128
128 128 128
128 128 128
192 192 192
192 192 192
192 192 192
192 192 192
192 192 192
192 192 192
192 192 192
192 192 192
192 192 192
192 192 192
192 192 192
192 192 192
192 192 192
192 192 192
192 192 192
192 192 192
192 192 192
256 256 256
256 256 256
256 256 256
256 256 256
256 256 256
256 256 256
256 256 256
256 256 256
256 256 256
256 256 256
256 256 256
256 256 256
256 256 256
256 256 256
256 256 256
256 256 256
256 256 256
256 256 256
256 256 256
256 256 256
256 256 256
256 256 256
256 256 256
256 256 256
256 256 256
256 256 256
256 256 256
256 256 256
256 256 256
256 256 256
256 256 256
256 256 256
256 256 256
256 256 256
256 256 256
256 256 256
256 256 256
256 256 256
256 256 256
256 256 256
256 256 256
256 256 256
256 256 256
256 256 256
256 256 256
256 256 256
256 256 256
256 256 256
256 256 256
256 256 256
192 192 192
192 192 192
192 192 192
192 192 192
192 192 192
192 192 192
192 192 192
192 192 192
192 192 192
192 192 192
192 192 192
192 192 192
192 192 192
192 192 192
192 192 192
192 192 192
128 128 128
128 128 128
128 128 128
192 192 192
128 128 128
192 192 192
128 128 128
128 128 128
128 128 128
128 128 128
128 128 128
128 128 128
64 64 64
128 128 128
64 64 64
64 64 64
0 0 0
0 0 0
0 0 0
64 64 64
128 128 128
256 256 256
256 256 256
256 256 256
256 256 256
192 192 192
256 256 256
192 192 192
192 192 192
256 256 256
256 256 256
256 256 256
256 256 256
256 256 256
256 256 256
256 256 256
256 256 256
192 192 192
192 192 192
192 192 192
192 192 192
256 256 256
256 256 256
256 256 256
256 256 256
256 256 256
256 256 256
256 256 256
256 256 256
256 256 256
256 256 256
192 192 192
192 192 192
192 192 192
192 192 192
192 192 192
192 192 192
192 192 192
192 192 192
192 192 192
192 192 192
192 192 192
192 192 192
192 192 192
192 192 192
128 128 128
128 128 128
128 128 128
128 128 128
128 128 128
128 128 128
128 128 128
128 128 128
128 128 128
128 128 128
128 128 128
128 128 128
128 128 128
128 128 128
128 128 128
128 128 128
128 128 128
128 128 128
128 128 128
128 128 128
128 128 128
128 128 128
128 128 128
128 128 128
128 128 128
128 128 128
128 128 128
128 128 128
128 128 128
128 128 128
128 128 128
128 128 128
192 192 192
192 192 192
192 192 192
192 192 192
192 192 192
192 192 192
192 192 192
192 192 192
192 192 192
192 192 192
192 192 192
192 192 192
192 192 192
192 192 192
256 256 256
256 256 256
256 256 256
256 256 256
256 256 256
256 256 256
256 256 256
256 256 256
256 256 256
256 256 256
256 256 256
256 256 256
256 256 256
256 256 256
256 256 256
256 256 256
256 256 256
256 256 256
256 256 256
256 256 256
256 256 256
256 256 256
256 256 256
256 256 256
256 256 256
256 256 256
256 256 256
256 256 256
256 256 256
256 256 256
256 256 256
256 256 256
256 256 256
256 256 256
256 256 256
256 256 256
256 256 256
256 256 256
256 256 256
256 256 256
256 256 256
256 256 256
256 256 256
256 256 256
256 256 256
256 256 256
256 256 256
256 256 256
256 256 256
256 256 256
256 256 256
256 256 256
256 256 256
128 128 128
192 192 192
128 128 128
128 128 128
128 128 128
128 128 128
192 192 192
192 192 192
192 192 192
192 192 192
192 192 192
192 192 192
192 192 192
192 192 192
192 192 192
128 128 128
128 128 128
128 128 128
128 128 128
128 128 128
128 128 128
128 128 128
128 128 128
128 128 128
128 128 128
128 128 128
128 128 128
128 128 128
64 64 64
64 64 64
0 0 0
0 0 0
0 0 0
64 64 64
192 192 192
256 256 256
256 256 256
256 256 256
256 256 256
192 192 192
128 128 128
192 192 192
256 256 256
256 256 256
256 256 256
256 256 256
256 256 256
256 256 256
256 256 256
256 256 256
256 256 256
192 192 192
192 192 192
192 192 192
192 192 192
192 192 192
192 192 192
192 192 192
192 192 192
192 192 192
256 256 256
256 256 256
256 256 256
256 256 256
256 256 256
256 256 256
256 256 256
256 256 256
192 192 192
192 192 192
192 192 192
192 192 192
192 192 192
192 192 192
192 192 192
192 192 192
192 192 192
192 192 192
192 192 192
192 192 192
256 256 256
192 192 192
128 128 128
128 128 128
128 128 128
128 128 128
128 128 128
128 128 128
128 128 128
128 128 128
128 128 128
128 128 128
128 128 128
128 128 128
128 128 128
128 128 128
128 128 128
128 128 128
128 128 128
128 128 128
128 128 128
128 128 128
128 128 128
128 128 128
128 128 128
128 128 128
128 128 128
128 128 128
128 128 128
128 128 128
128 128 128
128 128 128
192 192 192
192 192 192
192 192 192
192 192 192
192 192 192
192 192 192
192 192 192
192 192 192
192 192 192
192 192 192
192 192 192
192 192 192
192 192 192
256 256 256
256 256 256
256 256 256
256 256 256
256 256 256
256 256 256
256 256 256
256 256 256
256 256 256
256 256 256
256 256 256
256 256 256
256 256 256
256 256 256
256 256 256
256 256 256
256 256 256
256 256 256
256 256 256
256 256 256
256 256 256
256 256 256
256 256 256
256 256 256
256 256 256
256 256 256
256 256 256
256 256 256
256 256 256
256 256 256
256 256 256
256 256 256
256 256 256
256 256 256
256 256 256
256 256 256
256 256 256
256 256 256
256 256 256
256 256 256
256 256 256
256 256 256
256 256 256
256 256 256
256 256 256
256 256 256
256 256 256
256 256 256
256 256 256
256 256 256
256 256 256
256 256 256
256 256 256
256 256 256
256 256 256
128 128 128
128 128 128
128 128 128
128 128 128
128 128 128
128 128 128
128 128 128
192 192 192
128 128 128
192 192 192
192 192 192
192 192 192
192 192 192
128 128 128
192 192 192
128 128 128
128 128 128
128 128 128
128 128 128
128 128 128
128 128 128
128 128 128
128 128 128
128 128 128
128 128 128
128 128 128
128 128 128
128 128 128
64 64 64
0 0 0
0 0 0
128 128 128
256 256 256
256 256 256
256 256 256
256 256 256
256 256 256
256 256 256
256 256 256
256 256 256
192 192 192
256 256 256
256 256 256
256 256 256
256 256 256
256 256 256
256 256 256
192 192 192
192 192 192
192 192 192
192 192 192
192 192 192
192 192 192
192 192 192
192 192 192
192 192 192
192 192 192
192 192 192
192 192 192
192 192 192
192 192 192
192 192 192
256 256 256
192 192 192
192 192 192
256 256 256
256 256 256
256 256 256
256 256 256
192 192 192
192 192 192
192 192 192
192 192 192
192 192 192
192 192 192
192 192 192
192 192 192
192 192 192
192 192 192
192 192 192
192 192 192
192 192 192
128 128 128
192 192 192
128 128 128
128 128 128
128 128 128
128 128 128
128 128 128
128 128 128
128 128 128
128 128 128
128 128 128
128 128 128
128 128 128
128 128 128
128 128 128
128 128 128
128 128 128
128 128 128
128 128 128
128 128 128
128 128 128
128 128 128
128 128 128
128 128 128
128 128 128
128 128 128
128 128 128
128 128 128
128 128 128
128 128 128
192 192 192
192 192 192
192 192 192
192 192 192
192 192 192
192 192 192
192 192 192
192 192 192
192 192 192
192 192 192
256 256 256
256 256 256
256 256 256
256 256 256
192 192 192
192 192 192
192 192 192
256 256 256
256 256 256
256 256 256
256 256 256
256 256 256
256 256 256
256 256 256
256 256 256
256 256 256
256 256 256
256 256 256
256 256 256
256 256 256
256 256 256
256 256 256
256 256 256
256 256 256
256 256 256
256 256 256
256 256 256
256 256 256
256 256 256
256 256 256
256 256 256
256 256 256
256 256 256
256 256 256
256 256 256
256 256 256
256 256 256
256 256 256
256 256 256
256 256 256
256 256 256
256 256 256
256 256 256
256 256 256
256 256 256
256 256 256
256 256 256
256 256 256
256 256 256
256 256 256
256 256 256
256 256 256
256 256 256
256 256 256
256 256 256
256 256 256
256 256 256
256 256 256
128 128 128
128 128 128
128 128 128
128 128 128
128 128 128
128 128 128
128 128 128
128 128 128
128 128 128
128 128 128
128 128 128
192 192 192
192 192 192
128 128 128
128 128 128
128 128 128
128 128 128
192 192 192
128 128 128
128 128 128
128 128 128
128 128 128
128 128 128
128 128 128
128 128 128
128 128 128
64 64 64
64 64 64
0 0 0
64 64 64
192 192 192
256 256 256
256 256 256
256 256 256
256 256 256
256 256 256
256 256 256
256 256 256
256 256 256
256 256 256
256 256 256
256 256 256
256 256 256
256 256 256
256 256 256
192 192 192
192 192 192
192 192 192
192 192 192
192 192 192
192 192 192
192 192 192
192 192 192
192 192 192
128 128 128
192 192 192
192 192 192
192 192 192
192 192 192
192 192 192
192 192 192
192 192 192
192 192 192
256 256 256
192 192 192
256 256 256
256 256 256
256 256 256
256 256 256
256 256 256
256 256 256
256 256 256
192 192 192
192 192 192
192 192 192
192 192 192
192 192 192
192 192 192
192 192 192
192 192 192
192 192 192
192 192 192
128 128 128
192 192 192
192 192 192
128 128 128
128 128 128
128 128 128
128 128 128
128 128 128
128 128 128
128 128 128
128 128 128
128 128 128
128 128 128
128 128 128
128 128 128
128 128 128
128 128 128
128 128 128
128 128 128
128 128 128
128 128 128
128 128 128
128 128 128
128 128 128
128 128 128
128 128 128
128 128 128
128 128 128
128 128 128
128 128 128
192 192 192
192 192 192
192 192 192
192 192 192
192 192 192
192 192 192
192 192 192
192 192 192
256 256 256
256 256 256
256 256 256
256 256 256
192 192 192
192 192 192
192 192 192
192 192 192
192 192 192
256 256 256
256 256 256
256 256 256
256 256 256
256 256 256
256 256 256
256 256 256
256 256 256
256 256 256
256 256 256
256 256 256
256 256 256
256 256 256
256 256 256
256 256 256
256 256 256
256 256 256
256 256 256
256 256 256
256 256 256
256 256 256
256 256 256
256 256 256
256 256 256
256 256 256
256 256 256
256 256 256
256 256 256
256 256 256
256 256 256
256 256 256
256 256 256
256 256 256
256 256 256
256 256 256
256 256 256
256 256 256
256 256 256
256 256 256
256 256 256
256 256 256
256 256 256
256 256 256
256 256 256
256 256 256
256 256 256
256 256 256
256 256 256
256 256 256
256 256 256
256 256 256
128 128 128
128 128 128
128 128 128
128 128 128
128 128 128
128 128 128
128 128 128
128 128 128
128 128 128
128 128 128
128 128 128
128 128 128
128 128 128
128 128 128
128 128 128
128 128 128
128 128 128
128 128 128
128 128 128
128 128 128
128 128 128
128 128 128
128 128 128
128 128 128
128 128 128
64 64 64
64 64 64
0 0 0
128 128 128
256 256 256
256 256 256
256 256 256
256 256 256
256 256 256
256 256 256
256 256 256
192 192 192
256 256 256
256 256 256
192 192 192
256 256 256
256 256 256
256 256 256
192 192 192
192 192 192
192 192 192
192 192 192
192 192 192
192 192 192
192 192 192
192 192 192
128 128 128
192 192 192
128 128 128
128 128 128
128 128 128
192 192 192
192 192 192
256 256 256
256 256 256
256 256 256
256 256 256
256 256 256
256 256 256
256 256 256
256 256 256
256 256 256
256 256 256
256 256 256
256 256 256
256 256 256
256 256 256
256 256 256
192 192 192
192 192 192
192 192 192
192 192 192
192 192 192
192 192 192
192 192 192
256 256 256
192 192 192
192 192 192
192 192 192
192 192 192
192 192 192
128 128 128
128 128 128
128 128 128
128 128 128
128 128 128
128 128 128
128 128 128
128 128 128
128 128 128
128 128 128
128 128 128
128 128 128
128 128 128
128 128 128
128 128 128
128 128 128
128 128 128
128 128 128
128 128 128
128 128 128
128 128 128
128 128 128
128 128 128
128 128 128
128 128 128
128 128 128
192 192 192
192 192 192
192 192 192
192 192 192
192 192 192
192 192 192
256 256 256
256 256 256
256 256 256
256 256 256
192 192 192
192 192 192
192 192 192
192 192 192
192 192 192
192 192 192
256 256 256
256 256 256
256 256 256
256 256 256
256 256 256
256 256 256
256 256 256
256 256 256
256 256 256
256 256 256
256 256 256
256 256 256
256 256 256
256 256 256
256 256 256
256 256 256
256 256 256
256 256 256
256 256 256
256 256 256
256 256 256
256 256 256
256 256 256
256 256 256
256 256 256
256 256 256
256 256 256
256 256 256
256 256 256
256 256 256
256 256 256
256 256 256
256 256 256
256 256 256
256 256 256
256 256 256
256 256 256
256 256 256
256 256 256
256 256 256
256 256 256
256 256 256
256 256 256
256 256 256
256 256 256
256 256 256
256 256 256
256 256 256
256 256 256
256 256 256
256 256 256
256 256 256
128 128 128
128 128 128
128 128 128
128 128 128
128 128 128
128 128 128
128 128 128
128 128 128
128 128 128
128 128 128
128 128 128
128 128 128
128 128 128
128 128 128
192 192 192
128 128 128
128 128 128
128 128 128
128 128 128
128 128 128
128 128 128
128 128 128
128 128 128
64 64 64
64 64 64
0 0 0
0 0 0
128 128 128
256 256 256
256 256 256
256 256 256
256 256 256
256 256 256
256 256 256
256 256 256
256 256 256
192 192 192
192 192 192
256 256 256
192 192 192
192 192 192
192 192 192
256 256 256
192 192 192
192 192 192
192 192 192
192 192 192
192 192 192
128 128 128
128 128 128
128 128 128
128 128 128
128 128 128
128 128 128
128 128 128
128 128 128
192 192 192
192 192 192
192 192 192
192 192 192
256 256 256
256 256 256
256 256 256
256 256 256
256 256 256
256 256 256
256 256 256
192 192 192
192 192 192
256 256 256
256 256 256
256 256 256
256 256 256
256 256 256
256 256 256
256 256 256
192 192 192
192 192 192
192 192 192
192 192 192
192 192 192
192 192 192
192 192 192
192 192 192
192 192 192
192 192 192
128 128 128
128 128 128
128 128 128
128 128 128
128 128 128
128 128 128
128 128 128
128 128 128
128 128 128
128 128 128
128 128 128
128 128 128
128 128 128
128 128 128
128 128 128
128 128 128
128 128 128
128 128 128
128 128 128
128 128 128
128 128 128
128 128 128
128 128 128
128 128 128
128 128 128
128 128 128
192 192 192
192 192 192
256 256 256
256 256 256
256 256 256
256 256 256
256 256 256
192 192 192
192 192 192
192 192 192
192 192 192
192 192 192
192 192 192
192 192 192
192 192 192
256 256 256
256 256 256
256 256 256
256 256 256
256 256 256
256 256 256
256 256 256
256 256 256
256 256 256
256 256 256
256 256 256
256 256 256
256 256 256
256 256 256
256 256 256
256 256 256
256 256 256
256 256 256
256 256 256
256 256 256
256 256 256
256 256 256
256 256 256
256 256 256
256 256 256
256 256 256
256 256 256
256 256 256
256 256 256
256 256 256
256 256 256
256 256 256
256 256 256
256 256 256
256 256 256
256 256 256
256 256 256
256 256 256
256 256 256
256 256 256
256 256 256
256 256 256
256 256 256
256 256 256
256 256 256
256 256 256
256 256 256
256 256 256
256 256 256
256 256 256
256 256 256
256 256 256
256 256 256
128 128 128
128 128 128
128 128 128
128 128 128
128 128 128
128 128 128
128 128 128
128 128 128
128 128 128
128 128 128
128 128 128
128 128 128
128 128 128
128 128 128
128 128 128
128 128 128
128 128 128
128 128 128
128 128 128
128 128 128
128 128 128
128 128 128
64 64 64
64 64 64
0 0 0
0 0 0
128 128 128
256 256 256
256 256 256
256 256 256
256 256 256
256 256 256
256 256 256
192 192 192
192 192 192
192 192 192
192 192 192
192 192 192
192 192 192
192 192 192
256 256 256
192 192 192
192 192 192
256 256 256
192 192 192
128 128 128
128 128 128
128 128 128
128 128 128
128 128 128
128 128 128
128 128 128
128 128 128
64 64 64
128 128 128
192 192 192
128 128 128
192 192 192
192 192 192
256 256 256
256 256 256
192 192 192
256 256 256
256 256 256
256 256 256
256 256 256
256 256 256
256 256 256
256 256 256
256 256 256
256 256 256
256 256 256
256 256 256
256 256 256
256 256 256
256 256 256
256 256 256
256 256 256
256 256 256
192 192 192
192 192 192
192 192 192
192 192 192
192 192 192
192 192 192
192 192 192
128 128 128
128 128 128
128 128 128
128 128 128
128 128 128
128 128 128
128 128 128
128 128 128
128 128 128
128 128 128
128 128 128
128 128 128
128 128 128
128 128 128
128 128 128
128 128 128
128 128 128
128 128 128
128 128 128
128 128 128
128 128 128
128 128 128
128 128 128
128 128 128
192 192 192
256 256 256
256 256 256
256 256 256
256 256 256
256 256 256
256 256 256
192 192 192
192 192 192
192 192 192
192 192 192
192 192 192
192 192 192
192 192 192
128 128 128
128 128 128
192 192 192
256 256 256
256 256 256
256 256 256
256 256 256
256 256 256
256 256 256
256 256 256
256 256 256
256 256 256
256 256 256
256 256 256
256 256 256
256 256 256
256 256 256
256 256 256
256 256 256
256 256 256
256 256 256
256 256 256
256 256 256
256 256 256
256 256 256
256 256 256
256 256 256
256 256 256
256 256 256
256 256 256
256 256 256
256 256 256
256 256 256
256 256 256
256 256 256
256 256 256
256 256 256
256 256 256
256 256 256
256 256 256
256 256 256
256 256 256
256 256 256
256 256 256
256 256 256
256 256 256
256 256 256
256 256 256
256 256 256
256 256 256
256 256 256
256 256 256
256 256 256
256 256 256
256 256 256
256 256 256
64 64 64
64 64 64
128 128 128
128 128 128
128 128 128
128 128 128
128 128 128
128 128 128
128 128 128
128 128 128
128 128 128
128 128 128
128 128 128
128 128 128
128 128 128
128 128 128
128 128 128
128 128 128
128 128 128
64 64 64
64 64 64
64 64 64
0 0 0
0 0 0
64 64 64
256 256 256
256 256 256
256 256 256
256 256 256
256 256 256
256 256 256
256 256 256
192 192 192
192 192 192
192 192 192
192 192 192
192 192 192
256 256 256
192 192 192
192 192 192
192 192 192
256 256 256
192 192 192
192 192 192
256 256 256
192 192 192
128 128 128
128 128 128
128 128 128
128 128 128
128 128 128
64 64 64
64 64 64
192 192 192
192 192 192
128 128 128
128 128 128
192 192 192
192 192 192
256 256 256
256 256 256
192 192 192
192 192 192
256 256 256
256 256 256
256 256 256
256 256 256
256 256 256
256 256 256
256 256 256
256 256 256
256 256 256
256 256 256
256 256 256
256 256 256
256 256 256
256 256 256
256 256 256
256 256 256
256 256 256
256 256 256
256 256 256
192 192 192
192 192 192
192 192 192
192 192 192
128 128 128
128 128 128
128 128 128
128 128 128
128 128 128
128 128 128
128 128 128
128 128 128
128 128 128
128 128 128
128 128 128
128 128 128
128 128 128
128 128 128
128 128 128
128 128 128
128 128 128
128 128 128
128 128 128
128 128 128
192 192 192
192 192 192
256 256 256
256 256 256
256 256 256
256 256 256
256 256 256
256 256 256
256 256 256
192 192 192
192 192 192
192 192 192
192 192 192
192 192 192
192 192 192
192 192 192
192 192 192
192 192 192
128 128 128
128 128 128
256 256 256
256 256 256
256 256 256
256 256 256
256 256 256
256 256 256
256 256 256
256 256 256
256 256 256
256 256 256
256 256 256
256 256 256
256 256 256
256 256 256
256 256 256
256 256 256
256 256 256
256 256 256
256 256 256
256 256 256
256 256 256
256 256 256
256 256 256
256 256 256
256 256 256
256 256 256
256 256 256
256 256 256
256 256 256
256 256 256
256 256 256
256 256 256
256 256 256
256 256 256
256 256 256
256 256 256
256 256 256
256 256 256
256 256 256
256 256 256
256 256 256
256 256 256
256 256 256
256 256 256
256 256 256
256 256 256
256 256 256
256 256 256
256 256 256
256 256 256
256 256 256
256 256 256
256 256 256
256 256 256
64 64 64
64 64 64
64 64 64
128 128 128
128 128 128
128 128 128
128 128 128
128 128 128
128 128 128
128 128 128
128 128 128
128 128 128
128 128 128
128 128 128
128 128 128
128 128 128
128 128 128
64 64 64
64 64 64
0 0 0
0 0 0
64 64 64
128 128 128
256 256 256
256 256 256
256 256 256
256 256 256
256 256 256
256 256 256
256 256 256
256 256 256
256 256 256
256 256 256
192 192 192
192 192 192
192 192 192
192 192 192
192 192 192
192 192 192
256 256 256
192 192 192
192 192 192
192 192 192
192 192 192
192 192 192
192 192 192
192 192 192
128 128 128
128 128 128
128 128 128
128 128 128
192 192 192
256 256 256
192 192 192
128 128 128
128 128 128
128 128 128
192 192 192
192 192 192
256 256 256
192 192 192
192 192 192
192 192 192
192 192 192
256 256 256
192 192 192
192 192 192
256 256 256
256 256 256
256 256 256
256 256 256
256 256 256
256 256 256
256 256 256
256 256 256
256 256 256
256 256 256
256 256 256
256 256 256
256 256 256
256 256 256
256 256 256
256 256 256
256 256 256
256 256 256
256 256 256
256 256 256
256 256 256
256 256 256
192 192 192
192 192 192
192 192 192
192 192 192
192 192 192
192 192 192
128 128 128
128 128 128
192 192 192
192 192 192
192 192 192
192 192 192
192 192 192
256 256 256
256 256 256
256 256 256
256 256 256
256 256 256
256 256 256
256 256 256
256 256 256
256 256 256
256 256 256
256 256 256
192 192 192
192 192 192
192 192 192
192 192 192
192 192 192
192 192 192
192 192 192
192 192 192
192 192 192
192 192 192
192 192 192
128 128 128
192 192 192
256 256 256
256 256 256
256 256 256
256 256 256
256 256 256
256 256 256
256 256 256
256 256 256
256 256 256
256 256 256
256 256 256
256 256 256
256 256 256
256 256 256
256 256 256
256 256 256
256 256 256
256 256 256
256 256 256
256 256 256
256 256 256
256 256 256
256 256 256
256 256 256
256 256 256
256 256 256
256 256 256
256 256 256
256 256 256
256 256 256
256 256 256
256 256 256
256 256 256
256 256 256
256 256 256
256 256 256
256 256 256
256 256 256
256 256 256
256 256 256
256 256 256
256 256 256
256 256 256
256 256 256
256 256 256
256 256 256
256 256 256
256 256 256
256 256 256
192 192 192
256 256 256
256 256 256
256 256 256
256 256 256
0 0 0
64 64 64
64 64 64
64 64 64
64 64 64
128 128 128
128 128 128
128 128 128
128 128 128
128 128 128
128 128 128
128 128 128
128 128 128
128 128 128
128 128 128
128 128 128
64 64 64
64 64 64
64 64 64
128 128 128
256 256 256
256 256 256
256 256 256
256 256 256
256 256 256
256 256 256
256 256 256
256 256 256
256 256 256
256 256 256
256 256 256
256 256 256
192 192 192
192 192 192
192 192 192
192 192 192
192 192 192
192 192 192
192 192 192
192 192 192
192 192 192
192 192 192
192 192 192
192 192 192
192 192 192
192 192 192
192 192 192
256 256 256
256 256 256
256 256 256
256 256 256
256 256 256
192 192 192
128 128 128
128 128 128
128 128 128
64 64 64
192 192 192
192 192 192
192 192 192
192 192 192
192 192 192
192 192 192
192 192 192
192 192 192
192 192 192
192 192 192
256 256 256
256 256 256
256 256 256
256 256 256
256 256 256
256 256 256
256 256 256
256 256 256
256 256 256
256 256 256
256 256 256
256 256 256
256 256 256
256 256 256
256 256 256
256 256 256
256 256 256
256 256 256
256 256 256
256 256 256
256 256 256
256 256 256
256 256 256
256 256 256
256 256 256
256 256 256
256 256 256
256 256 256
256 256 256
256 256 256
256 256 256
256 256 256
256 256 256
256 256 256
256 256 256
256 256 256
256 256 256
256 256 256
256 256 256
256 256 256
256 256 256
256 256 256
192 192 192
192 192 192
192 192 192
256 256 256
192 192 192
192 192 192
192 192 192
192 192 192
192 192 192
192 192 192
192 192 192
192 192 192
128 128 128
128 128 128
128 128 128
128 128 128
256 256 256
256 256 256
256 256 256
256 256 256
256 256 256
256 256 256
256 256 256
256 256 256
256 256 256
256 256 256
256 256 256
256 256 256
256 256 256
256 256 256
256 256 256
256 256 256
256 256 256
256 256 256
256 256 256
256 256 256
256 256 256
256 256 256
256 256 256
256 256 256
256 256 256
256 256 256
256 256 256
256 256 256
256 256 256
256 256 256
256 256 256
256 256 256
256 256 256
256 256 256
256 256 256
256 256 256
256 256 256
256 256 256
256 256 256
256 256 256
256 256 256
256 256 256
256 256 256
256 256 256
256 256 256
256 256 256
256 256 256
256 256 256
256 256 256
256 256 256
256 256 256
256 256 256
256 256 256
256 256 256
256 256 256
64 64 64
0 0 0
0 0 0
64 64 64
64 64 64
64 64 64
128 128 128
128 128 128
128 128 128
128 128 128
128 128 128
128 128 128
128 128 128
192 192 192
192 192 192
256 256 256
256 256 256
256 256 256
256 256 256
256 256 256
256 256 256
256 256 256
256 256 256
256 256 256
256 256 256
256 256 256
256 256 256
256 256 256
256 256 256
256 256 256
192 192 192
192 192 192
192 192 192
192 192 192
192 192 192
192 192 192
192 192 192
192 192 192
192 192 192
192 192 192
192 192 192
192 192 192
128 128 128
192 192 192
192 192 192
192 192 192
192 192 192
192 192 192
192 192 192
192 192 192
192 192 192
192 192 192
128 128 128
128 128 128
128 128 128
64 64 64
64 64 64
128 128 128
192 192 192
192 192 192
192 192 192
192 192 192
192 192 192
192 192 192
192 192 192
192 192 192
192 192 192
192 192 192
256 256 256
256 256 256
256 256 256
256 256 256
256 256 256
256 256 256
256 256 256
256 256 256
256 256 256
256 256 256
256 256 256
256 256 256
256 256 256
256 256 256
256 256 256
256 256 256
256 256 256
256 256 256
256 256 256
256 256 256
256 256 256
256 256 256
256 256 256
256 256 256
256 256 256
256 256 256
256 256 256
256 256 256
256 256 256
256 256 256
256 256 256
256 256 256
256 256 256
256 256 256
256 256 256
256 256 256
192 192 192
192 192 192
192 192 192
192 192 192
192 192 192
192 192 192
256 256 256
256 256 256
256 256 256
192 192 192
192 192 192
192 192 192
192 192 192
192 192 192
192 192 192
192 192 192
128 128 128
128 128 128
128 128 128
128 128 128
128 128 128
256 256 256
256 256 256
256 256 256
256 256 256
256 256 256
256 256 256
256 256 256
256 256 256
256 256 256
256 256 256
256 256 256
256 256 256
256 256 256
256 256 256
256 256 256
256 256 256
256 256 256
256 256 256
256 256 256
256 256 256
256 256 256
256 256 256
256 256 256
256 256 256
256 256 256
256 256 256
256 256 256
256 256 256
256 256 256
256 256 256
256 256 256
256 256 256
256 256 256
256 256 256
256 256 256
256 256 256
256 256 256
256 256 256
256 256 256
256 256 256
256 256 256
256 256 256
256 256 256
256 256 256
256 256 256
256 256 256
256 256 256
256 256 256
256 256 256
256 256 256
256 256 256
256 256 256
256 256 256
256 256 256
256 256 256
64 64 64
64 64 64
0 0 0
64 64 64
64 64 64
64 64 64
64 64 64
64 64 64
128 128 128
192 192 192
256 256 256
256 256 256
256 256 256
256 256 256
256 256 256
256 256 256
256 256 256
256 256 256
256 256 256
256 256 256
256 256 256
256 256 256
256 256 256
256 256 256
256 256 256
256 256 256
256 256 256
256 256 256
256 256 256
256 256 256
192 192 192
192 192 192
192 192 192
192 192 192
192 192 192
192 192 192
192 192 192
192 192 192
128 128 128
128 128 128
128 128 128
128 128 128
128 128 128
128 128 128
128 128 128
192 192 192
192 192 192
192 192 192
128 128 128
128 128 128
128 128 128
128 128 128
128 128 128
128 128 128
128 128 128
0 0 0
64 64 64
128 128 128
192 192 192
192 192 192
192 192 192
192 192 192
192 192 192
192 192 192
192 192 192
192 192 192
192 192 192
192 192 192
192 192 192
192 192 192
192 192 192
192 192 192
192 192 192
192 192 192
192 192 192
256 256 256
256 256 256
256 256 256
256 256 256
256 256 256
256 256 256
256 256 256
256 256 256
256 256 256
256 256 256
256 256 256
256 256 256
256 256 256
256 256 256
256 256 256
256 256 256
256 256 256
256 256 256
256 256 256
256 256 256
256 256 256
256 256 256
256 256 256
192 192 192
192 192 192
192 192 192
192 192 192
192 192 192
192 192 192
192 192 192
192 192 192
192 192 192
192 192 192
192 192 192
192 192 192
256 256 256
256 256 256
256 256 256
192 192 192
192 192 192
192 192 192
192 192 192
192 192 192
128 128 128
128 128 128
128 128 128
128 128 128
128 128 128
64 64 64
192 192 192
256 256 256
256 256 256
256 256 256
256 256 256
256 256 256
256 256 256
256 256 256
256 256 256
256 256 256
256 256 256
256 256 256
256 256 256
256 256 256
256 256 256
256 256 256
256 256 256
256 256 256
256 256 256
256 256 256
256 256 256
256 256 256
256 256 256
256 256 256
256 256 256
256 256 256
256 256 256
256 256 256
256 256 256
256 256 256
256 256 256
256 256 256
256 256 256
256 256 256
256 256 256
256 256 256
256 256 256
256 256 256
256 256 256
256 256 256
256 256 256
256 256 256
256 256 256
256 256 256
256 256 256
256 256 256
256 256 256
256 256 256
256 256 256
256 256 256
256 256 256
256 256 256
192 192 192
192 192 192
192 192 192
256 256 256
128 128 128
64 64 64
0 0 0
0 0 0
64 64 64
64 64 64
128 128 128
192 192 192
256 256 256
256 256 256
256 256 256
256 256 256
256 256 256
256 256 256
256 256 256
256 256 256
256 256 256
256 256 256
256 256 256
256 256 256
256 256 256
256 256 256
256 256 256
256 256 256
256 256 256
256 256 256
256 256 256
256 256 256
192 192 192
192 192 192
192 192 192
192 192 192
192 192 192
192 192 192
192 192 192
192 192 192
192 192 192
192 192 192
128 128 128
128 128 128
128 128 128
128 128 128
128 128 128
128 128 128
128 128 128
128 128 128
128 128 128
128 128 128
128 128 128
128 128 128
128 128 128
128 128 128
128 128 128
128 128 128
0 0 0
0 0 0
64 64 64
128 128 128
192 192 192
192 192 192
192 192 192
192 192 192
192 192 192
192 192 192
192 192 192
192 192 192
192 192 192
192 192 192
192 192 192
192 192 192
256 256 256
256 256 256
256 256 256
192 192 192
192 192 192
192 192 192
256 256 256
256 256 256
256 256 256
256 256 256
256 256 256
256 256 256
256 256 256
256 256 256
256 256 256
256 256 256
256 256 256
256 256 256
256 256 256
192 192 192
192 192 192
192 192 192
192 192 192
192 192 192
192 192 192
192 192 192
192 192 192
192 192 192
192 192 192
192 192 192
192 192 192
192 192 192
192 192 192
192 192 192
192 192 192
192 192 192
192 192 192
192 192 192
192 192 192
192 192 192
256 256 256
192 192 192
256 256 256
192 192 192
192 192 192
192 192 192
128 128 128
128 128 128
128 128 128
128 128 128
128 128 128
128 128 128
64 64 64
128 128 128
256 256 256
256 256 256
256 256 256
256 256 256
256 256 256
256 256 256
256 256 256
256 256 256
256 256 256
256 256 256
256 256 256
256 256 256
256 256 256
256 256 256
256 256 256
256 256 256
256 256 256
256 256 256
256 256 256
256 256 256
256 256 256
256 256 256
256 256 256
256 256 256
256 256 256
256 256 256
256 256 256
256 256 256
256 256 256
256 256 256
256 256 256
256 256 256
256 256 256
256 256 256
256 256 256
256 256 256
256 256 256
256 256 256
256 256 256
256 256 256
256 256 256
256 256 256
256 256 256
256 256 256
256 256 256
256 256 256
256 256 256
256 256 256
256 256 256
256 256 256
256 256 256
256 256 256
256 256 256
256 256 256
192 192 192
192 192 192
192 192 192
128 128 128
64 64 64
64 64 64
192 192 192
256 256 256
256 256 256
256 256 256
256 256 256
256 256 256
256 256 256
256 256 256
256 256 256
256 256 256
256 256 256
256 256 256
256 256 256
256 256 256
256 256 256
256 256 256
256 256 256
256 256 256
256 256 256
256 256 256
256 256 256
256 256 256
256 256 256
256 256 256
192 192 192
192 192 192
192 192 192
192 192 192
192 192 192
192 192 192
192 192 192
192 192 192
192 192 192
192 192 192
128 128 128
128 128 128
128 128 128
128 128 128
128 128 128
128 128 128
128 128 128
128 128 128
128 128 128
128 128 128
128 128 128
128 128 128
128 128 128
128 128 128
128 128 128
64 64 64
0 0 0
0 0 0
64 64 64
128 128 128
192 192 192
192 192 192
192 192 192
192 192 192
192 192 192
192 192 192
192 192 192
192 192 192
192 192 192
192 192 192
192 192 192
192 192 192
192 192 192
192 192 192
192 192 192
192 192 192
192 192 192
256 256 256
256 256 256
256 256 256
256 256 256
256 256 256
256 256 256
256 256 256
192 192 192
192 192 192
192 192 192
192 192 192
192 192 192
192 192 192
192 192 192
192 192 192
192 192 192
192 192 192
192 192 192
192 192 192
192 192 192
192 192 192
192 192 192
192 192 192
192 192 192
192 192 192
192 192 192
192 192 192
192 192 192
192 192 192
192 192 192
192 192 192
192 192 192
192 192 192
192 192 192
192 192 192
256 256 256
192 192 192
192 192 192
192 192 192
192 192 192
128 128 128
128 128 128
128 128 128
128 128 128
128 128 128
128 128 128
64 64 64
64 64 64
128 128 128
256 256 256
256 256 256
256 256 256
256 256 256
256 256 256
256 256 256
256 256 256
256 256 256
256 256 256
256 256 256
256 256 256
256 256 256
256 256 256
256 256 256
256 256 256
256 256 256
256 256 256
256 256 256
256 256 256
256 256 256
256 256 256
256 256 256
256 256 256
256 256 256
256 256 256
256 256 256
256 256 256
256 256 256
256 256 256
256 256 256
256 256 256
256 256 256
256 256 256
256 256 256
256 256 256
256 256 256
256 256 256
256 256 256
256 256 256
256 256 256
256 256 256
256 256 256
256 256 256
256 256 256
256 256 256
256 256 256
256 256 256
192 192 192
192 192 192
256 256 256
256 256 256
192 192 192
192 192 192
192 192 192
256 256 256
256 256 256
256 256 256
256 256 256
256 256 256
256 256 256
256 256 256
256 256 256
256 256 256
256 256 256
256 256 256
256 256 256
256 256 256
256 256 256
256 256 256
256 256 256
256 256 256
256 256 256
256 256 256
256 256 256
256 256 256
256 256 256
256 256 256
256 256 256
256 256 256
256 256 256
256 256 256
256 256 256
256 256 256
256 256 256
192 192 192
192 192 192
192 192 192
192 192 192
192 192 192
192 192 192
192 192 192
128 128 128
128 128 128
128 128 128
128 128 128
128 128 128
128 128 128
128 128 128
128 128 128
128 128 128
128 128 128
128 128 128
128 128 128
128 128 128
128 128 128
128 128 128
128 128 128
128 128 128
64 64 64
0 0 0
0 0 0
0 0 0
64 64 64
128 128 128
128 128 128
128 128 128
128 128 128
128 128 128
128 128 128
128 128 128
128 128 128
128 128 128
192 192 192
192 192 192
192 192 192
192 192 192
192 192 192
192 192 192
192 192 192
192 192 192
256 256 256
256 256 256
256 256 256
256 256 256
256 256 256
192 192 192
192 192 192
192 192 192
192 192 192
192 192 192
192 192 192
192 192 192
192 192 192
192 192 192
192 192 192
192 192 192
192 192 192
192 192 192
192 192 192
192 192 192
192 192 192
192 192 192
192 192 192
192 192 192
192 192 192
192 192 192
192 192 192
192 192 192
192 192 192
192 192 192
192 192 192
192 192 192
192 192 192
192 192 192
192 192 192
192 192 192
192 192 192
192 192 192
192 192 192
128 128 128
128 128 128
128 128 128
128 128 128
128 128 128
128 128 128
128 128 128
64 64 64
64 64 64
64 64 64
192 192 192
256 256 256
256 256 256
256 256 256
256 256 256
256 256 256
256 256 256
256 256 256
256 256 256
256 256 256
256 256 256
256 256 256
256 256 256
256 256 256
256 256 256
256 256 256
256 256 256
256 256 256
256 256 256
256 256 256
256 256 256
256 256 256
256 256 256
256 256 256
256 256 256
256 256 256
256 256 256
256 256 256
256 256 256
256 256 256
256 256 256
256 256 256
256 256 256
256 256 256
256 256 256
256 256 256
256 256 256
256 256 256
256 256 256
256 256 256
256 256 256
256 256 256
256 256 256
256 256 256
256 256 256
256 256 256
256 256 256
256 256 256
256 256 256
256 256 256
192 192 192
192 192 192
192 192 192
192 192 192
192 192 192
256 256 256
192 192 192
256 256 256
256 256 256
256 256 256
256 256 256
256 256 256
256 256 256
256 256 256
256 256 256
256 256 256
256 256 256
256 256 256
256 256 256
256 256 256
256 256 256
256 256 256
192 192 192
192 192 192
192 192 192
256 256 256
192 192 192
192 192 192
192 192 192
192 192 192
192 192 192
192 192 192
192 192 192
256 256 256
256 256 256
192 192 192
192 192 192
192 192 192
192 192 192
192 192 192
192 192 192
128 128 128
128 128 128
128 128 128
128 128 128
128 128 128
128 128 128
128 128 128
128 128 128
128 128 128
128 128 128
128 128 128
128 128 128
128 128 128
128 128 128
128 128 128
128 128 128
128 128 128
64 64 64
0 0 0
0 0 0
0 0 0
0 0 0
64 64 64
128 128 128
128 128 128
64 64 64
128 128 128
128 128 128
128 128 128
128 128 128
128 128 128
128 128 128
128 128 128
128 128 128
128 128 128
128 128 128
128 128 128
128 128 128
128 128 128
128 128 128
192 192 192
192 192 192
192 192 192
192 192 192
192 192 192
192 192 192
128 128 128
192 192 192
128 128 128
128 128 128
128 128 128
192 192 192
192 192 192
128 128 128
128 128 128
128 128 128
128 128 128
192 192 192
128 128 128
192 192 192
192 192 192
192 192 192
192 192 192
192 192 192
192 192 192
128 128 128
192 192 192
192 192 192
192 192 192
192 192 192
192 192 192
192 192 192
192 192 192
128 128 128
128 128 128
128 128 128
192 192 192
192 192 192
192 192 192
128 128 128
128 128 128
128 128 128
128 128 128
128 128 128
128 128 128
128 128 128
128 128 128
64 64 64
64 64 64
256 256 256
256 256 256
256 256 256
256 256 256
256 256 256
256 256 256
256 256 256
256 256 256
256 256 256
256 256 256
256 256 256
256 256 256
256 256 256
256 256 256
256 256 256
256 256 256
256 256 256
256 256 256
256 256 256
256 256 256
256 256 256
256 256 256
256 256 256
256 256 256
256 256 256
256 256 256
256 256 256
256 256 256
256 256 256
256 256 256
256 256 256
256 256 256
256 256 256
256 256 256
256 256 256
256 256 256
256 256 256
256 256 256
256 256 256
256 256 256
256 256 256
256 256 256
256 256 256
256 256 256
256 256 256
256 256 256
256 256 256
256 256 256
256 256 256
256 256 256
256 256 256
192 192 192
192 192 192
192 192 192
256 256 256
256 256 256
256 256 256
256 256 256
256 256 256
256 256 256
256 256 256
256 256 256
256 256 256
256 256 256
256 256 256
256 256 256
256 256 256
256 256 256
256 256 256
256 256 256
256 256 256
256 256 256
192 192 192
192 192 192
192 192 192
192 192 192
192 192 192
192 192 192
128 128 128
128 128 128
192 192 192
192 192 192
192 192 192
192 192 192
192 192 192
192 192 192
192 192 192
192 192 192
128 128 128
128 128 128
128 128 128
128 128 128
128 128 128
128 128 128
128 128 128
128 128 128
128 128 128
128 128 128
128 128 128
128 128 128
128 128 128
128 128 128
128 128 128
128 128 128
128 128 128
128 128 128
128 128 128
64 64 64
0 0 0
0 0 0
0 0 0
0 0 0
64 64 64
128 128 128
192 192 192
192 192 192
192 192 192
192 192 192
192 192 192
128 128 128
128 128 128
128 128 128
128 128 128
128 128 128
128 128 128
128 128 128
128 128 128
128 128 128
128 128 128
128 128 128
128 128 128
128 128 128
128 128 128
128 128 128
128 128 128
128 128 128
128 128 128
128 128 128
128 128 128
128 128 128
192 192 192
128 128 128
128 128 128
128 128 128
128 128 128
192 192 192
192 192 192
192 192 192
128 128 128
128 128 128
192 192 192
128 128 128
192 192 192
192 192 192
192 192 192
192 192 192
192 192 192
192 192 192
192 192 192
192 192 192
192 192 192
192 192 192
192 192 192
128 128 128
128 128 128
128 128 128
192 192 192
192 192 192
128 128 128
128 128 128
128 128 128
128 128 128
128 128 128
128 128 128
128 128 128
128 128 128
128 128 128
128 128 128
64 64 64
128 128 128
256 256 256
256 256 256
256 256 256
256 256 256
256 256 256
256 256 256
256 256 256
256 256 256
256 256 256
256 256 256
256 256 256
256 256 256
256 256 256
256 256 256
256 256 256
256 256 256
256 256 256
256 256 256
256 256 256
256 256 256
256 256 256
256 256 256
256 256 256
256 256 256
256 256 256
256 256 256
256 256 256
256 256 256
256 256 256
256 256 256
256 256 256
256 256 256
256 256 256
256 256 256
256 256 256
256 256 256
256 256 256
256 256 256
256 256 256
256 256 256
256 256 256
256 256 256
256 256 256
256 256 256
256 256 256
256 256 256
256 256 256
192 192 192
192 192 192
192 192 192
192 192 192
192 192 192
256 256 256
256 256 256
256 256 256
256 256 256
192 192 192
256 256 256
256 256 256
256 256 256
256 256 256
256 256 256
256 256 256
256 256 256
256 256 256
256 256 256
256 256 256
256 256 256
256 256 256
256 256 256
256 256 256
192 192 192
192 192 192
192 192 192
192 192 192
192 192 192
192 192 192
192 192 192
128 128 128
192 192 192
256 256 256
192 192 192
192 192 192
192 192 192
192 192 192
192 192 192
192 192 192
128 128 128
128 128 128
128 128 128
128 128 128
128 128 128
128 128 128
128 128 128
128 128 128
128 128 128
128 128 128
128 128 128
128 128 128
128 128 128
128 128 128
128 128 128
128 128 128
128 128 128
128 128 128
128 128 128
64 64 64
0 0 0
0 0 0
0 0 0
0 0 0
64 64 64
128 128 128
128 128 128
192 192 192
192 192 192
192 192 192
192 192 192
192 192 192
192 192 192
192 192 192
192 192 192
128 128 128
128 128 128
128 128 128
128 128 128
128 128 128
128 128 128
128 128 128
128 128 128
128 128 128
128 128 128
128 128 128
128 128 128
128 128 128
128 128 128
128 128 128
128 128 128
128 128 128
128 128 128
128 128 128
128 128 128
128 128 128
128 128 128
128 128 128
128 128 128
192 192 192
128 128 128
192 192 192
192 192 192
192 192 192
128 128 128
192 192 192
192 192 192
192 192 192
192 192 192
192 192 192
192 192 192
192 192 192
192 192 192
128 128 128
128 128 128
128 128 128
128 128 128
128 128 128
128 128 128
192 192 192
192 192 192
128 128 128
128 128 128
128 128 128
128 128 128
128 128 128
128 128 128
128 128 128
64 64 64
128 128 128
64 64 64
64 64 64
192 192 192
256 256 256
256 256 256
256 256 256
256 256 256
256 256 256
256 256 256
256 256 256
256 256 256
256 256 256
256 256 256
256 256 256
256 256 256
256 256 256
256 256 256
256 256 256
256 256 256
256 256 256
256 256 256
256 256 256
256 256 256
256 256 256
256 256 256
256 256 256
256 256 256
256 256 256
256 256 256
256 256 256
256 256 256
256 256 256
256 256 256
256 256 256
256 256 256
256 256 256
256 256 256
256 256 256
256 256 256
256 256 256
256 256 256
256 256 256
256 256 256
256 256 256
256 256 256
256 256 256
192 192 192
192 192 192
256 256 256
192 192 192
192 192 192
256 256 256
192 192 192
192 192 192
192 192 192
192 192 192
192 192 192
192 192 192
192 192 192
192 192 192
256 256 256
256 256 256
256 256 256
256 256 256
256 256 256
256 256 256
256 256 256
256 256 256
256 256 256
256 256 256
256 256 256
256 256 256
256 256 256
192 192 192
192 192 192
192 192 192
192 192 192
192 192 192
192 192 192
192 192 192
192 192 192
128 128 128
128 128 128
192 192 192
192 192 192
192 192 192
192 192 192
192 192 192
128 128 128
128 128 128
128 128 128
128 128 128
128 128 128
128 128 128
128 128 128
128 128 128
128 128 128
128 128 128
128 128 128
128 128 128
128 128 128
128 128 128
128 128 128
128 128 128
128 128 128
128 128 128
128 128 128
64 64 64
64 64 64
0 0 0
0 0 0
0 0 0
64 64 64
128 128 128
192 192 192
192 192 192
192 192 192
192 192 192
192 192 192
192 192 192
192 192 192
192 192 192
192 192 192
192 192 192
192 192 192
192 192 192
192 192 192
192 192 192
192 192 192
192 192 192
128 128 128
128 128 128
128 128 128
128 128 128
128 128 128
128 128 128
128 128 128
128 128 128
128 128 128
128 128 128
128 128 128
128 128 128
128 128 128
128 128 128
128 128 128
128 128 128
128 128 128
128 128 128
128 128 128
192 192 192
128 128 128
128 128 128
192 192 192
192 192 192
128 128 128
192 192 192
192 192 192
192 192 192
192 192 192
192 192 192
192 192 192
128 128 128
128 128 128
128 128 128
128 128 128
128 128 128
128 128 128
128 128 128
192 192 192
192 192 192
192 192 192
128 128 128
128 128 128
128 128 128
128 128 128
128 128 128
128 128 128
128 128 128
128 128 128
128 128 128
64 64 64
128 128 128
192 192 192
256 256 256
256 256 256
256 256 256
256 256 256
256 256 256
256 256 256
256 256 256
256 256 256
256 256 256
256 256 256
256 256 256
256 256 256
256 256 256
256 256 256
256 256 256
256 256 256
256 256 256
256 256 256
256 256 256
256 256 256
256 256 256
256 256 256
256 256 256
256 256 256
256 256 256
256 256 256
256 256 256
256 256 256
256 256 256
256 256 256
256 256 256
256 256 256
256 256 256
256 256 256
256 256 256
256 256 256
256 256 256
256 256 256
256 256 256
256 256 256
256 256 256
256 256 256
256 256 256
256 256 256
256 256 256
256 256 256
256 256 256
192 192 192
192 192 192
192 192 192
192 192 192
192 192 192
192 192 192
192 192 192
192 192 192
192 192 192
192 192 192
256 256 256
256 256 256
256 256 256
256 256 256
256 256 256
256 256 256
256 256 256
256 256 256
256 256 256
256 256 256
256 256 256
256 256 256
192 192 192
192 192 192
192 192 192
192 192 192
192 192 192
128 128 128
192 192 192
192 192 192
192 192 192
128 128 128
192 192 192
192 192 192
192 192 192
192 192 192
192 192 192
192 192 192
128 128 128
128 128 128
128 128 128
128 128 128
128 128 128
128 128 128
128 128 128
128 128 128
128 128 128
128 128 128
128 128 128
128 128 128
128 128 128
128 128 128
128 128 128
128 128 128
128 128 128
128 128 128
64 64 64
0 0 0
0 0 0
0 0 0
0 0 0
128 128 128
192 192 192
192 192 192
192 192 192
192 192 192
192 192 192
192 192 192
192 192 192
192 192 192
192 192 192
192 192 192
192 192 192
192 192 192
192 192 192
192 192 192
192 192 192
192 192 192
192 192 192
192 192 192
192 192 192
192 192 192
192 192 192
128 128 128
128 128 128
128 128 128
128 128 128
128 128 128
128 128 128
128 128 128
128 128 128
128 128 128
128 128 128
192 192 192
192 192 192
192 192 192
192 192 192
192 192 192
192 192 192
128 128 128
128 128 128
128 128 128
192 192 192
192 192 192
192 192 192
192 192 192
192 192 192
192 192 192
192 192 192
192 192 192
128 128 128
128 128 128
128 128 128
128 128 128
128 128 128
128 128 128
128 128 128
128 128 128
128 128 128
192 192 192
192 192 192
128 128 128
128 128 128
128 128 128
128 128 128
128 128 128
128 128 128
128 128 128
128 128 128
128 128 128
128 128 128
192 192 192
128 128 128
256 256 256
256 256 256
256 256 256
256 256 256
256 256 256
256 256 256
256 256 256
256 256 256
256 256 256
256 256 256
256 256 256
256 256 256
256 256 256
256 256 256
256 256 256
256 256 256
256 256 256
256 256 256
256 256 256
256 256 256
256 256 256
256 256 256
256 256 256
256 256 256
256 256 256
256 256 256
256 256 256
256 256 256
256 256 256
256 256 256
256 256 256
256 256 256
256 256 256
256 256 256
256 256 256
256 256 256
256 256 256
256 256 256
256 256 256
256 256 256
256 256 256
256 256 256
256 256 256
192 192 192
256 256 256
256 256 256
256 256 256
192 192 192
192 192 192
192 192 192
192 192 192
192 192 192
192 192 192
192 192 192
192 192 192
192 192 192
192 192 192
256 256 256
256 256 256
256 256 256
256 256 256
256 256 256
256 256 256
256 256 256
256 256 256
256 256 256
256 256 256
192 192 192
192 192 192
192 192 192
192 192 192
192 192 192
192 192 192
192 192 192
128 128 128
192 192 192
192 192 192
192 192 192
192 192 192
192 192 192
192 192 192
192 192 192
192 192 192
192 192 192
192 192 192
128 128 128
128 128 128
128 128 128
128 128 128
128 128 128
128 128 128
128 128 128
128 128 128
128 128 128
128 128 128
128 128 128
128 128 128
128 128 128
128 128 128
128 128 128
128 128 128
128 128 128
64 64 64
0 0 0
0 0 0
0 0 0
64 64 64
128 128 128
192 192 192
192 192 192
192 192 192
192 192 192
192 192 192
192 192 192
192 192 192
192 192 192
192 192 192
192 192 192
192 192 192
192 192 192
192 192 192
192 192 192
192 192 192
192 192 192
192 192 192
192 192 192
192 192 192
192 192 192
192 192 192
192 192 192
128 128 128
128 128 128
128 128 128
128 128 128
128 128 128
128 128 128
128 128 128
128 128 128
128 128 128
192 192 192
192 192 192
192 192 192
128 128 128
192 192 192
192 192 192
192 192 192
192 192 192
192 192 192
128 128 128
128 128 128
192 192 192
192 192 192
128 128 128
128 128 128
128 128 128
128 128 128
128 128 128
128 128 128
128 128 128
128 128 128
128 128 128
128 128 128
128 128 128
128 128 128
128 128 128
192 192 192
192 192 192
128 128 128
128 128 128
128 128 128
128 128 128
128 128 128
128 128 128
128 128 128
128 128 128
128 128 128
128 128 128
192 192 192
192 192 192
128 128 128
256 256 256
256 256 256
256 256 256
256 256 256
256 256 256
256 256 256
256 256 256
256 256 256
256 256 256
256 256 256
256 256 256
256 256 256
256 256 256
256 256 256
256 256 256
256 256 256
256 256 256
256 256 256
256 256 256
256 256 256
256 256 256
256 256 256
256 256 256
256 256 256
256 256 256
256 256 256
256 256 256
256 256 256
256 256 256
256 256 256
256 256 256
256 256 256
256 256 256
256 256 256
256 256 256
256 256 256
256 256 256
256 256 256
256 256 256
256 256 256
256 256 256
256 256 256
256 256 256
256 256 256
192 192 192
256 256 256
256 256 256
256 256 256
192 192 192
192 192 192
192 192 192
192 192 192
192 192 192
256 256 256
256 256 256
192 192 192
192 192 192
256 256 256
256 256 256
256 256 256
256 256 256
256 256 256
256 256 256
256 256 256
256 256 256
256 256 256
256 256 256
192 192 192
192 192 192
192 192 192
192 192 192
192 192 192
192 192 192
192 192 192
192 192 192
128 128 128
128 128 128
128 128 128
128 128 128
192 192 192
192 192 192
128 128 128
128 128 128
128 128 128
128 128 128
128 128 128
128 128 128
128 128 128
128 128 128
128 128 128
128 128 128
128 128 128
128 128 128
128 128 128
128 128 128
128 128 128
128 128 128
64 64 64
64 64 64
64 64 64
64 64 64
0 0 0
0 0 0
0 0 0
64 64 64
64 64 64
192 192 192
192 192 192
192 192 192
192 192 192
192 192 192
192 192 192
192 192 192
192 192 192
192 192 192
192 192 192
192 192 192
192 192 192
192 192 192
192 192 192
192 192 192
192 192 192
192 192 192
192 192 192
192 192 192
128 128 128
192 192 192
128 128 128
192 192 192
192 192 192
192 192 192
192 192 192
192 192 192
192 192 192
192 192 192
128 128 128
192 192 192
128 128 128
128 128 128
192 192 192
192 192 192
192 192 192
192 192 192
192 192 192
192 192 192
192 192 192
192 192 192
192 192 192
192 192 192
128 128 128
128 128 128
128 128 128
128 128 128
128 128 128
128 128 128
128 128 128
128 128 128
128 128 128
128 128 128
128 128 128
128 128 128
128 128 128
128 128 128
128 128 128
192 192 192
192 192 192
192 192 192
128 128 128
128 128 128
128 128 128
128 128 128
128 128 128
128 128 128
128 128 128
128 128 128
128 128 128
192 192 192
192 192 192
128 128 128
128 128 128
256 256 256
256 256 256
256 256 256
256 256 256
256 256 256
256 256 256
256 256 256
256 256 256
256 256 256
256 256 256
256 256 256
256 256 256
256 256 256
256 256 256
256 256 256
256 256 256
256 256 256
256 256 256
256 256 256
256 256 256
256 256 256
256 256 256
256 256 256
256 256 256
256 256 256
256 256 256
256 256 256
256 256 256
256 256 256
256 256 256
256 256 256
256 256 256
256 256 256
256 256 256
256 256 256
256 256 256
256 256 256
256 256 256
256 256 256
256 256 256
256 256 256
256 256 256
256 256 256
256 256 256
192 192 192
192 192 192
192 192 192
192 192 192
192 192 192
256 256 256
256 256 256
192 192 192
192 192 192
192 192 192
192 192 192
192 192 192
192 192 192
256 256 256
256 256 256
256 256 256
256 256 256
256 256 256
256 256 256
256 256 256
256 256 256
256 256 256
256 256 256
256 256 256
256 256 256
192 192 192
192 192 192
192 192 192
192 192 192
128 128 128
128 128 128
128 128 128
128 128 128
128 128 128
128 128 128
128 128 128
128 128 128
128 128 128
128 128 128
128 128 128
128 128 128
128 128 128
128 128 128
128 128 128
128 128 128
128 128 128
128 128 128
128 128 128
128 128 128
128 128 128
128 128 128
64 64 64
64 64 64
64 64 64
64 64 64
0 0 0
0 0 0
0 0 0
64 64 64
64 64 64
128 128 128
192 192 192
192 192 192
192 192 192
192 192 192
192 192 192
192 192 192
192 192 192
192 192 192
192 192 192
192 192 192
192 192 192
192 192 192
192 192 192
192 192 192
192 192 192
192 192 192
192 192 192
192 192 192
128 128 128
192 192 192
192 192 192
128 128 128
192 192 192
192 192 192
128 128 128
128 128 128
192 192 192
192 192 192
192 192 192
192 192 192
192 192 192
192 192 192
192 192 192
128 128 128
192 192 192
128 128 128
128 128 128
192 192 192
128 128 128
192 192 192
192 192 192
128 128 128
192 192 192
192 192 192
128 128 128
128 128 128
128 128 128
128 128 128
128 128 128
128 128 128
128 128 128
128 128 128
128 128 128
128 128 128
128 128 128
128 128 128
128 128 128
192 192 192
192 192 192
128 128 128
128 128 128
192 192 192
128 128 128
128 128 128
128 128 128
128 128 128
128 128 128
128 128 128
128 128 128
128 128 128
192 192 192
192 192 192
192 192 192
64 64 64
192 192 192
256 256 256
256 256 256
256 256 256
256 256 256
256 256 256
256 256 256
256 256 256
256 256 256
256 256 256
256 256 256
256 256 256
256 256 256
256 256 256
256 256 256
256 256 256
256 256 256
256 256 256
256 256 256
256 256 256
256 256 256
256 256 256
256 256 256
256 256 256
256 256 256
256 256 256
256 256 256
256 256 256
256 256 256
256 256 256
256 256 256
256 256 256
256 256 256
256 256 256
256 256 256
256 256 256
256 256 256
256 256 256
256 256 256
256 256 256
256 256 256
256 256 256
256 256 256
256 256 256
256 256 256
256 256 256
256 256 256
256 256 256
192 192 192
192 192 192
192 192 192
192 192 192
192 192 192
192 192 192
192 192 192
192 192 192
192 192 192
192 192 192
256 256 256
256 256 256
256 256 256
256 256 256
256 256 256
256 256 256
256 256 256
256 256 256
256 256 256
256 256 256
256 256 256
256 256 256
192 192 192
192 192 192
192 192 192
192 192 192
192 192 192
192 192 192
128 128 128
192 192 192
128 128 128
128 128 128
128 128 128
128 128 128
128 128 128
128 128 128
128 128 128
128 128 128
128 128 128
128 128 128
128 128 128
128 128 128
128 128 128
128 128 128
128 128 128
128 128 128
128 128 128
64 64 64
0 0 0
0 0 0
0 0 0
64 64 64
64 64 64
64 64 64
64 64 64
128 128 128
128 128 128
192 192 192
192 192 192
192 192 192
192 192 192
192 192 192
192 192 192
192 192 192
192 192 192
192 192 192
192 192 192
192 192 192
192 192 192
192 192 192
192 192 192
192 192 192
192 192 192
192 192 192
192 192 192
192 192 192
128 128 128
128 128 128
128 128 128
192 192 192
192 192 192
192 192 192
192 192 192
192 192 192
192 192 192
192 192 192
192 192 192
192 192 192
192 192 192
192 192 192
192 192 192
192 192 192
128 128 128
128 128 128
128 128 128
128 128 128
128 128 128
128 128 128
128 128 128
128 128 128
128 128 128
128 128 128
128 128 128
128 128 128
128 128 128
128 128 128
128 128 128
128 128 128
128 128 128
128 128 128
128 128 128
128 128 128
128 128 128
128 128 128
192 192 192
128 128 128
128 128 128
128 128 128
128 128 128
128 128 128
128 128 128
192 192 192
128 128 128
128 128 128
128 128 128
128 128 128
128 128 128
192 192 192
192 192 192
192 192 192
128 128 128
64 64 64
192 192 192
256 256 256
256 256 256
256 256 256
256 256 256
256 256 256
256 256 256
256 256 256
256 256 256
256 256 256
256 256 256
256 256 256
256 256 256
256 256 256
256 256 256
256 256 256
256 256 256
256 256 256
256 256 256
256 256 256
256 256 256
256 256 256
256 256 256
256 256 256
256 256 256
256 256 256
256 256 256
256 256 256
256 256 256
256 256 256
256 256 256
256 256 256
256 256 256
256 256 256
256 256 256
256 256 256
256 256 256
256 256 256
256 256 256
256 256 256
256 256 256
256 256 256
256 256 256
256 256 256
256 256 256
192 192 192
192 192 192
192 192 192
192 192 192
192 192 192
192 192 192
192 192 192
192 192 192
192 192 192
192 192 192
192 192 192
192 192 192
192 192 192
256 256 256
256 256 256
256 256 256
256 256 256
256 256 256
256 256 256
256 256 256
256 256 256
256 256 256
256 256 256
256 256 256
256 256 256
256 256 256
192 192 192
192 192 192
192 192 192
192 192 192
192 192 192
192 192 192
192 192 192
128 128 128
128 128 128
128 128 128
128 128 128
128 128 128
128 128 128
128 128 128
128 128 128
128 128 128
128 128 128
128 128 128
128 128 128
128 128 128
128 128 128
128 128 128
128 128 128
64 64 64
0 0 0
64 64 64
64 64 64
64 64 64
64 64 64
64 64 64
64 64 64
128 128 128
128 128 128
192 192 192
192 192 192
192 192 192
192 192 192
192 192 192
192 192 192
192 192 192
192 192 192
192 192 192
192 192 192
192 192 192
192 192 192
192 192 192
192 192 192
192 192 192
192 192 192
192 192 192
192 192 192
192 192 192
192 192 192
192 192 192
128 128 128
128 128 128
192 192 192
192 192 192
192 192 192
192 192 192
192 192 192
192 192 192
192 192 192
192 192 192
192 192 192
192 192 192
128 128 128
192 192 192
192 192 192
128 128 128
128 128 128
128 128 128
128 128 128
128 128 128
128 128 128
128 128 128
128 128 128
128 128 128
128 128 128
128 128 128
128 128 128
128 128 128
128 128 128
128 128 128
128 128 128
128 128 128
128 128 128
128 128 128
128 128 128
128 128 128
128 128 128
128 128 128
128 128 128
128 128 128
128 128 128
128 128 128
192 192 192
128 128 128
128 128 128
128 128 128
128 128 128
128 128 128
128 128 128
128 128 128
192 192 192
192 192 192
192 192 192
64 64 64
128 128 128
256 256 256
256 256 256
256 256 256
256 256 256
256 256 256
256 256 256
256 256 256
256 256 256
256 256 256
256 256 256
256 256 256
256 256 256
256 256 256
256 256 256
256 256 256
256 256 256
256 256 256
256 256 256
256 256 256
256 256 256
256 256 256
256 256 256
256 256 256
256 256 256
256 256 256
256 256 256
256 256 256
256 256 256
256 256 256
256 256 256
256 256 256
256 256 256
256 256 256
256 256 256
256 256 256
256 256 256
256 256 256
256 256 256
256 256 256
256 256 256
256 256 256
256 256 256
256 256 256
256 256 256
192 192 192
192 192 192
192 192 192
192 192 192
192 192 192
192 192 192
192 192 192
192 192 192
192 192 192
192 192 192
192 192 192
192 192 192
192 192 192
192 192 192
256 256 256
192 192 192
192 192 192
192 192 192
192 192 192
256 256 256
256 256 256
256 256 256
256 256 256
256 256 256
192 192 192
192 192 192
192 192 192
192 192 192
192 192 192
192 192 192
192 192 192
192 192 192
192 192 192
192 192 192
192 192 192
192 192 192
128 128 128
128 128 128
128 128 128
128 128 128
128 128 128
128 128 128
128 128 128
128 128 128
128 128 128
128 128 128
128 128 128
128 128 128
128 128 128
64 64 64
64 64 64
64 64 64
64 64 64
64 64 64
64 64 64
128 128 128
128 128 128
128 128 128
128 128 128
192 192 192
192 192 192
192 192 192
192 192 192
192 192 192
192 192 192
192 192 192
192 192 192
192 192 192
192 192 192
192 192 192
192 192 192
192 192 192
192 192 192
192 192 192
128 128 128
128 128 128
128 128 128
128 128 128
128 128 128
128 128 128
128 128 128
128 128 128
128 128 128
192 192 192
192 192 192
192 192 192
192 192 192
192 192 192
192 192 192
192 192 192
192 192 192
192 192 192
192 192 192
128 128 128
128 128 128
128 128 128
128 128 128
128 128 128
128 128 128
128 128 128
128 128 128
128 128 128
128 128 128
128 128 128
128 128 128
128 128 128
128 128 128
128 128 128
128 128 128
128 128 128
128 128 128
128 128 128
128 128 128
128 128 128
128 128 128
128 128 128
128 128 128
128 128 128
128 128 128
128 128 128
128 128 128
128 128 128
128 128 128
128 128 128
128 128 128
128 128 128
128 128 128
128 128 128
128 128 128
192 192 192
192 192 192
192 192 192
192 192 192
128 128 128
64 64 64
192 192 192
256 256 256
256 256 256
256 256 256
256 256 256
256 256 256
256 256 256
256 256 256
256 256 256
256 256 256
256 256 256
256 256 256
256 256 256
256 256 256
256 256 256
256 256 256
256 256 256
256 256 256
256 256 256
256 256 256
256 256 256
256 256 256
256 256 256
256 256 256
256 256 256
256 256 256
256 256 256
256 256 256
256 256 256
256 256 256
256 256 256
256 256 256
256 256 256
256 256 256
256 256 256
256 256 256
256 256 256
256 256 256
256 256 256
256 256 256
256 256 256
256 256 256
256 256 256
256 256 256
256 256 256
256 256 256
192 192 192
192 192 192
192 192 192
192 192 192
192 192 192
192 192 192
192 192 192
192 192 192
192 192 192
192 192 192
192 192 192
192 192 192
192 192 192
192 192 192
192 192 192
192 192 192
192 192 192
256 256 256
256 256 256
256 256 256
256 256 256
192 192 192
192 192 192
192 192 192
192 192 192
192 192 192
192 192 192
192 192 192
192 192 192
192 192 192
192 192 192
192 192 192
192 192 192
192 192 192
192 192 192
192 192 192
192 192 192
128 128 128
128 128 128
128 128 128
128 128 128
128 128 128
128 128 128
128 128 128
128 128 128
128 128 128
128 128 128
64 64 64
64 64 64
64 64 64
64 64 64
64 64 64
64 64 64
128 128 128
128 128 128
128 128 128
128 128 128
192 192 192
192 192 192
192 192 192
192 192 192
192 192 192
192 192 192
192 192 192
192 192 192
192 192 192
192 192 192
192 192 192
192 192 192
128 128 128
128 128 128
128 128 128
128 128 128
128 128 128
128 128 128
128 128 128
128 128 128
128 128 128
128 128 128
128 128 128
128 128 128
128 128 128
128 128 128
192 192 192
192 192 192
192 192 192
192 192 192
192 192 192
192 192 192
192 192 192
192 192 192
128 128 128
128 128 128
128 128 128
128 128 128
128 128 128
128 128 128
128 128 128
128 128 128
128 128 128
128 128 128
128 128 128
128 128 128
128 128 128
128 128 128
128 128 128
128 128 128
128 128 128
128 128 128
128 128 128
128 128 128
128 128 128
128 128 128
128 128 128
128 128 128
128 128 128
128 128 128
128 128 128
128 128 128
128 128 128
128 128 128
128 128 128
128 128 128
128 128 128
128 128 128
128 128 128
128 128 128
128 128 128
192 192 192
192 192 192
192 192 192
128 128 128
64 64 64
128 128 128
256 256 256
256 256 256
256 256 256
256 256 256
256 256 256
256 256 256
256 256 256
256 256 256
256 256 256
256 256 256
256 256 256
256 256 256
256 256 256
256 256 256
256 256 256
256 256 256
256 256 256
256 256 256
256 256 256
256 256 256
256 256 256
256 256 256
256 256 256
256 256 256
256 256 256
256 256 256
256 256 256
256 256 256
256 256 256
256 256 256
256 256 256
256 256 256
256 256 256
256 256 256
256 256 256
256 256 256
256 256 256
256 256 256
256 256 256
256 256 256
256 256 256
256 256 256
256 256 256
256 256 256
256 256 256
192 192 192
192 192 192
192 192 192
192 192 192
192 192 192
256 256 256
192 192 192
192 192 192
192 192 192
192 192 192
256 256 256
192 192 192
192 192 192
192 192 192
192 192 192
192 192 192
192 192 192
192 192 192
192 192 192
256 256 256
256 256 256
256 256 256
256 256 256
192 192 192
192 192 192
192 192 192
192 192 192
192 192 192
192 192 192
192 192 192
192 192 192
192 192 192
192 192 192
192 192 192
192 192 192
192 192 192
192 192 192
192 192 192
192 192 192
192 192 192
192 192 192
192 192 192
128 128 128
128 128 128
128 128 128
128 128 128
128 128 128
64 64 64
64 64 64
64 64 64
64 64 64
64 64 64
128 128 128
128 128 128
128 128 128
128 128 128
128 128 128
128 128 128
192 192 192
192 192 192
192 192 192
128 128 128
128 128 128
128 128 128
128 128 128
128 128 128
128 128 128
128 128 128
128 128 128
128 128 128
128 128 128
128 128 128
128 128 128
128 128 128
128 128 128
128 128 128
128 128 128
128 128 128
128 128 128
128 128 128
128 128 128
128 128 128
128 128 128
192 192 192
192 192 192
192 192 192
192 192 192
192 192 192
128 128 128
128 128 128
128 128 128
128 128 128
128 128 128
128 128 128
128 128 128
128 128 128
128 128 128
128 128 128
128 128 128
128 128 128
128 128 128
128 128 128
128 128 128
128 128 128
128 128 128
128 128 128
128 128 128
128 128 128
128 128 128
128 128 128
128 128 128
128 128 128
128 128 128
128 128 128
128 128 128
128 128 128
128 128 128
128 128 128
128 128 128
128 128 128
128 128 128
128 128 128
128 128 128
128 128 128
128 128 128
128 128 128
128 128 128
128 128 128
128 128 128
192 192 192
128 128 128
128 128 128
64 64 64
64 64 64
192 192 192
256 256 256
256 256 256
256 256 256
256 256 256
256 256 256
256 256 256
256 256 256
256 256 256
256 256 256
256 256 256
256 256 256
256 256 256
256 256 256
256 256 256
256 256 256
256 256 256
256 256 256
256 256 256
256 256 256
256 256 256
256 256 256
256 256 256
256 256 256
256 256 256
256 256 256
256 256 256
256 256 256
256 256 256
256 256 256
256 256 256
256 256 256
256 256 256
256 256 256
256 256 256
256 256 256
256 256 256
256 256 256
256 256 256
256 256 256
256 256 256
256 256 256
256 256 256
256 256 256
256 256 256
256 256 256
256 256 256
256 256 256
192 192 192
192 192 192
192 192 192
192 192 192
192 192 192
192 192 192
192 192 192
192 192 192
192 192 192
192 192 192
192 192 192
192 192 192
192 192 192
192 192 192
192 192 192
192 192 192
192 192 192
192 192 192
192 192 192
256 256 256
256 256 256
192 192 192
192 192 192
192 192 192
192 192 192
192 192 192
192 192 192
192 192 192
128 128 128
192 192 192
192 192 192
192 192 192
192 192 192
192 192 192
192 192 192
192 192 192
192 192 192
128 128 128
192 192 192
192 192 192
192 192 192
192 192 192
128 128 128
128 128 128
64 64 64
64 64 64
64 64 64
64 64 64
64 64 64
64 64 64
128 128 128
128 128 128
128 128 128
128 128 128
128 128 128
128 128 128
128 128 128
128 128 128
128 128 128
128 128 128
128 128 128
128 128 128
128 128 128
128 128 128
128 128 128
128 128 128
128 128 128
128 128 128
128 128 128
128 128 128
128 128 128
128 128 128
128 128 128
128 128 128
128 128 128
128 128 128
128 128 128
128 128 128
128 128 128
128 128 128
192 192 192
128 128 128
128 128 128
128 128 128
128 128 128
128 128 128
128 128 128
128 128 128
128 128 128
128 128 128
128 128 128
128 128 128
128 128 128
128 128 128
128 128 128
128 128 128
128 128 128
128 128 128
128 128 128
128 128 128
128 128 128
128 128 128
128 128 128
128 128 128
128 128 128
128 128 128
128 128 128
128 128 128
128 128 128
128 128 128
128 128 128
128 128 128
128 128 128
128 128 128
128 128 128
128 128 128
128 128 128
128 128 128
128 128 128
128 128 128
128 128 128
128 128 128
128 128 128
128 128 128
128 128 128
128 128 128
192 192 192
192 192 192
128 128 128
128 128 128
64 64 64
128 128 128
256 256 256
256 256 256
256 256 256
256 256 256
256 256 256
256 256 256
256 256 256
256 256 256
256 256 256
256 256 256
256 256 256
256 256 256
256 256 256
256 256 256
256 256 256
256 256 256
256 256 256
256 256 256
256 256 256
256 256 256
256 256 256
256 256 256
256 256 256
256 256 256
256 256 256
256 256 256
256 256 256
256 256 256
256 256 256
256 256 256
256 256 256
256 256 256
256 256 256
256 256 256
256 256 256
256 256 256
256 256 256
256 256 256
256 256 256
256 256 256
256 256 256
256 256 256
256 256 256
256 256 256
256 256 256
192 192 192
256 256 256
256 256 256
192 192 192
192 192 192
192 192 192
192 192 192
192 192 192
192 192 192
192 192 192
192 192 192
192 192 192
192 192 192
192 192 192
192 192 192
192 192 192
192 192 192
192 192 192
192 192 192
192 192 192
192 192 192
256 256 256
256 256 256
192 192 192
192 192 192
192 192 192
192 192 192
192 192 192
192 192 192
192 192 192
192 192 192
128 128 128
128 128 128
192 192 192
192 192 192
192 192 192
192 192 192
192 192 192
128 128 128
192 192 192
128 128 128
192 192 192
192 192 192
192 192 192
192 192 192
192 192 192
192 192 192
128 128 128
64 64 64
64 64 64
64 64 64
64 64 64
128 128 128
128 128 128
128 128 128
128 128 128
64 64 64
64 64 64
128 128 128
128 128 128
128 128 128
128 128 128
128 128 128
128 128 128
128 128 128
128 128 128
128 128 128
128 128 128
128 128 128
128 128 128
128 128 128
128 128 128
128 128 128
128 128 128
128 128 128
128 128 128
128 128 128
128 128 128
128 128 128
128 128 128
128 128 128
128 128 128
128 128 128
128 128 128
128 128 128
128 128 128
128 128 128
128 128 128
128 128 128
128 128 128
128 128 128
128 128 128
128 128 128
128 128 128
128 128 128
128 128 128
128 128 128
128 128 128
128 128 128
128 128 128
128 128 128
128 128 128
128 128 128
128 128 128
128 128 128
128 128 128
128 128 128
128 128 128
128 128 128
128 128 128
128 128 128
128 128 128
128 128 128
128 128 128
128 128 128
128 128 128
128 128 128
128 128 128
128 128 128
128 128 128
128 128 128
128 128 128
128 128 128
128 128 128
128 128 128
128 128 128
128 128 128
128 128 128
128 128 128
192 192 192
128 128 128
128 128 128
64 64 64
64 64 64
192 192 192
256 256 256
256 256 256
256 256 256
256 256 256
256 256 256
256 256 256
256 256 256
256 256 256
256 256 256
256 256 256
256 256 256
256 256 256
256 256 256
256 256 256
256 256 256
256 256 256
256 256 256
256 256 256
256 256 256
256 256 256
256 256 256
256 256 256
256 256 256
256 256 256
256 256 256
256 256 256
256 256 256
256 256 256
256 256 256
256 256 256
256 256 256
256 256 256
256 256 256
256 256 256
256 256 256
256 256 256
256 256 256
256 256 256
256 256 256
256 256 256
256 256 256
256 256 256
256 256 256
256 256 256
256 256 256
256 256 256
256 256 256
192 192 192
192 192 192
192 192 192
192 192 192
192 192 192
192 192 192
192 192 192
192 192 192
192 192 192
192 192 192
192 192 192
192 192 192
192 192 192
192 192 192
192 192 192
192 192 192
192 192 192
192 192 192
256 256 256
192 192 192
192 192 192
192 192 192
192 192 192
192 192 192
192 192 192
192 192 192
192 192 192
192 192 192
192 192 192
64 64 64
128 128 128
192 192 192
192 192 192
192 192 192
192 192 192
192 192 192
128 128 128
192 192 192
192 192 192
192 192 192
128 128 128
128 128 128
128 128 128
128 128 128
128 128 128
128 128 128
64 64 64
64 64 64
64 64 64
64 64 64
128 128 128
128 128 128
128 128 128
128 128 128
128 128 128
128 128 128
128 128 128
128 128 128
128 128 128
128 128 128
128 128 128
128 128 128
128 128 128
128 128 128
128 128 128
128 128 128
128 128 128
128 128 128
128 128 128
128 128 128
128 128 128
128 128 128
128 128 128
128 128 128
128 128 128
128 128 128
128 128 128
128 128 128
128 128 128
128 128 128
128 128 128
128 128 128
128 128 128
128 128 128
128 128 128
128 128 128
128 128 128
128 128 128
128 128 128
128 128 128
128 128 128
128 128 128
128 128 128
128 128 128
128 128 128
128 128 128
128 128 128
128 128 128
128 128 128
128 128 128
128 128 128
128 128 128
128 128 128
128 128 128
128 128 128
128 128 128
128 128 128
128 128 128
128 128 128
128 128 128
128 128 128
128 128 128
128 128 128
128 128 128
128 128 128
128 128 128
128 128 128
128 128 128
128 128 128
128 128 128
128 128 128
128 128 128
128 128 128
192 192 192
128 128 128
128 128 128
192 192 192
128 128 128
128 128 128
64 64 64
64 64 64
192 192 192
256 256 256
256 256 256
256 256 256
256 256 256
256 256 256
256 256 256
256 256 256
256 256 256
256 256 256
256 256 256
256 256 256
256 256 256
256 256 256
256 256 256
256 256 256
256 256 256
256 256 256
256 256 256
256 256 256
256 256 256
256 256 256
256 256 256
256 256 256
256 256 256
256 256 256
256 256 256
256 256 256
256 256 256
256 256 256
256 256 256
256 256 256
256 256 256
256 256 256
256 256 256
256 256 256
256 256 256
256 256 256
256 256 256
256 256 256
256 256 256
256 256 256
256 256 256
256 256 256
256 256 256
256 256 256
256 256 256
192 192 192
192 192 192
192 192 192
192 192 192
192 192 192
192 192 192
256 256 256
192 192 192
192 192 192
192 192 192
192 192 192
192 192 192
192 192 192
192 192 192
192 192 192
192 192 192
192 192 192
192 192 192
192 192 192
192 192 192
192 192 192
192 192 192
192 192 192
192 192 192
192 192 192
192 192 192
192 192 192
192 192 192
192 192 192
192 192 192
192 192 192
192 192 192
192 192 192
192 192 192
192 192 192
128 128 128
192 192 192
128 128 128
192 192 192
192 192 192
128 128 128
192 192 192
192 192 192
192 192 192
192 192 192
128 128 128
128 128 128
128 128 128
128 128 128
128 128 128
64 64 64
128 128 128
128 128 128
128 128 128
128 128 128
128 128 128
128 128 128
128 128 128
128 128 128
128 128 128
128 128 128
128 128 128
128 128 128
128 128 128
128 128 128
128 128 128
128 128 128
128 128 128
128 128 128
128 128 128
128 128 128
128 128 128
128 128 128
128 128 128
128 128 128
128 128 128
128 128 128
128 128 128
128 128 128
128 128 128
128 128 128
128 128 128
128 128 128
128 128 128
192 192 192
128 128 128
128 128 128
128 128 128
128 128 128
128 128 128
128 128 128
128 128 128
128 128 128
128 128 128
128 128 128
128 128 128
128 128 128
128 128 128
128 128 128
128 128 128
128 128 128
128 128 128
128 128 128
128 128 128
128 128 128
128 128 128
128 128 128
128 128 128
128 128 128
128 128 128
128 128 128
128 128 128
128 128 128
128 128 128
128 128 128
128 128 128
128 128 128
128 128 128
128 128 128
128 128 128
128 128 128
128 128 128
128 128 128
128 128 128
192 192 192
192 192 192
128 128 128
128 128 128
128 128 128
128 128 128
128 128 128
64 64 64
64 64 64
192 192 192
256 256 256
256 256 256
256 256 256
256 256 256
256 256 256
256 256 256
256 256 256
256 256 256
256 256 256
256 256 256
256 256 256
256 256 256
256 256 256
256 256 256
256 256 256
256 256 256
256 256 256
256 256 256
256 256 256
256 256 256
256 256 256
256 256 256
256 256 256
256 256 256
256 256 256
256 256 256
256 256 256
256 256 256
256 256 256
256 256 256
256 256 256
256 256 256
256 256 256
256 256 256
256 256 256
256 256 256
256 256 256
256 256 256
256 256 256
256 256 256
256 256 256
256 256 256
256 256 256
256 256 256
256 256 256
256 256 256
192 192 192
192 192 192
192 192 192
192 192 192
192 192 192
192 192 192
192 192 192
192 192 192
192 192 192
192 192 192
192 192 192
192 192 192
192 192 192
192 192 192
192 192 192
192 192 192
192 192 192
192 192 192
192 192 192
192 192 192
192 192 192
192 192 192
192 192 192
192 192 192
192 192 192
192 192 192
192 192 192
192 192 192
128 128 128
192 192 192
192 192 192
192 192 192
192 192 192
192 192 192
128 128 128
128 128 128
192 192 192
192 192 192
128 128 128
128 128 128
128 128 128
128 128 128
128 128 128
128 128 128
128 128 128
192 192 192
192 192 192
128 128 128
128 128 128
64 64 64
128 128 128
128 128 128
64 64 64
128 128 128
128 128 128
128 128 128
128 128 128
128 128 128
128 128 128
128 128 128
128 128 128
128 128 128
128 128 128
128 128 128
128 128 128
128 128 128
128 128 128
128 128 128
128 128 128
128 128 128
128 128 128
128 128 128
128 128 128
128 128 128
128 128 128
128 128 128
128 128 128
128 128 128
128 128 128
128 128 128
128 128 128
128 128 128
192 192 192
192 192 192
128 128 128
128 128 128
128 128 128
128 128 128
128 128 128
128 128 128
128 128 128
128 128 128
128 128 128
128 128 128
128 128 128
128 128 128
128 128 128
128 128 128
128 128 128
128 128 128
128 128 128
128 128 128
128 128 128
128 128 128
128 128 128
128 128 128
128 128 128
128 128 128
128 128 128
128 128 128
128 128 128
128 128 128
128 128 128
128 128 128
128 128 128
128 128 128
128 128 128
128 128 128
128 128 128
128 128 128
128 128 128
128 128 128
128 128 128
192 192 192
192 192 192
192 192 192
128 128 128
128 128 128
128 128 128
128 128 128
64 64 64
64 64 64
192 192 192
192 192 192
256 256 256
256 256 256
256 256 256
256 256 256
256 256 256
256 256 256
256 256 256
256 256 256
256 256 256
256 256 256
256 256 256
256 256 256
256 256 256
256 256 256
256 256 256
256 256 256
256 256 256
256 256 256
256 256 256
256 256 256
256 256 256
256 256 256
256 256 256
256 256 256
256 256 256
256 256 256
256 256 256
256 256 256
256 256 256
256 256 256
256 256 256
256 256 256
256 256 256
256 256 256
256 256 256
256 256 256
256 256 256
256 256 256
256 256 256
256 256 256
256 256 256
256 256 256
256 256 256
256 256 256
256 256 256
256 256 256
192 192 192
192 192 192
192 192 192
192 192 192
192 192 192
192 192 192
192 192 192
192 192 192
192 192 192
192 192 192
192 192 192
192 192 192
192 192 192
192 192 192
192 192 192
192 192 192
192 192 192
192 192 192
192 192 192
192 192 192
192 192 192
192 192 192
192 192 192
192 192 192
192 192 192
192 192 192
192 192 192
192 192 192
128 128 128
192 192 192
192 192 192
128 128 128
128 128 128
128 128 128
128 128 128
128 128 128
128 128 128
192 192 192
192 192 192
192 192 192
128 128 128
128 128 128
128 128 128
128 128 128
128 128 128
128 128 128
128 128 128
128 128 128
128 128 128
128 128 128
64 64 64
128 128 128
128 128 128
128 128 128
128 128 128
128 128 128
64 64 64
128 128 128
128 128 128
128 128 128
128 128 128
128 128 128
128 128 128
128 128 128
128 128 128
128 128 128
128 128 128
128 128 128
128 128 128
128 128 128
128 128 128
128 128 128
128 128 128
128 128 128
128 128 128
128 128 128
192 192 192
128 128 128
128 128 128
128 128 128
128 128 128
128 128 128
192 192 192
192 192 192
192 192 192
128 128 128
128 128 128
128 128 128
128 128 128
128 128 128
128 128 128
128 128 128
128 128 128
128 128 128
128 128 128
128 128 128
128 128 128
128 128 128
128 128 128
128 128 128
128 128 128
128 128 128
128 128 128
128 128 128
128 128 128
128 128 128
128 128 128
128 128 128
128 128 128
128 128 128
128 128 128
128 128 128
128 128 128
128 128 128
128 128 128
128 128 128
128 128 128
128 128 128
64 64 64
128 128 128
128 128 128
128 128 128
128 128 128
192 192 192
192 192 192
128 128 128
128 128 128
128 128 128
128 128 128
64 64 64
64 64 64
128 128 128
192 192 192
256 256 256
256 256 256
256 256 256
256 256 256
256 256 256
256 256 256
256 256 256
256 256 256
256 256 256
256 256 256
256 256 256
256 256 256
256 256 256
256 256 256
256 256 256
256 256 256
256 256 256
256 256 256
256 256 256
256 256 256
256 256 256
256 256 256
256 256 256
256 256 256
256 256 256
256 256 256
256 256 256
256 256 256
256 256 256
256 256 256
256 256 256
256 256 256
256 256 256
256 256 256
256 256 256
256 256 256
256 256 256
256 256 256
256 256 256
256 256 256
256 256 256
256 256 256
256 256 256
256 256 256
256 256 256
256 256 256
192 192 192
192 192 192
192 192 192
192 192 192
192 192 192
192 192 192
192 192 192
192 192 192
192 192 192
192 192 192
192 192 192
192 192 192
192 192 192
192 192 192
192 192 192
192 192 192
192 192 192
192 192 192
192 192 192
192 192 192
192 192 192
192 192 192
192 192 192
192 192 192
192 192 192
192 192 192
192 192 192
192 192 192
192 192 192
192 192 192
192 192 192
192 192 192
192 192 192
192 192 192
128 128 128
128 128 128
128 128 128
128 128 128
128 128 128
128 128 128
128 128 128
128 128 128
128 128 128
128 128 128
128 128 128
128 128 128
128 128 128
128 128 128
128 128 128
128 128 128
64 64 64
128 128 128
128 128 128
128 128 128
128 128 128
128 128 128
128 128 128
128 128 128
128 128 128
128 128 128
128 128 128
128 128 128
128 128 128
128 128 128
128 128 128
128 128 128
128 128 128
128 128 128
128 128 128
128 128 128
128 128 128
128 128 128
128 128 128
192 192 192
192 192 192
192 192 192
192 192 192
128 128 128
128 128 128
128 128 128
128 128 128
128 128 128
128 128 128
128 128 128
128 128 128
128 128 128
128 128 128
128 128 128
128 128 128
128 128 128
128 128 128
128 128 128
128 128 128
128 128 128
128 128 128
128 128 128
128 128 128
128 128 128
128 128 128
128 128 128
128 128 128
128 128 128
128 128 128
128 128 128
128 128 128
128 128 128
128 128 128
128 128 128
128 128 128
128 128 128
128 128 128
128 128 128
128 128 128
128 128 128
128 128 128
128 128 128
128 128 128
128 128 128
128 128 128
128 128 128
128 128 128
128 128 128
128 128 128
192 192 192
192 192 192
128 128 128
128 128 128
128 128 128
128 128 128
128 128 128
64 64 64
64 64 64
192 192 192
256 256 256
256 256 256
256 256 256
256 256 256
256 256 256
256 256 256
256 256 256
256 256 256
256 256 256
256 256 256
256 256 256
256 256 256
256 256 256
256 256 256
256 256 256
256 256 256
256 256 256
256 256 256
256 256 256
256 256 256
256 256 256
256 256 256
256 256 256
256 256 256
256 256 256
256 256 256
256 256 256
256 256 256
256 256 256
256 256 256
256 256 256
256 256 256
256 256 256
256 256 256
256 256 256
256 256 256
256 256 256
256 256 256
256 256 256
256 256 256
256 256 256
256 256 256
256 256 256
256 256 256
256 256 256
256 256 256
256 256 256
192 192 192
192 192 192
192 192 192
192 192 192
192 192 192
192 192 192
192 192 192
192 192 192
192 192 192
192 192 192
192 192 192
192 192 192
192 192 192
192 192 192
192 192 192
192 192 192
192 192 192
192 192 192
192 192 192
192 192 192
192 192 192
192 192 192
192 192 192
192 192 192
192 192 192
192 192 192
128 128 128
128 128 128
192 192 192
192 192 192
192 192 192
128 128 128
192 192 192
192 192 192
192 192 192
192 192 192
192 192 192
128 128 128
128 128 128
128 128 128
128 128 128
128 128 128
128 128 128
128 128 128
128 128 128
128 128 128
128 128 128
128 128 128
128 128 128
128 128 128
128 128 128
128 128 128
64 64 64
64 64 64
64 64 64
64 64 64
64 64 64
128 128 128
128 128 128
128 128 128
128 128 128
128 128 128
64 64 64
128 128 128
128 128 128
128 128 128
128 128 128
128 128 128
128 128 128
128 128 128
192 192 192
128 128 128
192 192 192
128 128 128
128 128 128
128 128 128
128 128 128
128 128 128
128 128 128
128 128 128
128 128 128
128 128 128
128 128 128
128 128 128
128 128 128
128 128 128
128 128 128
128 128 128
128 128 128
128 128 128
128 128 128
128 128 128
128 128 128
128 128 128
128 128 128
128 128 128
128 128 128
128 128 128
128 128 128
128 128 128
128 128 128
128 128 128
128 128 128
128 128 128
128 128 128
128 128 128
128 128 128
128 128 128
128 128 128
128 128 128
128 128 128
128 128 128
128 128 128
128 128 128
128 128 128
128 128 128
128 128 128
128 128 128
128 128 128
128 128 128
128 128 128
128 128 128
192 192 192
192 192 192
192 192 192
128 128 128
128 128 128
128 128 128
128 128 128
64 64 64
0 0 0
128 128 128
192 192 192
256 256 256
256 256 256
256 256 256
256 256 256
256 256 256
256 256 256
256 256 256
256 256 256
256 256 256
256 256 256
256 256 256
256 256 256
256 256 256
256 256 256
256 256 256
256 256 256
256 256 256
256 256 256
256 256 256
256 256 256
256 256 256
256 256 256
256 256 256
256 256 256
256 256 256
256 256 256
256 256 256
256 256 256
256 256 256
256 256 256
256 256 256
256 256 256
256 256 256
256 256 256
256 256 256
256 256 256
256 256 256
256 256 256
256 256 256
256 256 256
256 256 256
256 256 256
256 256 256
256 256 256
256 256 256
192 192 192
192 192 192
192 192 192
192 192 192
192 192 192
192 192 192
192 192 192
192 192 192
192 192 192
192 192 192
192 192 192
192 192 192
192 192 192
192 192 192
192 192 192
192 192 192
192 192 192
192 192 192
192 192 192
192 192 192
192 192 192
192 192 192
192 192 192
192 192 192
192 192 192
192 192 192
192 192 192
128 128 128
128 128 128
192 192 192
192 192 192
192 192 192
128 128 128
128 128 128
192 192 192
192 192 192
192 192 192
192 192 192
128 128 128
128 128 128
128 128 128
128 128 128
128 128 128
128 128 128
128 128 128
128 128 128
128 128 128
128 128 128
128 128 128
128 128 128
128 128 128
128 128 128
128 128 128
64 64 64
64 64 64
128 128 128
128 128 128
128 128 128
128 128 128
64 64 64
128 128 128
128 128 128
128 128 128
128 128 128
128 128 128
128 128 128
128 128 128
128 128 128
128 128 128
128 128 128
128 128 128
128 128 128
128 128 128
128 128 128
128 128 128
192 192 192
192 192 192
128 128 128
64 64 64
64 64 64
64 64 64
64 64 64
64 64 64
128 128 128
128 128 128
128 128 128
128 128 128
128 128 128
128 128 128
128 128 128
128 128 128
128 128 128
128 128 128
128 128 128
128 128 128
128 128 128
128 128 128
128 128 128
128 128 128
128 128 128
128 128 128
128 128 128
128 128 128
128 128 128
128 128 128
128 128 128
128 128 128
128 128 128
128 128 128
128 128 128
128 128 128
128 128 128
128 128 128
128 128 128
128 128 128
128 128 128
128 128 128
128 128 128
128 128 128
128 128 128
128 128 128
128 128 128
128 128 128
128 128 128
192 192 192
192 192 192
128 128 128
128 128 128
192 192 192
128 128 128
64 64 64
0 0 0
64 64 64
192 192 192
256 256 256
256 256 256
256 256 256
256 256 256
256 256 256
256 256 256
256 256 256
256 256 256
256 256 256
256 256 256
256 256 256
256 256 256
256 256 256
256 256 256
256 256 256
256 256 256
256 256 256
256 256 256
256 256 256
256 256 256
256 256 256
256 256 256
256 256 256
256 256 256
256 256 256
256 256 256
256 256 256
256 256 256
256 256 256
256 256 256
256 256 256
256 256 256
256 256 256
256 256 256
256 256 256
256 256 256
256 256 256
256 256 256
256 256 256
256 256 256
256 256 256
256 256 256
256 256 256
256 256 256
256 256 256
256 256 256
256 256 256
192 192 192
192 192 192
192 192 192
192 192 192
192 192 192
192 192 192
192 192 192
192 192 192
192 192 192
192 192 192
192 192 192
192 192 192
192 192 192
192 192 192
192 192 192
192 192 192
192 192 192
192 192 192
192 192 192
192 192 192
192 192 192
192 192 192
192 192 192
192 192 192
192 192 192
192 192 192
192 192 192
192 192 192
192 192 192
128 128 128
128 128 128
128 128 128
128 128 128
192 192 192
192 192 192
128 128 128
128 128 128
128 128 128
128 128 128
128 128 128
128 128 128
128 128 128
128 128 128
128 128 128
128 128 128
128 128 128
128 128 128
128 128 128
128 128 128
128 128 128
128 128 128
64 64 64
128 128 128
128 128 128
128 128 128
128 128 128
128 128 128
128 128 128
128 128 128
128 128 128
128 128 128
128 128 128
128 128 128
128 128 128
128 128 128
128 128 128
128 128 128
128 128 128
128 128 128
64 64 64
0 0 0
128 128 128
256 256 256
256 256 256
256 256 256
256 256 256
256 256 256
192 192 192
128 128 128
64 64 64
64 64 64
128 128 128
128 128 128
128 128 128
128 128 128
128 128 128
128 128 128
128 128 128
128 128 128
128 128 128
128 128 128
128 128 128
128 128 128
128 128 128
128 128 128
128 128 128
128 128 128
128 128 128
128 128 128
128 128 128
128 128 128
128 128 128
128 128 128
128 128 128
128 128 128
128 128 128
128 128 128
128 128 128
128 128 128
128 128 128
128 128 128
128 128 128
128 128 128
128 128 128
128 128 128
128 128 128
128 128 128
128 128 128
128 128 128
128 128 128
128 128 128
128 128 128
128 128 128
128 128 128
128 128 128
128 128 128
128 128 128
128 128 128
64 64 64
64 64 64
0 0 0
128 128 128
192 192 192
256 256 256
256 256 256
256 256 256
256 256 256
256 256 256
256 256 256
256 256 256
256 256 256
256 256 256
256 256 256
256 256 256
256 256 256
256 256 256
256 256 256
256 256 256
256 256 256
256 256 256
256 256 256
256 256 256
256 256 256
256 256 256
256 256 256
256 256 256
256 256 256
256 256 256
256 256 256
256 256 256
256 256 256
256 256 256
256 256 256
256 256 256
256 256 256
256 256 256
256 256 256
256 256 256
256 256 256
256 256 256
256 256 256
256 256 256
256 256 256
256 256 256
256 256 256
256 256 256
256 256 256
256 256 256
256 256 256
192 192 192
192 192 192
192 192 192
192 192 192
192 192 192
192 192 192
192 192 192
192 192 192
192 192 192
192 192 192
192 192 192
192 192 192
192 192 192
192 192 192
192 192 192
192 192 192
192 192 192
192 192 192
192 192 192
192 192 192
192 192 192
192 192 192
192 192 192
192 192 192
192 192 192
128 128 128
192 192 192
192 192 192
192 192 192
192 192 192
128 128 128
128 128 128
128 128 128
128 128 128
128 128 128
128 128 128
128 128 128
128 128 128
128 128 128
128 128 128
128 128 128
128 128 128
128 128 128
128 128 128
128 128 128
128 128 128
128 128 128
128 128 128
128 128 128
128 128 128
128 128 128
128 128 128
128 128 128
128 128 128
128 128 128
128 128 128
128 128 128
128 128 128
128 128 128
64 64 64
128 128 128
128 128 128
128 128 128
128 128 128
128 128 128
128 128 128
64 64 64
64 64 64
64 64 64
0 0 0
64 64 64
64 64 64
64 64 64
192 192 192
256 256 256
256 256 256
256 256 256
256 256 256
256 256 256
256 256 256
256 256 256
192 192 192
128 128 128
128 128 128
128 128 128
128 128 128
128 128 128
128 128 128
128 128 128
128 128 128
128 128 128
128 128 128
128 128 128
128 128 128
128 128 128
128 128 128
128 128 128
128 128 128
128 128 128
128 128 128
128 128 128
128 128 128
128 128 128
128 128 128
128 128 128
128 128 128
128 128 128
128 128 128
128 128 128
128 128 128
128 128 128
128 128 128
128 128 128
128 128 128
128 128 128
128 128 128
128 128 128
128 128 128
128 128 128
128 128 128
128 128 128
128 128 128
128 128 128
128 128 128
128 128 128
128 128 128
128 128 128
64 64 64
64 64 64
64 64 64
0 0 0
128 128 128
192 192 192
256 256 256
256 256 256
256 256 256
256 256 256
256 256 256
256 256 256
256 256 256
256 256 256
256 256 256
256 256 256
256 256 256
256 256 256
256 256 256
256 256 256
256 256 256
256 256 256
256 256 256
256 256 256
256 256 256
256 256 256
256 256 256
256 256 256
256 256 256
256 256 256
256 256 256
256 256 256
256 256 256
256 256 256
256 256 256
256 256 256
256 256 256
256 256 256
256 256 256
256 256 256
256 256 256
192 192 192
256 256 256
256 256 256
256 256 256
256 256 256
256 256 256
256 256 256
256 256 256
192 192 192
192 192 192
192 192 192
192 192 192
192 192 192
192 192 192
192 192 192
192 192 192
192 192 192
192 192 192
192 192 192
192 192 192
192 192 192
192 192 192
192 192 192
192 192 192
192 192 192
192 192 192
192 192 192
192 192 192
192 192 192
192 192 192
192 192 192
192 192 192
192 192 192
192 192 192
192 192 192
192 192 192
192 192 192
128 128 128
128 128 128
128 128 128
192 192 192
192 192 192
128 128 128
128 128 128
128 128 128
128 128 128
128 128 128
128 128 128
128 128 128
128 128 128
128 128 128
128 128 128
128 128 128
128 128 128
128 128 128
128 128 128
128 128 128
128 128 128
128 128 128
128 128 128
128 128 128
128 128 128
128 128 128
128 128 128
128 128 128
128 128 128
128 128 128
128 128 128
128 128 128
128 128 128
128 128 128
128 128 128
128 128 128
128 128 128
128 128 128
128 128 128
128 128 128
64 64 64
64 64 64
64 64 64
0 0 0
64 64 64
64 64 64
64 64 64
64 64 64
64 64 64
128 128 128
256 256 256
256 256 256
256 256 256
256 256 256
256 256 256
256 256 256
256 256 256
256 256 256
256 256 256
256 256 256
192 192 192
192 192 192
192 192 192
192 192 192
192 192 192
192 192 192
192 192 192
128 128 128
128 128 128
128 128 128
128 128 128
128 128 128
128 128 128
128 128 128
128 128 128
128 128 128
128 128 128
128 128 128
128 128 128
128 128 128
128 128 128
128 128 128
128 128 128
128 128 128
128 128 128
128 128 128
128 128 128
128 128 128
128 128 128
128 128 128
128 128 128
128 128 128
128 128 128
128 128 128
128 128 128
128 128 128
128 128 128
128 128 128
128 128 128
128 128 128
128 128 128
64 64 64
64 64 64
64 64 64
0 0 0
64 64 64
192 192 192
192 192 192
256 256 256
256 256 256
256 256 256
256 256 256
256 256 256
256 256 256
256 256 256
256 256 256
256 256 256
256 256 256
256 256 256
256 256 256
256 256 256
256 256 256
256 256 256
256 256 256
256 256 256
256 256 256
256 256 256
256 256 256
256 256 256
256 256 256
256 256 256
256 256 256
256 256 256
256 256 256
256 256 256
256 256 256
256 256 256
256 256 256
256 256 256
256 256 256
256 256 256
256 256 256
256 256 256
256 256 256
256 256 256
256 256 256
256 256 256
256 256 256
256 256 256
256 256 256
256 256 256
256 256 256
192 192 192
256 256 256
256 256 256
192 192 192
192 192 192
192 192 192
192 192 192
192 192 192
192 192 192
192 192 192
192 192 192
192 192 192
192 192 192
192 192 192
192 192 192
192 192 192
192 192 192
192 192 192
192 192 192
192 192 192
192 192 192
192 192 192
192 192 192
192 192 192
192 192 192
192 192 192
128 128 128
128 128 128
128 128 128
128 128 128
128 128 128
128 128 128
128 128 128
128 128 128
128 128 128
128 128 128
128 128 128
128 128 128
128 128 128
128 128 128
128 128 128
128 128 128
128 128 128
128 128 128
128 128 128
128 128 128
128 128 128
128 128 128
128 128 128
128 128 128
128 128 128
128 128 128
128 128 128
128 128 128
128 128 128
128 128 128
128 128 128
128 128 128
128 128 128
128 128 128
128 128 128
128 128 128
128 128 128
128 128 128
128 128 128
128 128 128
128 128 128
128 128 128
64 64 64
64 64 64
0 0 0
64 64 64
64 64 64
64 64 64
64 64 64
64 64 64
64 64 64
64 64 64
128 128 128
256 256 256
256 256 256
256 256 256
256 256 256
256 256 256
256 256 256
256 256 256
256 256 256
256 256 256
256 256 256
256 256 256
256 256 256
256 256 256
256 256 256
256 256 256
256 256 256
256 256 256
256 256 256
256 256 256
256 256 256
256 256 256
256 256 256
256 256 256
256 256 256
256 256 256
192 192 192
192 192 192
192 192 192
192 192 192
192 192 192
128 128 128
128 128 128
128 128 128
128 128 128
128 128 128
128 128 128
128 128 128
128 128 128
128 128 128
128 128 128
128 128 128
128 128 128
128 128 128
128 128 128
128 128 128
128 128 128
128 128 128
128 128 128
128 128 128
64 64 64
0 0 0
64 64 64
0 0 0
0 0 0
128 128 128
192 192 192
256 256 256
256 256 256
256 256 256
256 256 256
256 256 256
256 256 256
256 256 256
256 256 256
256 256 256
256 256 256
256 256 256
256 256 256
256 256 256
256 256 256
256 256 256
256 256 256
256 256 256
256 256 256
256 256 256
256 256 256
256 256 256
256 256 256
256 256 256
256 256 256
256 256 256
256 256 256
256 256 256
256 256 256
256 256 256
256 256 256
256 256 256
256 256 256
256 256 256
256 256 256
256 256 256
256 256 256
256 256 256
256 256 256
256 256 256
256 256 256
256 256 256
256 256 256
256 256 256
256 256 256
192 192 192
192 192 192
192 192 192
192 192 192
192 192 192
192 192 192
192 192 192
192 192 192
192 192 192
192 192 192
192 192 192
192 192 192
192 192 192
192 192 192
192 192 192
192 192 192
192 192 192
192 192 192
192 192 192
192 192 192
192 192 192
192 192 192
192 192 192
192 192 192
192 192 192
192 192 192
192 192 192
192 192 192
192 192 192
192 192 192
128 128 128
128 128 128
128 128 128
128 128 128
128 128 128
128 128 128
128 128 128
128 128 128
128 128 128
128 128 128
128 128 128
128 128 128
128 128 128
128 128 128
128 128 128
128 128 128
128 128 128
128 128 128
128 128 128
128 128 128
128 128 128
128 128 128
128 128 128
128 128 128
128 128 128
128 128 128
128 128 128
128 128 128
128 128 128
64 64 64
128 128 128
128 128 128
128 128 128
128 128 128
128 128 128
128 128 128
128 128 128
128 128 128
128 128 128
128 128 128
64 64 64
64 64 64
64 64 64
64 64 64
128 128 128
128 128 128
128 128 128
128 128 128
64 64 64
64 64 64
256 256 256
256 256 256
256 256 256
256 256 256
256 256 256
256 256 256
256 256 256
256 256 256
256 256 256
256 256 256
256 256 256
256 256 256
256 256 256
256 256 256
256 256 256
256 256 256
256 256 256
256 256 256
256 256 256
256 256 256
256 256 256
256 256 256
256 256 256
256 256 256
256 256 256
256 256 256
256 256 256
256 256 256
256 256 256
256 256 256
256 256 256
256 256 256
256 256 256
192 192 192
192 192 192
128 128 128
128 128 128
128 128 128
128 128 128
128 128 128
128 128 128
128 128 128
128 128 128
128 128 128
128 128 128
128 128 128
128 128 128
128 128 128
128 128 128
64 64 64
64 64 64
64 64 64
0 0 0
64 64 64
192 192 192
192 192 192
256 256 256
256 256 256
256 256 256
256 256 256
256 256 256
256 256 256
256 256 256
256 256 256
256 256 256
256 256 256
256 256 256
256 256 256
256 256 256
256 256 256
256 256 256
256 256 256
256 256 256
256 256 256
256 256 256
256 256 256
256 256 256
256 256 256
256 256 256
256 256 256
256 256 256
256 256 256
256 256 256
256 256 256
256 256 256
256 256 256
256 256 256
256 256 256
256 256 256
256 256 256
256 256 256
256 256 256
256 256 256
256 256 256
256 256 256
256 256 256
256 256 256
256 256 256
192 192 192
192 192 192
192 192 192
192 192 192
192 192 192
192 192 192
192 192 192
192 192 192
192 192 192
192 192 192
192 192 192
192 192 192
192 192 192
192 192 192
192 192 192
192 192 192
192 192 192
192 192 192
192 192 192
192 192 192
192 192 192
192 192 192
192 192 192
192 192 192
